; HEADER_BLOCK_START
; generated by OrcaSlicer 1.9.0 on 2024-03-24 at 22:53:12
; total layer number: 240
; filament_density: 1.24
; filament_diameter: 1.75
; max_z_height: 48.00
; HEADER_BLOCK_END

; THUMBNAIL_BLOCK_START

;
; THUMBNAIL_BLOCK_END

; external perimeters extrusion width = 0.40mm
; perimeters extrusion width = 0.44mm
; infill extrusion width = 0.44mm
; solid infill extrusion width = 0.48mm
; top infill extrusion width = 0.38mm
; first layer extrusion width = 0.48mm

; EXECUTABLE_BLOCK_START
EXCLUDE_OBJECT_DEFINE NAME=3DBenchy.stl_id_0_copy_0 CENTER=150,105 POLYGON=[[120,95.816],[120.002,95.755],[120.007,95.699],[120.012,95.646],[120.014,95.63],[120.02,95.583],[120.028,95.525],[120.046,95.436],[120.058,95.379],[120.074,95.322],[120.081,95.296],[120.097,95.239],[120.126,95.155],[120.14,95.118],[120.162,95.064],[120.169,95.047],[120.186,95.01],[120.209,94.958],[120.23,94.916],[120.264,94.854],[120.278,94.827],[120.291,94.806],[120.34,94.727],[120.357,94.7],[120.371,94.679],[120.405,94.631],[120.44,94.584],[120.484,94.531],[120.508,94.501],[120.539,94.466],[120.578,94.423],[120.592,94.408],[120.6,94.4],[120.641,94.359],[120.661,94.34],[120.704,94.3],[120.737,94.271],[120.783,94.234],[120.793,94.225],[120.828,94.197],[120.887,94.154],[120.935,94.121],[120.979,94.092],[121.044,94.052],[121.071,94.036],[121.124,94.008],[121.148,93.995],[121.175,93.981],[121.197,93.97],[121.253,93.944],[121.312,93.919],[121.361,93.899],[121.417,93.879],[121.429,93.875],[121.472,93.861],[121.485,93.857],[121.541,93.84],[121.548,93.838],[121.584,93.828],[121.597,93.825],[121.625,93.818],[121.64,93.814],[121.71,93.799],[121.739,93.794],[121.769,93.789],[121.798,93.784],[149.812,89.886],[150.055,89.853],[150.299,89.821],[150.543,89.791],[150.882,89.752],[151.105,89.728],[151.35,89.702],[151.596,89.678],[151.842,89.656],[152.087,89.635],[152.253,89.622],[152.333,89.616],[152.523,89.602],[152.579,89.598],[152.826,89.581],[152.987,89.571],[153.071,89.566],[153.232,89.557],[153.489,89.544],[153.597,89.539],[153.619,89.538],[153.755,89.532],[153.906,89.526],[154.05,89.521],[154.167,89.517],[154.233,89.515],[154.342,89.512],[154.46,89.509],[154.548,89.507],[154.689,89.504],[154.881,89.501],[155.062,89.499],[155.18,89.498],[155.578,89.498],[155.934,89.5],[156.369,89.508],[156.45,89.51],[156.805,89.52],[156.912,89.524],[157.24,89.537],[157.677,89.558],[158.009,89.578],[158.092,89.583],[158.202,89.59],[158.375,89.602],[158.495,89.611],[158.641,89.622],[158.728,89.629],[158.909,89.644],[159.04,89.655],[159.832,89.78],[159.841,89.782],[160.269,89.888],[160.377,89.915],[160.595,89.97],[160.737,90.007],[160.813,90.027],[160.967,90.068],[161.248,90.145],[161.424,90.195],[161.68,90.27],[161.896,90.334],[162.111,90.4],[162.332,90.47],[162.558,90.543],[162.752,90.607],[163.008,90.694],[163.178,90.753],[163.232,90.772],[163.4,90.832],[163.601,90.905],[163.822,90.987],[164.033,91.067],[164.233,91.145],[164.344,91.188],[164.443,91.228],[164.453,91.232],[164.662,91.316],[164.871,91.402],[164.927,91.425],[165.134,91.513],[165.341,91.603],[165.547,91.693],[165.957,91.879],[166.16,91.974],[166.363,92.07],[166.565,92.168],[166.766,92.267],[166.967,92.367],[167.166,92.469],[167.366,92.572],[167.563,92.677],[167.762,92.783],[167.957,92.89],[168.153,92.999],[168.348,93.11],[168.543,93.221],[168.737,93.334],[168.93,93.449],[169.123,93.565],[169.314,93.683],[169.505,93.801],[169.696,93.922],[169.885,94.043],[170.075,94.167],[170.262,94.291],[170.451,94.417],[170.637,94.544],[170.824,94.673],[171.008,94.803],[171.193,94.934],[171.376,95.067],[171.56,95.201],[171.742,95.337],[171.923,95.474],[172.104,95.612],[172.284,95.752],[172.463,95.893],[172.642,96.036],[172.82,96.18],[172.998,96.325],[173.173,96.472],[173.523,96.77],[173.697,96.921],[173.87,97.074],[174.042,97.228],[174.214,97.384],[174.328,97.489],[174.498,97.645],[174.665,97.803],[174.832,97.962],[174.996,98.122],[175.161,98.283],[175.325,98.445],[175.486,98.609],[175.647,98.773],[175.807,98.939],[175.966,99.106],[176.124,99.274],[176.282,99.443],[176.438,99.614],[176.592,99.785],[176.745,99.958],[176.898,100.132],[177.05,100.306],[177.201,100.483],[177.349,100.66],[177.498,100.838],[177.645,101.017],[177.791,101.198],[177.936,101.38],[178.081,101.563],[178.223,101.747],[178.364,101.932],[178.505,102.118],[178.645,102.305],[178.784,102.493],[178.921,102.683],[179.056,102.874],[179.192,103.065],[179.326,103.258],[179.458,103.452],[179.589,103.647],[179.618,103.692],[179.651,103.745],[179.682,103.798],[179.713,103.852],[179.742,103.907],[179.769,103.962],[179.819,104.076],[179.834,104.117],[179.856,104.175],[179.876,104.233],[179.895,104.292],[179.912,104.351],[179.929,104.413],[179.943,104.47],[179.954,104.53],[179.966,104.593],[179.975,104.652],[179.984,104.713],[179.991,104.774],[179.995,104.836],[179.998,104.905],[180,104.966],[180,105.027],[179.999,105.088],[179.996,105.149],[179.992,105.209],[179.986,105.27],[179.977,105.331],[179.968,105.391],[179.958,105.449],[179.945,105.512],[179.932,105.569],[179.916,105.632],[179.901,105.686],[179.883,105.745],[179.863,105.803],[179.842,105.861],[179.82,105.918],[179.797,105.974],[179.771,106.03],[179.744,106.086],[179.716,106.14],[179.686,106.194],[179.655,106.248],[179.623,106.301],[179.589,106.353],[179.472,106.527],[179.339,106.721],[179.206,106.914],[179.071,107.106],[178.936,107.297],[178.797,107.487],[178.659,107.676],[178.52,107.864],[178.38,108.05],[178.237,108.236],[178.095,108.42],[177.951,108.604],[177.659,108.968],[177.51,109.148],[177.361,109.328],[177.21,109.506],[177.06,109.683],[176.907,109.86],[176.752,110.035],[176.597,110.209],[176.482,110.337],[176.326,110.509],[176.167,110.68],[176.008,110.85],[175.848,111.018],[175.688,111.186],[175.526,111.352],[175.2,111.68],[175.034,111.841],[174.869,112.002],[174.703,112.161],[174.535,112.319],[174.367,112.475],[174.199,112.63],[174.028,112.784],[173.857,112.937],[173.686,113.089],[173.512,113.239],[173.338,113.388],[173.164,113.536],[172.987,113.682],[172.811,113.827],[172.632,113.971],[172.454,114.114],[172.275,114.256],[172.093,114.396],[171.911,114.535],[171.728,114.673],[171.544,114.81],[171.359,114.945],[171.173,115.08],[170.799,115.344],[170.611,115.474],[170.421,115.603],[170.23,115.731],[170.039,115.857],[169.846,115.982],[169.653,116.106],[169.458,116.228],[169.263,116.349],[169.067,116.469],[168.869,116.587],[168.672,116.704],[168.472,116.819],[168.272,116.934],[168.072,117.046],[167.87,117.158],[167.595,117.307],[167.395,117.412],[167.196,117.516],[166.996,117.618],[166.796,117.719],[166.595,117.818],[166.392,117.916],[166.19,118.012],[165.987,118.107],[165.783,118.2],[165.579,118.292],[165.374,118.383],[165.169,118.472],[164.963,118.559],[164.756,118.645],[164.666,118.682],[164.549,118.73],[164.341,118.813],[164.122,118.898],[164.003,118.944],[163.704,119.057],[163.493,119.134],[163.293,119.206],[163.071,119.284],[162.884,119.348],[162.869,119.353],[162.656,119.424],[162.443,119.494],[162.207,119.57],[162.005,119.632],[161.979,119.64],[161.751,119.709],[161.523,119.776],[161.295,119.841],[161.142,119.884],[161.065,119.905],[160.924,119.943],[160.707,120.001],[160.606,120.027],[160.488,120.057],[160.269,120.112],[159.844,120.218],[159.316,120.319],[159.306,120.32],[159.05,120.344],[159.003,120.348],[158.81,120.364],[158.725,120.371],[158.561,120.384],[158.481,120.39],[158.134,120.414],[157.688,120.441],[157.649,120.443],[157.264,120.462],[157.126,120.468],[156.778,120.481],[156.564,120.487],[156.344,120.493],[155.907,120.5],[155.522,120.502],[155.177,120.502],[154.877,120.499],[154.821,120.498],[154.599,120.494],[154.457,120.491],[154.338,120.488],[154.166,120.483],[154.076,120.48],[153.93,120.475],[153.752,120.468],[153.728,120.467],[153.57,120.46],[153.463,120.455],[153.332,120.448],[153.133,120.437],[152.889,120.423],[152.644,120.407],[152.629,120.406],[152.342,120.385],[152.096,120.366],[151.849,120.345],[151.667,120.328],[151.603,120.322],[151.423,120.305],[151.179,120.28],[151.111,120.273],[150.935,120.254],[150.619,120.218],[150.373,120.188],[150.204,120.166],[149.882,120.124],[121.828,116.22],[121.792,116.215],[121.743,116.207],[121.686,116.196],[121.653,116.189],[121.597,116.175],[121.584,116.172],[121.548,116.162],[121.536,116.159],[121.48,116.142],[121.429,116.125],[121.417,116.121],[121.361,116.101],[121.312,116.081],[121.253,116.056],[121.197,116.03],[121.155,116.009],[121.105,115.982],[121.086,115.972],[121.044,115.948],[120.993,115.917],[120.979,115.908],[120.944,115.885],[120.935,115.879],[120.887,115.846],[120.847,115.817],[120.84,115.811],[120.793,115.775],[120.756,115.744],[120.749,115.738],[120.704,115.7],[120.661,115.66],[120.64,115.64],[120.592,115.592],[120.557,115.555],[120.539,115.534],[120.519,115.511],[120.48,115.466],[120.444,115.42],[120.431,115.402],[120.41,115.374],[120.407,115.37],[120.373,115.322],[120.357,115.3],[120.342,115.278],[120.308,115.224],[120.278,115.173],[120.25,115.122],[120.23,115.084],[120.218,115.06],[120.195,115.012],[120.169,114.954],[120.148,114.903],[120.127,114.849],[120.109,114.793],[120.107,114.79],[120.09,114.738],[120.075,114.682],[120.06,114.625],[120.046,114.564],[120.035,114.507],[120.026,114.454],[120.025,114.448],[120.016,114.396],[120.012,114.353],[120.008,114.325],[120.002,114.245],[120,114.208],[120,114.179],[120,95.816]]
M73 P0 R76
;TYPE:Custom
PRINT_START EXTRUDER=220 BED=0
G90
G21
M83 ; use relative distances for extrusion
M106 S0
;LAYER_CHANGE
;Z:0.2
;HEIGHT:0.2
;BEFORE_LAYER_CHANGE
;0.2
G92 E0
G1 E-.8 F1800
;AFTER_LAYER_CHANGE
;0.2
;_SET_FAN_SPEED_CHANGING_LAYER
SET_VELOCITY_LIMIT ACCEL=500 ACCEL_TO_DECEL=250
G1 Z.4 F10800
G1 X122.233 Y96.568
G1 Z.4
G1 Z.2
G1 E.8 F1800
;TYPE:Skirt
;WIDTH:0.48
G1 X123.069 Y95.873 E.03874
G1 X124.226 Y95.308 E.04583
G1 X125.463 Y95.052 E.04502
G1 X150.307 Y93.592 E.88637
G1 X152.446 Y93.747 E.07637
G1 X154.794 Y94.219 E.08532
G1 X157.073 Y94.998 E.08576
G1 X159.269 Y96.097 E.08748
G1 X161.266 Y97.455 E.08601
G1 X163.037 Y99.038 E.08459
G1 X164.607 Y100.865 E.08577
G1 X165.919 Y102.891 E.08597
G1 X166.318 Y104.003 E.04208
G1 X166.429 Y105.037 E.03705
G1 X166.297 Y106.088 E.03772
G1 X165.893 Y107.16 E.04081
G1 X164.719 Y108.985 E.07729
G1 X163.465 Y110.511 E.07034
G1 X161.935 Y111.996 E.07595
G1 X160.244 Y113.289 E.0758
G1 X158.952 Y114.085 E.05404
G1 X157.782 Y114.687 E.04689
G1 X156.593 Y115.195 E.04604
G1 X155.151 Y115.682 E.05422
G1 X152.507 Y116.244 E.09628
G1 X149.822 Y116.408 E.09579
G1 X125.155 Y114.913 E.88016
G1 X124.08 Y114.641 E.03951
G1 X123.17 Y114.193 E.03612
G1 X122.329 Y113.529 E.03817
G1 X121.694 Y112.764 E.0354
G1 X121.113 Y111.608 E.04608
G1 X120.835 Y110.284 E.04818
G1 X120.834 Y99.728 E.37597
G1 X121.048 Y98.59 E.04126
G1 X121.468 Y97.603 E.03819
G1 X122.209 Y96.601 E.04441
G1 X122.544 Y96.876 F10800
G1 F1800
G1 X123.306 Y96.24 E.03537
G1 X124.359 Y95.725 E.04173
G1 X125.505 Y95.488 E.04169
G1 X150.305 Y94.029 E.88482
G1 X152.382 Y94.18 E.07417
G1 X154.675 Y94.64 E.0833
G1 X156.901 Y95.4 E.08377
G1 X159.043 Y96.471 E.08529
G1 X160.995 Y97.797 E.08405
G1 X162.727 Y99.347 E.08279
G1 X164.254 Y101.123 E.08344
G1 X165.531 Y103.093 E.0836
G1 X165.89 Y104.091 E.03777
G1 X165.992 Y105.037 E.03389
G1 X165.84 Y106.109 E.03855
G1 X165.406 Y107.136 E.03973
G1 X164.123 Y109.049 E.08203
G1 X162.732 Y110.649 E.07553
G1 X161.253 Y111.997 E.07125
G1 X159.633 Y113.168 E.0712
G1 X157.518 Y114.328 E.08593
G1 X156.442 Y114.785 E.04164
G1 X154.943 Y115.287 E.05631
G1 X152.453 Y115.81 E.09062
G1 X150.987 Y115.949 E.05245
G1 X149.744 Y115.97 E.04426
G1 X125.221 Y114.481 E.87505
G1 X124.239 Y114.233 E.03607
G1 X123.32 Y113.77 E.03665
G1 X122.565 Y113.147 E.03485
G1 X121.967 Y112.383 E.03455
G1 X121.468 Y111.287 E.04292
G1 X121.259 Y110.078 E.04369
G1 X121.269 Y99.769 E.36717
G1 X121.468 Y98.713 E.03827
G1 X121.853 Y97.81 E.03497
G1 X122.52 Y96.908 E.03996
G1 X122.869 Y97.187 F10800
G1 F1800
G1 X122.946 Y97.09 E.00441
G1 X123.637 Y96.547 E.0313
G1 X124.492 Y96.141 E.03371
G1 X125.546 Y95.923 E.03836
G1 X150.303 Y94.466 E.88328
G1 X152.318 Y94.612 E.07197
G1 X154.556 Y95.06 E.08128
G1 X156.729 Y95.802 E.08178
G1 X158.816 Y96.844 E.0831
G1 X160.723 Y98.139 E.08208
G1 X162.418 Y99.655 E.08098
G1 X163.902 Y101.382 E.0811
G1 X165.144 Y103.295 E.08123
G1 X165.492 Y104.324 E.03869
G1 X165.543 Y105.299 E.03476
G1 X165.327 Y106.281 E.03582
G1 X164.766 Y107.353 E.04311
G1 X163.555 Y109.065 E.0747
G1 X162.37 Y110.393 E.06339
G1 X160.981 Y111.655 E.06682
G1 X159.336 Y112.839 E.0722
G1 X157.34 Y113.929 E.08101
G1 X156.29 Y114.375 E.04061
G1 X154.828 Y114.865 E.05493
G1 X152.399 Y115.377 E.08841
G1 X150.958 Y115.512 E.05156
G1 X149.756 Y115.533 E.0428
G1 X125.286 Y114.049 E.87315
G1 X124.397 Y113.826 E.03263
G1 X123.556 Y113.402 E.03357
G1 X122.874 Y112.838 E.03149
G1 X122.333 Y112.145 E.03132
G1 X121.887 Y111.164 E.03838
G1 X121.696 Y110.063 E.0398
G1 X121.704 Y99.81 E.36518
G1 X121.887 Y98.836 E.03528
G1 X122.327 Y97.864 E.03801
G1 X122.844 Y97.218 E.02944
; printing object 3DBenchy.stl id:0 copy 0
G1 E-.56
;WIPE_START
G1 X122.946 Y97.09 E-.0393
G1 X123.603 Y96.573 E-.2007
;WIPE_END
EXCLUDE_OBJECT_START NAME=3DBenchy.stl_id_0_copy_0
G1 Z.6 F10800
G1 X154.013 Y111.418 Z.6
G1 Z.2
G1 E.8 F1800
;TYPE:Inner wall
;WIDTH:0.479999
G1 F1200
G1 X154.455 Y111.174 E.01798
G1 X154.768 Y110.888 E.0151
G1 X155.084 Y110.457 E.01902
G1 X155.337 Y109.973 E.01946
G1 X156.139 Y107.891 E.07947
G1 X156.235 Y108.254 E.01337
G1 X156.484 Y108.666 E.01714
G1 X156.627 Y108.815 E.00738
G1 X157.005 Y109.072 E.01626
G1 X157.381 Y109.18 E.01393
G1 X157.714 Y109.215 E.01193
G1 X158.366 Y109.189 E.02326
G1 X157.753 Y109.631 E.02695
G1 X157.081 Y110.056 E.02833
G1 X156.558 Y110.351 E.02135
G1 X155.877 Y110.692 E.02714
G1 X155.041 Y111.05 E.03239
G1 X154.051 Y111.405 E.03745
G1 E-.56 F1800
;WIPE_START
G1 F1200
G1 X154.455 Y111.174 E-.11166
G1 X154.768 Y110.888 E-.10175
G1 X154.833 Y110.798 E-.02658
;WIPE_END
G1 Z.6 F10800
G1 X161.946 Y105.007 Z.6
G1 Z.2
G1 E.8 F1800
;WIDTH:0.5798
G1 F1200
G1 X161.889 Y105.14 E.00632
G1 X161.478 Y105.81 E.03439
;WIDTH:0.575979
G1 X161.105 Y106.342 E.02824
G1 X160.921 Y106.197 E.01019
G1 X160.644 Y106.078 E.01308
G1 X161.102 Y105.421 E.03479
;WIDTH:0.579811
G1 X161.426 Y104.868 E.02803
G1 X161.586 Y104.363 E.02317
G1 X161.926 Y104.972 E.03052
G1 E-.56 F1800
;WIPE_START
G1 F1200
G1 X161.889 Y105.14 E-.04128
G1 X161.478 Y105.81 E-.18864
G1 X161.454 Y105.845 E-.01008
;WIPE_END
G1 Z.6 F10800
G1 X148.25 Y105.861 Z.6
G1 Z.2
G1 E.8 F1800
;WIDTH:0.479999
G1 F1200
G1 X148.189 Y105.799 E.00311
G1 X147.718 Y105.485 E.02014
G1 X147.311 Y105.334 E.01549
G1 X146.721 Y105.257 E.02117
G1 X146.702 Y104.321 E.03332
G1 X146.611 Y103.743 E.02086
G1 X146.484 Y103.324 E.01558
G1 X146.252 Y102.739 E.02242
G1 X145.924 Y102.214 E.02206
G1 X145.528 Y101.782 E.02086
G1 X145.014 Y101.405 E.0227
G1 X144.469 Y101.162 E.02126
G1 X143.894 Y101.021 E.02107
G1 X143.347 Y100.956 E.01963
G1 X141.76 Y100.92 E.05652
G1 X141.361 Y100.953 E.01428
G1 X140.86 Y101.106 E.01864
G1 X140.578 Y101.267 E.01156
G1 X140.261 Y101.582 E.01592
G1 X140.143 Y101.818 E.00941
G1 X139.861 Y101.466 E.01608
G1 X139.361 Y101.122 E.02162
G1 X139.006 Y100.957 E.01395
G1 X138.294 Y100.791 E.02602
G1 X137.476 Y100.769 E.02913
G1 X136.937 Y100.844 E.01939
G1 X136.661 Y100.919 E.01019
G1 X136.129 Y101.144 E.02057
G1 X135.81 Y101.344 E.01342
G1 X135.627 Y101.194 E.00844
G1 X135.335 Y101.052 E.01155
G1 X134.775 Y100.931 E.02043
G1 X131.506 Y100.942 E.11643
G1 X130.845 Y100.906 E.02356
G1 X130.533 Y100.935 E.01116
G1 X129.977 Y101.175 E.0216
G1 X129.664 Y101.451 E.01484
G1 X129.422 Y101.262 E.01094
G1 X129.12 Y101.091 E.01237
G1 X128.557 Y100.88 E.02141
G1 X128.253 Y100.814 E.01108
G1 X127.32 Y100.772 E.03327
G1 X126.738 Y100.854 E.02093
G1 X126.332 Y100.983 E.01518
G1 X125.735 Y101.254 E.02334
G1 X125.245 Y101.61 E.02161
G1 X125.245 Y100.12 E.05308
G1 X125.353 Y99.743 E.01399
G1 X125.581 Y99.533 E.01102
G1 X125.898 Y99.458 E.01162
G1 X149.211 Y98.041 E.83184
G1 X150.28 Y98.017 E.03808
G1 X151.06 Y98.052 E.02779
G1 X151.82 Y98.129 E.02722
