; HEADER_BLOCK_START
; generated by OrcaSlicer 1.9.0 on 2024-03-04 at 17:44:36
; total layer number: 48
; filament_density: 1.24
; filament_diameter: 1.75
; max_z_height: 9.60
; HEADER_BLOCK_END

; THUMBNAIL_BLOCK_START

;
; THUMBNAIL_BLOCK_END

; external perimeters extrusion width = 0.40mm
; perimeters extrusion width = 0.44mm
; infill extrusion width = 0.44mm
; solid infill extrusion width = 0.48mm
; top infill extrusion width = 0.38mm
; first layer extrusion width = 0.48mm

; EXECUTABLE_BLOCK_START
EXCLUDE_OBJECT_DEFINE NAME=DIN_Meanwell_RS-15-5_psu.stl_id_0_copy_0 CENTER=150,105 POLYGON=[[120,101.5],[120.012,101.144],[120.012,101.14],[120.046,100.789],[120.047,100.782],[120.104,100.438],[120.106,100.427],[120.184,100.091],[120.187,100.076],[120.286,99.7493],[120.292,99.7321],[120.41,99.4155],[120.419,99.3952],[120.556,99.0903],[120.567,99.0674],[120.722,98.7753],[120.737,98.75],[120.909,98.4717],[120.927,98.4444],[121.114,98.1808],[121.137,98.1518],[121.339,97.9038],[121.365,97.8736],[121.58,97.642],[121.611,97.6109],[121.838,97.3963],[121.874,97.3649],[122.111,97.1678],[122.152,97.1366],[122.399,96.9575],[122.444,96.9269],[122.7,96.7663],[122.75,96.7369],[123.012,96.5949],[123.067,96.5672],[123.335,96.4441],[123.395,96.4187],[123.667,96.3146],[123.732,96.2919],[124.023,96.202],[124.076,96.1874],[124.386,96.1139],[124.427,96.1057],[124.755,96.0507],[124.782,96.0471],[125.126,96.0127],[125.14,96.0118],[125.5,96],[174.5,96],[174.86,96.0118],[175.218,96.0471],[175.573,96.1057],[175.924,96.1874],[176.268,96.2919],[176.605,96.4187],[176.933,96.5672],[177.25,96.7369],[177.556,96.9269],[177.848,97.1366],[178.126,97.3649],[178.389,97.6109],[178.635,97.8736],[178.863,98.1518],[179.073,98.4444],[179.263,98.75],[179.433,99.0674],[179.581,99.3952],[179.708,99.7321],[179.813,100.076],[179.894,100.427],[179.953,100.782],[179.988,101.14],[180,101.5],[180,108.5],[179.988,108.86],[179.953,109.218],[179.894,109.573],[179.813,109.924],[179.708,110.268],[179.581,110.605],[179.433,110.933],[179.263,111.25],[179.073,111.556],[178.863,111.848],[178.635,112.126],[178.389,112.389],[178.126,112.635],[177.848,112.863],[177.556,113.073],[177.25,113.263],[176.933,113.433],[176.605,113.581],[176.268,113.708],[175.924,113.813],[175.573,113.894],[175.218,113.953],[174.86,113.988],[174.5,114],[125.5,114],[125.14,113.988],[125.126,113.987],[124.782,113.953],[124.755,113.949],[124.427,113.894],[124.386,113.886],[124.076,113.813],[124.023,113.798],[123.732,113.708],[123.667,113.685],[123.395,113.581],[123.335,113.556],[123.067,113.433],[123.012,113.405],[122.75,113.263],[122.7,113.234],[122.444,113.073],[122.399,113.042],[122.152,112.863],[122.111,112.832],[121.874,112.635],[121.838,112.604],[121.611,112.389],[121.58,112.358],[121.365,112.126],[121.339,112.096],[121.137,111.848],[121.114,111.819],[120.927,111.556],[120.909,111.528],[120.737,111.25],[120.722,111.225],[120.567,110.933],[120.556,110.91],[120.419,110.605],[120.41,110.585],[120.292,110.268],[120.286,110.251],[120.187,109.924],[120.184,109.909],[120.106,109.573],[120.104,109.562],[120.047,109.218],[120.046,109.211],[120.012,108.86],[120.012,108.856],[120,108.5],[120,101.5]]
M73 P0 R26
;TYPE:Custom
PRINT_START EXTRUDER=220 BED=0
G90
G21
M83 ; use relative distances for extrusion
M106 S0
;LAYER_CHANGE
;Z:0.2
;HEIGHT:0.2
;BEFORE_LAYER_CHANGE
;0.2
G92 E0
G1 E-.8 F1800
;AFTER_LAYER_CHANGE
;0.2
;_SET_FAN_SPEED_CHANGING_LAYER
SET_VELOCITY_LIMIT ACCEL=500 ACCEL_TO_DECEL=250
G1 Z.4 F10800
G1 X118.651 Y96.201
G1 Z.4
G1 Z.2
G1 E.8 F1800
;TYPE:Skirt
;WIDTH:0.48
G1 X119.301 Y95.453 E.036
G1 X120.072 Y94.752 E.03789
G1 X120.974 Y94.117 E.04008
G1 X122.003 Y93.577 E.04223
G1 X122.752 Y93.287 E.0292
G1 X124.231 Y92.933 E.05524
G1 X125.5 Y92.839 E.04626
G1 X174.611 Y92.841 E1.78486
G1 X176.133 Y92.995 E.05558
G1 X177.792 Y93.49 E.06294
G1 X179.026 Y94.117 E.05028
G1 X180.277 Y95.048 E.05668
G1 X181.349 Y96.201 E.05721
G1 X182.17 Y97.48 E.05524
G1 X182.819 Y99.095 E.06328
G1 X183.096 Y100.451 E.05029
G1 X183.161 Y101.5 E.0382
G1 X183.147 Y108.97 E.27148
G1 X183.005 Y110.133 E.04257
G1 X182.639 Y111.457 E.04995
G1 X182.271 Y112.322 E.03416
G1 X181.689 Y113.328 E.04223
G1 X180.547 Y114.699 E.06485
G1 X179.828 Y115.327 E.0347
G1 X179.026 Y115.883 E.03547
G1 X177.997 Y116.423 E.04223
G1 X177.248 Y116.713 E.0292
G1 X175.769 Y117.067 E.05524
G1 X174.5 Y117.161 E.04626
G1 X124.817 Y117.133 E1.80566
G1 X123.659 Y116.962 E.04254
G1 X122.389 Y116.581 E.0482
G1 X121.165 Y115.997 E.04927
G1 X120.172 Y115.327 E.04353
G1 X119.225 Y114.469 E.04643
G1 X118.437 Y113.511 E.04509
G1 X117.83 Y112.52 E.04223
G1 X117.293 Y111.264 E.04967
G1 X116.933 Y109.769 E.05586
G1 X116.839 Y108.5 E.04626
G1 X116.853 Y101.03 E.27148
G1 X116.993 Y99.877 E.04223
G1 X117.215 Y98.982 E.0335
G1 X117.577 Y98.003 E.03793
G1 X118.017 Y97.14 E.03519
G1 X118.629 Y96.234 E.03975
G1 X118.992 Y96.489 F10800
G1 F1800
G1 X119.089 Y96.349 E.00618
G1 X119.83 Y95.544 E.03974
G1 X120.461 Y95.002 E.03025
G1 X121.355 Y94.398 E.03921
G1 X122.188 Y93.974 E.03399
G1 X123.225 Y93.598 E.0401
G1 X124.304 Y93.364 E.0401
G1 X125.5 Y93.276 E.0436
G1 X174.596 Y93.277 E1.78433
G1 X176.058 Y93.426 E.05341
G1 X177.634 Y93.898 E.05979
G1 X178.79 Y94.485 E.04709
G1 X180.065 Y95.446 E.05805
G1 X180.998 Y96.461 E.05009
G1 X181.875 Y97.863 E.06009
G1 X182.451 Y99.4 E.05967
G1 X182.698 Y100.852 E.05352
G1 X182.71 Y108.955 E.2945
G1 X182.574 Y110.058 E.0404
G1 X182.232 Y111.3 E.0468
G1 X181.875 Y112.137 E.0331
G1 X181.321 Y113.092 E.0401
G1 X180.764 Y113.827 E.03354
G1 X180.065 Y114.554 E.03663
G1 X178.624 Y115.614 E.06503
G1 X177.634 Y116.102 E.04009
G1 X176.775 Y116.402 E.0331
G1 X175.696 Y116.636 E.0401
G1 X174.5 Y116.724 E.0436
G1 X124.859 Y116.698 E1.8041
G1 X123.411 Y116.453 E.05337
G1 X122.349 Y116.096 E.04075
G1 X121.376 Y115.614 E.03944
G1 X120.349 Y114.911 E.04523
G1 X119.446 Y114.065 E.04496
G1 X118.679 Y113.092 E.04505
G1 X118.125 Y112.137 E.0401
G1 X117.633 Y110.891 E.04869
G1 X117.424 Y110.05 E.03149
G1 X117.29 Y108.955 E.0401
G1 X117.276 Y101.5 E.27095
G1 X117.364 Y100.304 E.0436
G1 X117.709 Y98.868 E.05364
G1 X118.485 Y97.21 E.06653
G1 X118.969 Y96.521 E.0306
G1 X119.326 Y96.772 F10800
G1 F1800
G1 X119.427 Y96.627 E.00643
G1 X120.128 Y95.863 E.03766
G1 X120.721 Y95.353 E.02843
G1 X121.569 Y94.779 E.03721
G1 X122.373 Y94.37 E.03279
G1 X123.355 Y94.015 E.03797
G1 X124.377 Y93.795 E.03797
G1 X125.5 Y93.713 E.04093
G1 X174.582 Y93.714 E1.7838
G1 X175.984 Y93.857 E.05123
G1 X177.477 Y94.306 E.05664
G1 X178.553 Y94.853 E.04389
G1 X179.767 Y95.765 E.05517
G1 X180.647 Y96.721 E.04723
G1 X181.479 Y98.047 E.05689
G1 X182.026 Y99.504 E.05654
G1 X182.263 Y100.896 E.05133
G1 X182.274 Y108.941 E.29237
G1 X182.143 Y109.984 E.03822
G1 X181.824 Y111.142 E.04365
G1 X181.479 Y111.953 E.03203
G1 X180.953 Y112.856 E.03796
G1 X180.434 Y113.54 E.03122
G1 X179.767 Y114.235 E.03502
G1 X178.413 Y115.231 E.06108
G1 X177.477 Y115.694 E.03796
G1 X176.645 Y115.985 E.03203
G1 X175.623 Y116.205 E.03797
G1 X174.5 Y116.287 E.04093
G1 X124.902 Y116.263 E1.80255
M73 P1 R26
G1 X123.513 Y116.028 E.0512
G1 X122.509 Y115.689 E.03852
G1 X121.587 Y115.231 E.03741
G1 X120.627 Y114.573 E.04232
G1 X119.765 Y113.767 E.04288
G1 X119.047 Y112.856 E.04217
G1 X118.37 Y111.627 E.05097
G1 X118.01 Y110.627 E.03864
G1 X117.795 Y109.623 E.03729
G1 X117.714 Y108.582 E.03797
G1 X117.713 Y101.5 E.25738
G1 X117.795 Y100.377 E.04093
G1 X118.126 Y99.001 E.05143
G1 X118.853 Y97.447 E.06236
G1 X119.303 Y96.804 E.0285
; printing object DIN_Meanwell_RS-15-5_psu.stl id:0 copy 0
G1 E-.56
;WIPE_START
G1 X119.427 Y96.627 E-.05208
G1 X119.957 Y96.05 E-.18792
;WIPE_END
EXCLUDE_OBJECT_START NAME=DIN_Meanwell_RS-15-5_psu.stl_id_0_copy_0
G1 Z.6 F10800
G1 X131.18 Y100.129 Z.6
M73 P1 R25
G1 Z.2
G1 E.8 F1800
;TYPE:Inner wall
;WIDTH:0.479999
G1 F1200
G1 X130.76 Y100.32 E.01676
G1 X130.282 Y100.697 E.0221
G1 X129.945 Y101.12 E.01969
G1 X129.671 Y101.694 E.02309
G1 X129.547 Y102.315 E.02302
G1 X129.536 Y107.499 E.1884
G1 X129.544 Y107.637 E.00503
G1 X129.657 Y108.262 E.02306
G1 X129.92 Y108.84 E.02311
G1 X130.297 Y109.318 E.0221
G1 X130.72 Y109.655 E.01969
G1 X131.294 Y109.929 E.02309
G1 X131.916 Y110.053 E.02305
G1 X138.569 Y110.063 E.24181
G1 X138.476 Y110.115 E.00388
G1 X137.998 Y110.529 E.02299
G1 X137.666 Y111.028 E.02179
G1 X137.498 Y111.501 E.01821
G1 X137.442 Y111.906 E.01488
G1 X137.436 Y112.736 E.03015
G1 X125.529 Y112.736 E.43275
G1 X124.933 Y112.689 E.02172
G1 X124.31 Y112.546 E.02325
G1 X123.796 Y112.369 E.01975
G1 X123.284 Y112.089 E.02122
G1 X122.828 Y111.775 E.02011
G1 X122.382 Y111.341 E.02264
G1 X122.014 Y110.885 E.02127
G1 X121.715 Y110.374 E.02154
G1 X121.449 Y109.728 E.02535
G1 X121.315 Y109.072 E.02435
G1 X121.264 Y108.481 E.02155
G1 X121.27 Y101.421 E.2566
G1 X121.322 Y100.856 E.02062
G1 X121.449 Y100.272 E.02173
G1 X121.695 Y99.653 E.02418
G1 X122.018 Y99.092 E.02354
G1 X122.462 Y98.559 E.02519
G1 X122.85 Y98.199 E.01924
G1 X123.36 Y97.863 E.02219
G1 X123.821 Y97.614 E.01905
G1 X124.565 Y97.373 E.02843
G1 X125.198 Y97.276 E.02326
G1 X137.433 Y97.268 E.44468
G1 X137.436 Y97.991 E.02629
G1 X137.563 Y98.694 E.02594
G1 X137.821 Y99.243 E.02208
G1 X138.223 Y99.695 E.02195
G1 X138.571 Y99.936 E.01539
G1 X132.099 Y99.936 E.23522
G1 X131.963 Y99.944 E.00495
G1 X131.338 Y100.057 E.02306
G1 X131.216 Y100.112 E.00489
G1 X131.457 Y100.492 F10800
G1 F1200
G1 X131.158 Y100.597 E.01153
G1 X130.719 Y100.888 E.01916
G1 X130.329 Y101.329 E.02141
G1 X130.095 Y101.802 E.01916
G1 X129.984 Y102.316 E.01912
G1 X129.973 Y107.5 E.1884
G1 X130.025 Y107.958 E.01676
G1 X130.197 Y108.442 E.01866
G1 X130.488 Y108.881 E.01916
G1 X130.929 Y109.271 E.02141
G1 X131.402 Y109.505 E.01916
G1 X131.916 Y109.616 E.01913
G1 X138.732 Y109.626 E.24769
;WIDTH:0.524635
G1 X138.987 Y109.648 E.01025
;WIDTH:0.569271
G1 X139.241 Y109.671 E.0112
G1 X139.799 Y109.673 E.02442
;WIDTH:0.534219
G1 X140.078 Y109.791 E.01238
G1 X140.231 Y109.951 E.00906
G1 X140.346 Y110.323 E.0159
G1 X139.819 Y110.17 E.02242
;WIDTH:0.569271
G1 X139.278 Y110.195 E.0237
G1 X139.08 Y110.289 E.0096
;WIDTH:0.524635
G1 X138.882 Y110.383 E.00879
;WIDTH:0.479999
G1 X138.478 Y110.661 E.01782
G1 X138.151 Y111.053 E.01853
G1 X137.969 Y111.439 E.01553
G1 X137.879 Y111.909 E.01739
G1 X137.87 Y113.173 E.04592
G1 X126.606 Y113.173 E.4094
G1 X125.259 Y113.159 E.04895
G1 X124.573 Y113.078 E.02509
G1 X124.061 Y112.929 E.01939
G1 X123.392 Y112.669 E.02609
G1 X122.942 Y112.392 E.01921
G1 X122.362 Y111.96 E.02626
G1 X121.84 Y111.401 E.0278
G1 X121.486 Y110.889 E.02261
G1 X121.201 Y110.328 E.02289
G1 X120.984 Y109.672 E.02512
G1 X120.869 Y109.033 E.0236
G1 X120.827 Y108.489 E.01983
G1 X120.833 Y101.398 E.2577
G1 X120.89 Y100.793 E.02207
G1 X121.031 Y100.143 E.0242
G1 X121.203 Y99.667 E.01839
G1 X121.501 Y99.099 E.02329
G1 X121.791 Y98.669 E.01887
G1 X122.143 Y98.261 E.01957
G1 X122.584 Y97.851 E.02191
G1 X123.119 Y97.498 E.02327
G1 X123.657 Y97.208 E.02223
G1 X124.457 Y96.948 E.03055
G1 X125.176 Y96.839 E.02642
G1 X137.869 Y96.83 E.46132
G1 X137.873 Y97.99 E.04214
G1 X137.99 Y98.602 E.02264
G1 X138.199 Y99.023 E.01707
G1 X138.532 Y99.386 E.01791
G1 X138.966 Y99.654 E.01854
;WIDTH:0.518014
G1 X139.207 Y99.741 E.01013
;WIDTH:0.556028
G1 X139.448 Y99.828 E.01094
G1 X139.865 Y99.822 E.01779
;WIDTH:0.521486
G1 X140.346 Y99.666 E.02014
G1 X140.278 Y99.979 E.01272
G1 X140.044 Y100.237 E.01386
G1 X139.927 Y100.296 E.00524
;WIDTH:0.556028
G1 X139.086 Y100.354 E.03595
;WIDTH:0.518014
G1 X138.781 Y100.373 E.01209
;WIDTH:0.479999
G1 X132.099 Y100.373 E.24285
G1 X131.656 Y100.423 E.01619
G1 X131.495 Y100.479 E.00619
G1 E-.56 F1800
;WIPE_START
G1 F1200
G1 X131.158 Y100.597 E-.08571
G1 X130.719 Y100.888 E-.1265
G1 X130.642 Y100.975 E-.02779
;WIPE_END
G1 Z.6 F10800
G1 X172.35 Y107.441 Z.6
G1 Z.2
G1 E.8 F1800
G1 F1200
G1 X172.209 Y107.355 E.006
G1 X171.99 Y107.167 E.0105
G1 X171.616 Y106.747 E.02042
G1 X171.441 Y106.482 E.01154
G1 X171.225 Y106.017 E.01865
G1 X171.135 Y105.723 E.01117
G1 X171.049 Y105.168 E.02043
G1 X171.049 Y104.832 E.0122
G1 X171.159 Y104.163 E.02464
G1 X171.409 Y103.57 E.02338
G1 X171.729 Y103.096 E.02078
G1 X172.253 Y102.616 E.02584
G1 X172.878 Y102.262 E.02613
G1 X173.647 Y102.066 E.02883
G1 X174.174 Y102.063 E.01915
G1 X174.679 Y102.115 E.01844
G1 X175.357 Y102.375 E.02641
G1 X175.817 Y102.662 E.01971
G1 X176.384 Y103.253 E.02974
G1 X176.559 Y103.518 E.01154
G1 X176.775 Y103.983 E.01865
G1 X176.865 Y104.277 E.01117
G1 X176.951 Y104.832 E.02043
G1 X176.951 Y105.168 E.0122
G1 X176.865 Y105.723 E.02043
G1 X176.692 Y106.234 E.0196
G1 X176.355 Y106.791 E.02365
G1 X176 Y107.159 E.0186
G1 X175.533 Y107.533 E.02175
G1 X175.017 Y107.775 E.0207
G1 X174.614 Y107.882 E.01516
G1 X174 Y107.964 E.02252
G1 X173.277 Y107.865 E.02653
G1 X172.766 Y107.692 E.0196
G1 X172.384 Y107.461 E.0162
G1 X172.544 Y107.038 F10800
G1 F1200
G1 X172.316 Y106.876 E.01017
G1 X171.942 Y106.457 E.02042
G1 X171.621 Y105.833 E.02552
G1 X171.484 Y105.125 E.02619
G1 X171.481 Y104.899 E.0082
G1 X171.581 Y104.276 E.02295
G1 X171.775 Y103.809 E.01837
G1 X172.061 Y103.38 E.01874
G1 X172.543 Y102.942 E.02367
G1 X173.073 Y102.653 E.02193
G1 X173.735 Y102.494 E.02475
G1 X174.477 Y102.524 E.027
G1 X174.965 Y102.688 E.01868
G1 X175.325 Y102.851 E.01437
G1 X175.684 Y103.124 E.01637
G1 X176.058 Y103.543 E.02043
G1 X176.379 Y104.167 E.02552
G1 X176.519 Y104.899 E.02708
G1 X176.433 Y105.656 E.02768
G1 X176.225 Y106.191 E.02086
G1 X175.876 Y106.684 E.02194
G1 X175.457 Y107.058 E.02042
G1 X174.833 Y107.379 E.02552
G1 X174.291 Y107.49 E.02008
G1 X173.899 Y107.519 E.01428
G1 X173.344 Y107.433 E.02043
G1 X172.809 Y107.225 E.02086
G1 X172.577 Y107.061 E.01032
G1 X172.796 Y106.689 F10800
;TYPE:Outer wall
G1 F1200
G1 X172.642 Y106.585 E.00671
G1 X172.269 Y106.166 E.02042
G1 X172.017 Y105.648 E.02093
G1 X171.916 Y105.058 E.02175
G1 X172.004 Y104.388 E.02454
G1 X172.141 Y104.048 E.01335
G1 X172.415 Y103.642 E.01777
G1 X172.834 Y103.269 E.02042
G1 X173.321 Y103.026 E.01977
G1 X173.824 Y102.922 E.01865
G1 X174.444 Y102.96 E.02261
G1 X175.03 Y103.185 E.0228
G1 X175.357 Y103.414 E.01452
G1 X175.731 Y103.834 E.02043
G1 X175.983 Y104.352 E.02093
G1 X176.087 Y104.966 E.02264
G1 X176.001 Y105.589 E.02284
G1 X175.859 Y105.952 E.01418
G1 X175.585 Y106.358 E.01777
G1 X175.166 Y106.731 E.02042
G1 X174.648 Y106.983 E.02093
G1 X174.034 Y107.087 E.02264
G1 X173.411 Y107.001 E.02284
G1 X173.048 Y106.859 E.01418
G1 X172.829 Y106.711 E.0096
G1 E-.56 F1800
;WIPE_START
G1 F1200
G1 X172.642 Y106.585 E-.05394
G1 X172.269 Y106.166 E-.13487
G1 X172.175 Y105.974 E-.05119
;WIPE_END
G1 Z.6 F10800
G1 X154.734 Y107.236 Z.6
G1 Z.2
G1 E.8 F1800
;TYPE:Inner wall
G1 F1200
G1 X136.814 Y107.236 E.65128
G1 X137.255 Y106.791 E.02278
M73 P2 R25
G1 X137.592 Y106.234 E.02365
G1 X137.765 Y105.723 E.0196
G1 X137.851 Y105.168 E.02043
G1 X137.851 Y104.832 E.0122
G1 X137.765 Y104.277 E.02043
G1 X137.675 Y103.983 E.01117
G1 X137.459 Y103.518 E.01865
G1 X137.284 Y103.253 E.01154
G1 X136.833 Y102.764 E.02417
G1 X156.101 Y102.764 E.70026
G1 X156.719 Y102.668 E.02273
G1 X157.111 Y102.511 E.01536
G1 X157.618 Y102.176 E.02209
G1 X157.999 Y101.723 E.02149
G1 X158.138 Y101.476 E.01032
G1 X158.312 Y100.914 E.02139
G1 X158.364 Y100.322 E.02157
G1 X158.308 Y99.823 E.01827
G1 X158.188 Y99.458 E.01395
G1 X157.935 Y98.99 E.01933
G1 X157.626 Y98.633 E.01717
G1 X157.311 Y98.402 E.01416
G1 X157.626 Y98.16 E.01441
G1 X157.979 Y97.757 E.01947
G1 X158.223 Y97.269 E.01984
G1 X174.454 Y97.264 E.58988
G1 X175.194 Y97.326 E.02698
G1 X175.76 Y97.466 E.02118
G1 X176.302 Y97.678 E.02115
G1 X176.795 Y97.953 E.02054
G1 X177.284 Y98.329 E.02241
G1 X177.739 Y98.787 E.02346
G1 X178.06 Y99.223 E.01969
G1 X178.33 Y99.714 E.02034
G1 X178.599 Y100.46 E.02885
G1 X178.702 Y101.037 E.02128
G1 X178.736 Y101.592 E.02022
G1 X178.736 Y108.162 E.23876
G1 X178.702 Y108.859 E.02538
G1 X178.609 Y109.499 E.02351
G1 X178.44 Y110.028 E.02018
G1 X178.189 Y110.563 E.02146
G1 X177.845 Y111.083 E.02266
G1 X177.427 Y111.539 E.02248
G1 X176.787 Y112.058 E.02993
G1 X176.302 Y112.322 E.02009
G1 X175.776 Y112.528 E.02055
