; HEADER_BLOCK_START
; generated by OrcaSlicer 1.9.0 on 2024-03-22 at 02:07:22
; total layer number: 75
; filament_density: 1.24
; filament_diameter: 1.75
; max_z_height: 15.00
; HEADER_BLOCK_END

; THUMBNAIL_BLOCK_START

;
; THUMBNAIL_BLOCK_END

; external perimeters extrusion width = 0.40mm
; perimeters extrusion width = 0.44mm
; infill extrusion width = 0.44mm
; solid infill extrusion width = 0.48mm
; top infill extrusion width = 0.38mm
; support material extrusion width = 0.38mm
; first layer extrusion width = 0.48mm

; EXECUTABLE_BLOCK_START
EXCLUDE_OBJECT_DEFINE NAME=fidget_cube.stl_id_0_copy_0 CENTER=150,105 POLYGON=[[118.875,91.125],[118.904,90.8324],[118.919,90.7643],[118.989,90.551],[119.128,90.2916],[119.206,90.1893],[119.314,90.0643],[119.542,89.8778],[119.726,89.7734],[119.801,89.7392],[120.082,89.6538],[120.375,89.625],[179.625,89.625],[179.918,89.6538],[180.199,89.7392],[180.274,89.7734],[180.458,89.8778],[180.686,90.0643],[180.794,90.1893],[180.872,90.2916],[181.011,90.551],[181.081,90.7643],[181.096,90.8324],[181.125,91.125],[181.125,118.875],[181.096,119.168],[181.081,119.236],[181.011,119.449],[180.872,119.708],[180.794,119.811],[180.686,119.936],[180.458,120.122],[180.274,120.227],[180.199,120.261],[179.918,120.346],[179.625,120.375],[120.375,120.375],[120.082,120.346],[119.801,120.261],[119.726,120.227],[119.542,120.122],[119.314,119.936],[119.206,119.811],[119.128,119.708],[118.989,119.449],[118.919,119.236],[118.904,119.168],[118.875,118.875],[118.875,91.125]]
M73 P0 R98
;TYPE:Custom
PRINT_START EXTRUDER=220 BED=0
G90
G21
M83 ; use relative distances for extrusion
M106 S0
;LAYER_CHANGE
;Z:0.2
;HEIGHT:0.2
;BEFORE_LAYER_CHANGE
;0.2
G92 E0
G1 E-.8 F1800
;AFTER_LAYER_CHANGE
;0.2
;_SET_FAN_SPEED_CHANGING_LAYER
SET_VELOCITY_LIMIT ACCEL=500 ACCEL_TO_DECEL=250
G1 Z.4 F10800
G1 X117.083 Y89.189
G1 Z.4
G1 Z.2
G1 E.8 F1800
;TYPE:Skirt
;WIDTH:0.48
G1 X118.439 Y87.833 E.07665
G1 X118.682 Y87.703 E.01104
G1 X119.531 Y87.389 E.03617
G1 X120.37 Y87.283 E.03383
G1 X179.63 Y87.283 E2.36904
G1 X180.344 Y87.361 E.02874
G1 X181.561 Y87.833 E.05218
G1 X182.917 Y89.189 E.07665
G1 X183.361 Y90.281 E.04713
G1 X183.467 Y91.12 E.03383
G1 X183.467 Y118.88 E1.10974
G1 X183.361 Y119.719 E.03383
G1 X182.917 Y120.811 E.04713
G1 X181.561 Y122.167 E.07665
G1 X181.318 Y122.297 E.01104
G1 X180.469 Y122.611 E.03617
G1 X179.63 Y122.717 E.03383
G1 X120.37 Y122.717 E2.36904
G1 X119.531 Y122.611 E.03383
G1 X118.439 Y122.167 E.04713
G1 X117.083 Y120.811 E.07665
G1 X116.953 Y120.568 E.01104
G1 X116.639 Y119.719 E.03617
G1 X116.533 Y118.88 E.03383
G1 X116.533 Y91.12 E1.10974
G1 X116.639 Y90.281 E.03383
G1 X117.068 Y89.226 E.04553
G1 X117.468 Y89.395 F10800
G1 F1800
G1 X118.645 Y88.218 E.06654
G1 X118.889 Y88.088 E.01104
G1 X119.625 Y87.815 E.03139
G1 X120.37 Y87.72 E.03004
G1 X179.63 Y87.72 E2.36904
G1 X180.25 Y87.788 E.02495
G1 X181.355 Y88.218 E.0474
G1 X182.532 Y89.395 E.06653
G1 X182.935 Y90.375 E.04236
G1 X183.03 Y91.12 E.03004
G1 X183.03 Y118.88 E1.10974
G1 X182.935 Y119.625 E.03004
G1 X182.532 Y120.605 E.04236
G1 X181.355 Y121.782 E.06653
G1 X181.111 Y121.912 E.01104
G1 X180.375 Y122.185 E.0314
G1 X179.63 Y122.28 E.03004
G1 X120.37 Y122.28 E2.36904
G1 X119.625 Y122.185 E.03004
G1 X118.645 Y121.782 E.04236
G1 X117.468 Y120.605 E.06653
G1 X117.338 Y120.361 E.01104
G1 X117.065 Y119.625 E.0314
G1 X116.97 Y118.88 E.03004
G1 X116.97 Y91.12 E1.10974
G1 X117.065 Y90.375 E.03004
G1 X117.453 Y89.432 E.04076
G1 X117.854 Y89.602 F10800
G1 F1800
G1 X118.852 Y88.604 E.05642
G1 X119.095 Y88.473 E.01104
G1 X119.72 Y88.242 E.02662
G1 X120.37 Y88.157 E.02624
G1 X179.63 Y88.157 E2.36904
G1 X180.156 Y88.215 E.02116
G1 X181.148 Y88.604 E.04263
G1 X182.146 Y89.602 E.05642
G1 X182.508 Y90.47 E.03759
G1 X182.593 Y91.12 E.02624
G1 X182.593 Y118.88 E1.10974
G1 X182.508 Y119.53 E.02624
G1 X182.146 Y120.398 E.03759
G1 X181.148 Y121.396 E.05642
G1 X180.905 Y121.527 E.01104
G1 X180.28 Y121.758 E.02662
G1 X179.63 Y121.843 E.02624
G1 X120.37 Y121.843 E2.36904
G1 X119.72 Y121.758 E.02624
G1 X118.852 Y121.396 E.03759
G1 X117.854 Y120.398 E.05642
G1 X117.723 Y120.155 E.01104
G1 X117.492 Y119.53 E.02662
G1 X117.407 Y118.88 E.02624
G1 X117.407 Y91.12 E1.10974
G1 X117.492 Y90.47 E.02624
G1 X117.838 Y89.639 E.03599
; printing object fidget_cube.stl id:0 copy 0
G1 E-.56
;WIPE_START
G1 X118.538 Y88.924 E-.24
;WIPE_END
EXCLUDE_OBJECT_START NAME=fidget_cube.stl_id_0_copy_0
G1 Z.6 F10800
G1 X171.868 Y92.564 Z.6
G1 Z.2
G1 E.8 F1800
;TYPE:Inner wall
;WIDTH:0.479999
G1 F1200
G1 X171.802 Y92.479 E.00427
;WIDTH:0.508228
G1 X171.474 Y92.356 E.01491
;WIDTH:0.536457
G1 X171.146 Y92.233 E.01581
G1 X168.24 Y92.233 E.13121
;WIDTH:0.536066
G1 X168.24 Y91.74 E.02224
;WIDTH:0.536457
G1 X171.146 Y91.739 E.1312
G1 X171.602 Y91.725 E.02059
;WIDTH:0.508228
G1 X172.058 Y91.711 E.01941
;WIDTH:0.479999
G1 X179.042 Y91.709 E.27918
G1 X179.042 Y102.541 E.43308
G1 X172.058 Y102.539 E.27918
;WIDTH:0.508229
G1 X171.602 Y102.525 E.01941
;WIDTH:0.536458
G1 X171.146 Y102.511 E.02059
G1 X168.24 Y102.51 E.1312
;WIDTH:0.536068
G1 X168.24 Y102.017 E.02224
;WIDTH:0.536458
G1 X171.146 Y102.017 E.13121
;WIDTH:0.546822
G1 X171.341 Y102.006 E.00897
G1 X171.571 Y101.888 E.01193
;WIDTH:0.513411
G1 X171.802 Y101.771 E.01114
;WIDTH:0.479999
G1 X172.155 Y101.317 E.02299
G1 X172.239 Y100.896 E.01713
G1 X172.239 Y93.354 E.30155
G1 X172.155 Y92.933 E.01713
G1 X171.892 Y92.595 E.01712
G1 X171.573 Y92.872 F10800
G1 F1200
G1 X171.54 Y92.829 E.00216
G1 X171.146 Y92.698 E.01658
G1 X167.775 Y92.698 E.13479
G1 X167.775 Y91.275 E.05689
G1 X179.479 Y91.271 E.46789
G1 X179.479 Y102.979 E.46803
G1 X167.775 Y102.975 E.46789
G1 X167.775 Y101.552 E.05689
G1 X171.26 Y101.542 E.13931
G1 X171.54 Y101.421 E.01221
G1 X171.752 Y101.149 E.01379
G1 X171.802 Y100.896 E.01028
G1 X171.802 Y93.354 E.30155
G1 X171.752 Y93.101 E.01028
G1 X171.598 Y92.903 E.01003
G1 X171.278 Y93.179 F10800
;TYPE:Outer wall
G1 F1200
G1 X171.146 Y93.135 E.00553
G1 X167.338 Y93.135 E.15226
G1 X167.338 Y91.227 E.07627
G1 X167.398 Y90.986 E.00993
G1 X167.481 Y90.913 E.00441
G1 X167.65 Y90.838 E.00743
G1 X179.582 Y90.834 E.47701
G1 X179.816 Y90.934 E.01015
G1 X179.882 Y91.088 E.0067
G1 X179.916 Y91.254 E.00676
G1 X179.916 Y103.082 E.47286
G1 X179.816 Y103.316 E.01015
G1 X179.582 Y103.416 E.01015
G1 X167.727 Y103.412 E.47394
G1 X167.486 Y103.352 E.00994
G1 X167.413 Y103.269 E.00441
G1 X167.338 Y103.1 E.00742
G1 X167.338 Y101.115 E.07934
G1 X171.146 Y101.115 E.15226
G1 X171.278 Y101.071 E.00553
G1 X171.365 Y100.896 E.00781
G1 X171.365 Y93.354 E.30155
G1 X171.295 Y93.214 E.00621
G1 E-.56 F1800
;WIPE_START
G1 F1200
G1 X171.146 Y93.135 E-.04054
G1 X170.315 Y93.135 E-.19946
;WIPE_END
G1 Z.6 F10800
G1 X177.996 Y91.84 Z.6
G1 Z.2
G1 E.8 F1800
;TYPE:Bottom surface
;WIDTH:0.494688
G1 F1500
G1 X178.714 Y92.558 E.04194
G1 X178.714 Y93.197 E.0264
G1 X177.554 Y92.037 E.06778
G1 X176.915 Y92.037 E.02639
G1 X178.714 Y93.835 E.1051
G1 X178.714 Y94.474 E.0264
G1 X176.277 Y92.037 E.14243
G1 X175.638 Y92.037 E.02639
G1 X178.714 Y95.113 E.17975
G1 X178.714 Y95.752 E.0264
G1 X174.999 Y92.038 E.21707
G1 X174.36 Y92.038 E.02639
G1 X178.714 Y96.391 E.2544
G1 X178.714 Y97.03 E.0264
G1 X173.722 Y92.038 E.29172
G1 X173.083 Y92.038 E.02639
G1 X178.714 Y97.669 E.32905
G1 X178.714 Y98.308 E.0264
G1 X172.444 Y92.038 E.36637
G1 X171.821 Y92.053 E.02578
G1 X178.714 Y98.947 E.40282
G1 X178.714 Y99.586 E.0264
G1 X172.567 Y93.439 E.35921
G1 X172.567 Y94.078 E.0264
G1 X178.714 Y100.224 E.35921
G1 X178.714 Y100.863 E.0264
G1 X172.567 Y94.716 E.35921
G1 X172.567 Y95.355 E.0264
G1 X178.714 Y101.502 E.35921
G1 X178.714 Y102.141 E.0264
G1 X172.567 Y95.994 E.35921
G1 X172.567 Y96.633 E.0264
G1 X178.147 Y102.213 E.32609
G1 X177.508 Y102.213 E.02641
G1 X172.567 Y97.272 E.28875
G1 X172.567 Y97.911 E.0264
G1 X176.869 Y102.213 E.2514
G1 X176.23 Y102.213 E.02641
G1 X172.567 Y98.55 E.21406
G1 X172.567 Y99.189 E.0264
G1 X175.591 Y102.213 E.17671
G1 X174.952 Y102.212 E.02641
G1 X172.567 Y99.828 E.13936
G1 X172.567 Y100.467 E.0264
G1 X174.313 Y102.212 E.10202
G1 X173.674 Y102.212 E.02641
G1 X172.534 Y101.072 E.0666
G1 X172.459 Y101.447 E.0158
G1 X172.376 Y101.554 E.00556
G1 X173.035 Y102.212 E.03846
G1 X172.395 Y102.212 E.02641
G1 X171.957 Y101.773 E.02564
G1 E-.56 F1800
;WIPE_START
G1 F1500
G1 X172.395 Y102.212 E-.14894
G1 X172.775 Y102.212 E-.09106
;WIPE_END
G1 Z.6 F10800
G1 X171.867 Y117.437 Z.6
M73 P0 R97
G1 Z.2
G1 E.8 F1800
;TYPE:Inner wall
;WIDTH:0.479999
G1 F1200
G1 X172.155 Y117.067 E.01875
G1 X172.239 Y116.646 E.01713
G1 X172.239 Y109.104 E.30155
G1 X172.155 Y108.683 E.01713
G1 X171.802 Y108.229 E.02299
;WIDTH:0.508229
G1 X171.474 Y108.106 E.01491
;WIDTH:0.536458
G1 X171.146 Y107.983 E.01581
G1 X168.24 Y107.983 E.13121
;WIDTH:0.536067
G1 X168.24 Y107.49 E.02224
;WIDTH:0.536458
G1 X171.146 Y107.489 E.1312
G1 X171.602 Y107.475 E.02059
;WIDTH:0.508229
G1 X172.058 Y107.461 E.01941
;WIDTH:0.479999
G1 X179.042 Y107.459 E.27918
G1 X179.042 Y118.291 E.43308
G1 X172.058 Y118.289 E.27918
;WIDTH:0.508228
G1 X171.602 Y118.275 E.01941
;WIDTH:0.536457
G1 X171.146 Y118.261 E.02059
G1 X168.24 Y118.26 E.1312
;WIDTH:0.536066
G1 X168.24 Y117.767 E.02224
;WIDTH:0.536457
G1 X171.146 Y117.767 E.13121
;WIDTH:0.546821
G1 X171.341 Y117.756 E.00897
G1 X171.571 Y117.638 E.01193
;WIDTH:0.51341
G1 X171.802 Y117.521 E.01114
;WIDTH:0.479999
G1 X171.843 Y117.468 E.00264
G1 X171.572 Y117.129 F10800
G1 F1200
G1 X171.752 Y116.899 E.01167
G1 X171.802 Y116.646 E.01028
G1 X171.802 Y109.104 E.30155
G1 X171.752 Y108.851 E.01028
G1 X171.54 Y108.579 E.01379
G1 X171.146 Y108.448 E.01658
G1 X167.775 Y108.448 E.13479
G1 X167.775 Y107.025 E.05689
G1 X179.479 Y107.021 E.46789
G1 X179.479 Y118.729 E.46803
G1 X167.775 Y118.725 E.46789
G1 X167.775 Y117.302 E.05689
G1 X171.26 Y117.292 E.13931
G1 X171.54 Y117.171 E.01221
G1 X171.548 Y117.161 E.00052
G1 X171.278 Y116.821 F10800
;TYPE:Outer wall
G1 F1200
G1 X171.365 Y116.646 E.00781
G1 X171.365 Y109.104 E.30155
G1 X171.278 Y108.929 E.00781
G1 X171.146 Y108.885 E.00553
G1 X167.338 Y108.885 E.15226
G1 X167.338 Y107.736 E.04592
G1 X167.361 Y106.791 E.03781
G1 X167.486 Y106.648 E.00759
G1 X167.663 Y106.588 E.00748
G1 X179.582 Y106.584 E.4765
G1 X179.816 Y106.684 E.01015
G1 X179.882 Y106.838 E.0067
G1 X179.916 Y107.004 E.00676
G1 X179.916 Y118.832 E.47286
G1 X179.816 Y119.066 E.01015
G1 X179.582 Y119.166 E.01015
G1 X168.486 Y119.163 E.4436
G1 X167.541 Y119.139 E.0378
G1 X167.398 Y119.014 E.00759
G1 X167.338 Y118.837 E.00747
G1 X167.338 Y116.865 E.07884
G1 X171.146 Y116.865 E.15226
G1 X171.24 Y116.834 E.00393
G1 E-.56 F1800
;WIPE_START
G1 F1200
G1 X171.365 Y116.646 E-.05413
G1 X171.365 Y115.872 E-.18587
;WIPE_END
G1 Z.6 F10800
G1 X177.996 Y107.59 Z.6
G1 Z.2
G1 E.8 F1800
;TYPE:Bottom surface
;WIDTH:0.494688
G1 F1500
G1 X178.714 Y108.308 E.04194
G1 X178.714 Y108.947 E.0264
G1 X177.554 Y107.787 E.06778
G1 X176.915 Y107.787 E.02639
G1 X178.714 Y109.585 E.1051
G1 X178.714 Y110.224 E.0264
G1 X176.277 Y107.787 E.14243
G1 X175.638 Y107.787 E.02639
G1 X178.714 Y110.863 E.17975
G1 X178.714 Y111.502 E.0264
G1 X174.999 Y107.788 E.21707
G1 X174.36 Y107.788 E.02639
G1 X178.714 Y112.141 E.2544
G1 X178.714 Y112.78 E.0264
G1 X173.722 Y107.788 E.29172
G1 X173.083 Y107.788 E.02639
G1 X178.714 Y113.419 E.32905
G1 X178.714 Y114.058 E.0264
G1 X172.444 Y107.788 E.36637
G1 X171.821 Y107.803 E.02578
G1 X178.714 Y114.697 E.40282
G1 X178.714 Y115.336 E.0264
G1 X172.567 Y109.189 E.35921
G1 X172.567 Y109.828 E.0264
G1 X178.714 Y115.974 E.35921
G1 X178.714 Y116.613 E.0264
G1 X172.567 Y110.466 E.35921
G1 X172.567 Y111.105 E.0264
G1 X178.714 Y117.252 E.35921
G1 X178.714 Y117.891 E.0264
G1 X172.567 Y111.744 E.35921
G1 X172.567 Y112.383 E.0264
G1 X178.147 Y117.963 E.32609
G1 X177.508 Y117.963 E.02641
G1 X172.567 Y113.022 E.28875
G1 X172.567 Y113.661 E.0264
G1 X176.869 Y117.963 E.2514
G1 X176.23 Y117.963 E.02641
G1 X172.567 Y114.3 E.21406
G1 X172.567 Y114.939 E.0264
G1 X175.591 Y117.963 E.17671
G1 X174.952 Y117.962 E.02641
G1 X172.567 Y115.578 E.13936
G1 X172.567 Y116.217 E.0264
G1 X174.313 Y117.962 E.10202
G1 X173.674 Y117.962 E.02641
G1 X172.534 Y116.822 E.0666
G1 X172.459 Y117.197 E.0158
G1 X172.376 Y117.304 E.00556
G1 X173.035 Y117.962 E.03846
G1 X172.395 Y117.962 E.02641
G1 X171.957 Y117.523 E.02564
G1 E-.56 F1800
;WIPE_START
G1 F1500
G1 X172.395 Y117.962 E-.14894
G1 X172.775 Y117.962 E-.09106
;WIPE_END
G1 Z.6 F10800
G1 X167.758 Y110.989 Z.6
G1 Z.2
G1 E.8 F1800
;TYPE:Inner wall
;WIDTH:0.479999
G1 F1200
G1 X167.758 Y112.875 E.07539
G1 X167.758 Y114.761 E.07539
G1 X163.742 Y114.761 E.16052
G1 X163.742 Y110.989 E.15078
G1 X167.718 Y110.989 E.15892
G1 X168.195 Y110.552 F10800
G1 F1200
G1 X168.195 Y112.875 E.09286
G1 X168.195 Y115.198 E.09286
G1 X163.305 Y115.198 E.19546
G1 X163.305 Y110.552 E.18573
G1 X168.155 Y110.552 E.19386
G1 X168.632 Y110.115 F10800
;TYPE:Outer wall
G1 F1200
G1 X168.632 Y112.875 E.11034
G1 X168.632 Y115.635 E.11034
G1 X162.868 Y115.635 E.23041
G1 X162.868 Y110.115 E.22068
G1 X168.592 Y110.115 E.22881
G1 E-.56 F1800
;WIPE_START
G1 F1200
G1 X168.606 Y111.115 E-.24
;WIPE_END
G1 Z.6 F10800
G1 X167.626 Y112.079 Z.6
G1 Z.2
G1 E.8 F1800
;TYPE:Bottom surface
;WIDTH:0.515381
G1 F1500
G1 X166.865 Y111.317 E.04656
G1 X166.196 Y111.317 E.02887
G1 X167.43 Y112.55 E.07538
G1 X167.43 Y113.219 E.02887
G1 X165.528 Y111.317 E.11621
G1 X164.86 Y111.317 E.02887
G1 X167.43 Y113.887 E.15704
M73 P1 R97
G1 X167.43 Y114.433 E.02361
G1 X167.308 Y114.433 E.00526
G1 X164.192 Y111.317 E.19044
G1 X164.07 Y111.317 E.00526
G1 X164.07 Y111.863 E.02362
G1 X166.64 Y114.433 E.15704
G1 X165.972 Y114.433 E.02887
G1 X164.07 Y112.532 E.1162
G1 X164.07 Y113.2 E.02887
G1 X165.303 Y114.433 E.07537
G1 X164.635 Y114.433 E.02887
G1 X163.874 Y113.671 E.04656
G1 E-.56 F1800
;WIPE_START
G1 F1500
G1 X164.581 Y114.378 E-.24
;WIPE_END
G1 Z.6 F10800
G1 X160.028 Y108.061 Z.6
G1 Z.2
G1 E.8 F1800
;TYPE:Inner wall
;WIDTH:0.548075
G1 F1200
G1 X159.928 Y108.112 E.00517
;WIDTH:0.514037
G1 X159.698 Y108.229 E.01115
;WIDTH:0.479999
G1 X159.345 Y108.683 E.02299
G1 X159.261 Y109.104 E.01713
G1 X159.261 Y116.646 E.30155
G1 X159.345 Y117.067 E.01714
G1 X159.698 Y117.521 E.02299
;WIDTH:0.508592
G1 X160.026 Y117.644 E.01492
;WIDTH:0.537185
G1 X160.354 Y117.768 E.01584
;WIDTH:0.537574
G1 X163.261 Y117.768 E.13155
G1 X163.262 Y118.015 E.01117
G1 X163.262 Y118.263 E.01121
G1 X160.353 Y118.262 E.13159
;WIDTH:0.537185
G1 X159.897 Y118.276 E.02063
;WIDTH:0.508592
G1 X159.441 Y118.29 E.01944
;WIDTH:0.479999
G1 X152.462 Y118.288 E.27903
G1 X152.459 Y107.458 E.43295
G1 X159.441 Y107.458 E.27914
;WIDTH:0.508851
G1 X159.897 Y107.473 E.01946
;WIDTH:0.537703
G1 X160.354 Y107.487 E.02066
G1 X163.262 Y107.487 E.13162
G1 X163.261 Y107.982 E.02239
G1 X160.354 Y107.982 E.13158
;WIDTH:0.548075
G1 X160.159 Y107.994 E.00901
G1 X160.064 Y108.042 E.00494
G1 X160.331 Y108.458 F10800
;WIDTH:0.479999
G1 F1200
G1 X160.24 Y108.458 E.00363
G1 X159.96 Y108.579 E.0122
G1 X159.748 Y108.851 E.01379
G1 X159.698 Y109.104 E.01028
G1 X159.698 Y116.646 E.30155
G1 X159.748 Y116.899 E.01028
G1 X159.96 Y117.171 E.01379
G1 X160.353 Y117.302 E.01657
G1 X163.726 Y117.302 E.13484
G1 X163.727 Y118.014 E.02847
G1 X163.728 Y118.729 E.02856
G1 X152.025 Y118.725 E.46789
G1 X152.021 Y107.021 E.4679
G1 X163.728 Y107.021 E.46802
G1 X163.726 Y108.448 E.05703
G1 X160.371 Y108.457 E.13413
G1 X160.354 Y108.885 F10800
;TYPE:Outer wall
G1 F1200
G1 X160.222 Y108.929 E.00553
G1 X160.135 Y109.104 E.00781
G1 X160.135 Y116.646 E.30155
G1 X160.222 Y116.821 E.00781
G1 X160.353 Y116.865 E.00552
G1 X164.163 Y116.865 E.15228
G1 X164.164 Y118.013 E.04591
G1 X164.166 Y118.832 E.03274
G1 X164.066 Y119.066 E.01014
G1 X163.832 Y119.166 E.01015
G1 X151.977 Y119.162 E.47394
G1 X151.736 Y119.102 E.00994
G1 X151.663 Y119.019 E.00441
G1 X151.588 Y118.85 E.00743
G1 X151.584 Y106.918 E.47701
G1 X151.684 Y106.684 E.01015
G1 X151.918 Y106.584 E.01015
G1 X163.832 Y106.584 E.47631
G1 X164.066 Y106.684 E.01015
G1 X164.166 Y106.918 E.01014
G1 X164.163 Y108.885 E.07865
G1 X160.394 Y108.885 E.15068
G1 E-.56 F1800
;WIPE_START
G1 F1200
G1 X160.222 Y108.929 E-.04239
