; HEADER_BLOCK_START
; generated by OrcaSlicer 2.1.1 on 2024-07-17 at 01:51:44
; total layer number: 234
; filament_density: 1.24
; filament_diameter: 1.75
; max_z_height: 46.80
; HEADER_BLOCK_END

; THUMBNAIL_BLOCK_START

;
; THUMBNAIL_BLOCK_END

; external perimeters extrusion width = 0.45mm
; perimeters extrusion width = 0.45mm
; infill extrusion width = 0.45mm
; solid infill extrusion width = 0.45mm
; top infill extrusion width = 0.40mm
; first layer extrusion width = 0.42mm

; external perimeters extrusion width = 0.45mm
; perimeters extrusion width = 0.45mm
; infill extrusion width = 0.45mm
; solid infill extrusion width = 0.45mm
; top infill extrusion width = 0.40mm
; first layer extrusion width = 0.42mm

; external perimeters extrusion width = 0.45mm
; perimeters extrusion width = 0.45mm
; infill extrusion width = 0.45mm
; solid infill extrusion width = 0.45mm
; top infill extrusion width = 0.40mm
; first layer extrusion width = 0.42mm

; EXECUTABLE_BLOCK_START


; Pre-Processed for Cancel-Object support by preprocess_cancellation v0.2.0
; 3 known objects
EXCLUDE_OBJECT_DEFINE NAME=Otoskop_Trichter_v7_stl_id_743733115549122560_copy_0 CENTER=149.389,93.722 POLYGON=[[138.778,83.093],[138.778,104.09],[159.775,104.09],[159.775,83.093]]
EXCLUDE_OBJECT_DEFINE NAME=Otoskop_Trichter_v7_stl_id_0_copy_0 CENTER=137.894,115.462 POLYGON=[[127.279,104.834],[127.279,125.831],[148.276,125.831],[148.276,104.834]]
EXCLUDE_OBJECT_DEFINE NAME=head_led_case_STL_id_72340172838076673_copy_0 CENTER=161.305,115.448 POLYGON=[[149.883,104.069],[149.883,126.907],[172.722,126.907],[172.722,104.069]]
M73 P0 R40
;TYPE:Custom
PRINT_START EXTRUDER=220 BED=0
G90
G21
M83 ; use relative distances for extrusion
M106 S0
;LAYER_CHANGE
;Z:0.2
;HEIGHT:0.2
;BEFORE_LAYER_CHANGE
;0.2
G92 E0
G1 E-.8 F1800
;AFTER_LAYER_CHANGE
;0.2
;_SET_FAN_SPEED_CHANGING_LAYER
SET_VELOCITY_LIMIT ACCEL=800 ACCEL_TO_DECEL=400
G1 X137.962 Y86.326 F10800
G1 Z.4 F720
G1 Z.2
G1 E.8 F1800
;TYPE:Skirt
;WIDTH:0.42
G1 F3000
G1 X139.277 Y84.603 E.06662
G1 X140.27 Y83.608 E.04318
G1 X141.921 Y82.336 E.06405
G1 X143.137 Y81.63 E.0432
G1 X145.035 Y80.832 E.06325
G1 X146.293 Y80.483 E.04013
G1 X148.416 Y80.175 E.0659
G1 X149.821 Y80.158 E.04316
G1 X150.974 Y80.255 E.03558
G1 X153.016 Y80.678 E.06406
G1 X154.183 Y81.076 E.03789
G1 X155.245 Y81.547 E.03569
G1 X156.386 Y82.182 E.04014
G1 X157.274 Y82.788 E.03303
G1 X158.231 Y83.566 E.03789
G1 X159.673 Y85.071 E.06406
G1 X160.977 Y86.975 E.07089
G1 X173.559 Y108.007 E.75307
G1 X174.351 Y109.498 E.05188
G1 X174.898 Y110.869 E.04536
G1 X175.271 Y112.162 E.04136
G1 X175.555 Y113.738 E.04919
G1 X175.66 Y115.299 E.04807
G1 X175.588 Y116.941 E.0505
G1 X175.356 Y118.426 E.04621
G1 X174.951 Y119.941 E.04818
G1 X174.174 Y121.853 E.0634
G1 X173.361 Y123.285 E.05061
G1 X172.436 Y124.556 E.04832
G1 X171.366 Y125.731 E.04882
G1 X170.367 Y126.624 E.04118
G1 X169.155 Y127.508 E.04609
G1 X167.798 Y128.292 E.04816
G1 X165.901 Y129.091 E.06325
G1 X164.377 Y129.514 E.04857
G1 X163.058 Y129.739 E.04113
G1 X161.202 Y129.848 E.05713
G1 X136.85 Y128.743 E.74903
G1 X134.665 Y128.408 E.06793
G1 X133.268 Y127.995 E.04477
G1 X131.364 Y127.146 E.06406
G1 X130.108 Y126.371 E.04535
G1 X128.562 Y125.12 E.0611
G1 X127.551 Y124.057 E.04507
G1 X126.371 Y122.447 E.06133
G1 X125.686 Y121.208 E.04351
G1 X124.906 Y119.211 E.0659
G1 X124.588 Y117.943 E.04014
G1 X124.423 Y116.881 E.03303
G1 X124.336 Y115.656 E.03775
G1 X124.355 Y114.571 E.03333
G1 X124.48 Y113.344 E.03789
G1 X124.7 Y112.208 E.03557
G1 X125.37 Y110.154 E.0664
G1 X125.876 Y109.07 E.03673
G1 X137.943 Y86.362 E.79017
G1 X138.276 Y86.538 F10800
G1 F3000
G1 X138.284 Y86.523 E.00054
G1 X139.567 Y84.844 E.06492
G1 X140.513 Y83.896 E.04114
G1 X142.138 Y82.644 E.06305
G1 X143.297 Y81.971 E.04116
G1 X145.165 Y81.186 E.06229
G1 X146.364 Y80.853 E.03824
G1 X148.454 Y80.55 E.06489
G1 X149.792 Y80.534 E.04112
G1 X150.914 Y80.627 E.03458
G1 X152.923 Y81.044 E.06306
G1 X154.058 Y81.432 E.03684
G1 X155.089 Y81.89 E.03468
G1 X156.176 Y82.495 E.03824
G1 X157.809 Y83.697 E.06228
G1 X159.39 Y85.32 E.06963
G1 X160.655 Y87.171 E.06888
G1 X173.236 Y108.2 E.75298
G1 X174.002 Y109.642 E.05017
G1 X174.536 Y110.973 E.04408
G1 X174.908 Y112.267 E.04136
G1 X175.183 Y113.801 E.04787
G1 X175.284 Y115.32 E.0468
G1 X175.211 Y116.92 E.04921
G1 X174.984 Y118.364 E.04492
G1 X174.588 Y119.84 E.04696
G1 X173.844 Y121.67 E.06069
G1 X173.053 Y123.066 E.04931
G1 X172.154 Y124.306 E.04704
G1 X171.114 Y125.45 E.04751
G1 X170.115 Y126.343 E.04118
G1 X168.936 Y127.201 E.04481
G1 X167.612 Y127.963 E.04694
G1 X165.796 Y128.729 E.06056
G1 X164.314 Y129.142 E.04728
G1 X162.995 Y129.367 E.04113
G1 X161.219 Y129.471 E.05465
G1 X136.867 Y128.366 E.74903
G1 X134.741 Y128.039 E.06609
G1 X133.406 Y127.644 E.04278
G1 X131.532 Y126.808 E.06306
G1 X130.333 Y126.069 E.04328
G1 X128.811 Y124.837 E.06016
G1 X127.845 Y123.821 E.04308
G1 X126.684 Y122.237 E.06036
G1 X126.031 Y121.056 E.04146
G1 X125.263 Y119.089 E.06488
G1 X124.961 Y117.882 E.03824
G1 X124.799 Y116.851 E.03207
G1 X124.731 Y114.606 E.06902
G1 X124.851 Y113.413 E.03685
G1 X125.064 Y112.308 E.03457
G1 X125.723 Y110.286 E.06534
G1 X126.21 Y109.247 E.03527
G1 X138.257 Y86.574 E.78892
; printing object Otoskop_Trichter_v7.stl id:743733115549122560 copy 0
EXCLUDE_OBJECT_START NAME=Otoskop_Trichter_v7_stl_id_743733115549122560_copy_0
G1 E-.56 F1800
;WIPE_START
G1 F3000
G1 X138.284 Y86.523 E-.01382
G1 X138.856 Y85.774 E-.22618
;WIPE_END
G1 X140.444 Y87.908 Z.6 F10800
G1 Z.2 F720
G1 E.8 F1800
;TYPE:Brim
G1 F1200
G1 X140.471 Y87.865 E.00158
G1 X140.913 Y87.237 E.02359
G1 X141.533 Y86.493 E.02975
G1 X142.171 Y85.854 E.02776
G1 X142.862 Y85.272 E.02776
G1 X143.608 Y84.747 E.02803
G1 X144.389 Y84.293 E.02775
G1 X145.267 Y83.883 E.02975
G1 X146.046 Y83.596 E.02553
G1 X146.855 Y83.371 E.02579
G1 X147.743 Y83.201 E.02777
G1 X148.706 Y83.103 E.02974
G1 X149.608 Y83.093 E.02775
G1 X150.51 Y83.161 E.02777
G1 X151.41 Y83.307 E.02803
G1 X152.286 Y83.529 E.02775
G1 X153.199 Y83.85 E.02974
G1 X154.022 Y84.223 E.02777
G1 X154.755 Y84.631 E.02579
G1 X155.446 Y85.094 E.02553
G1 X156.203 Y85.697 E.02975
G1 X156.855 Y86.322 E.02775
G1 X157.457 Y87.007 E.02802
G1 X158.027 Y87.789 E.02975
G1 X158.46 Y88.499 E.02553
G1 X158.836 Y89.249 E.0258
G1 X159.174 Y90.088 E.02777
G1 X159.455 Y91.013 E.02974
G1 X159.639 Y91.898 E.02776
G1 X159.746 Y92.795 E.02777
G1 X159.775 Y93.707 E.02803
G1 X159.726 Y94.609 E.02775
G1 X159.587 Y95.567 E.02975
G1 X159.399 Y96.376 E.02553
G1 X159.143 Y97.176 E.02579
G1 X158.798 Y98.011 E.02777
G1 X158.352 Y98.87 E.02974
G1 X157.865 Y99.63 E.02775
G1 X157.314 Y100.347 E.02776
G1 X156.697 Y101.019 E.02803
G1 X156.031 Y101.629 E.02775
G1 X155.261 Y102.216 E.02975
G1 X154.554 Y102.668 E.02579
G1 X153.819 Y103.056 E.02553
G1 X152.988 Y103.412 E.02777
G1 X152.068 Y103.713 E.02974
G1 X151.188 Y103.916 E.02775
G1 X150.285 Y104.043 E.02801
G1 X149.318 Y104.09 E.02975
G1 X148.488 Y104.062 E.02553
G1 X147.52 Y103.943 E.02996
G1 X146.769 Y103.787 E.02359
G1 X145.84 Y103.514 E.02975
G1 X144.999 Y103.182 E.02776
G1 X144.183 Y102.775 E.02802
G1 X143.36 Y102.267 E.02974
G1 X142.636 Y101.726 E.02777
G1 X142.012 Y101.177 E.02553
G1 X141.341 Y100.47 E.02995
G1 X140.82 Y99.821 E.02557
G1 X140.316 Y99.071 E.02777
G1 X139.874 Y98.273 E.02802
G1 X139.484 Y97.388 E.02974
G1 X139.194 Y96.532 E.02777
G1 X138.99 Y95.717 E.02579
G1 X138.855 Y94.898 E.02553
G1 X138.778 Y93.932 E.02976
G1 X138.785 Y93.093 E.02577
G1 X138.874 Y92.129 E.02975
G1 X139.038 Y91.241 E.02775
G1 X139.28 Y90.362 E.02801
G1 X139.621 Y89.456 E.02975
G1 X139.977 Y88.705 E.02553
G1 X140.326 Y88.103 E.02139
G1 X140.423 Y87.942 E.00576
G1 X140.742 Y88.159 F10800
G1 F1200
G1 X141.209 Y87.472 E.02551
G1 X141.808 Y86.751 E.0288
G1 X142.423 Y86.135 E.02675
G1 X143.097 Y85.568 E.02706
G1 X143.816 Y85.062 E.02702
G1 X144.569 Y84.625 E.02673
G1 X145.416 Y84.23 E.02874
G1 X146.167 Y83.954 E.02457
G1 X146.937 Y83.74 E.02456
G1 X147.792 Y83.575 E.02678
G1 X148.722 Y83.48 E.0287
G1 X149.601 Y83.471 E.02703
G1 X150.47 Y83.536 E.02677
G1 X151.338 Y83.678 E.02703
G1 X152.181 Y83.892 E.02673
G1 X153.062 Y84.202 E.0287
G1 X153.856 Y84.563 E.02678
G1 X154.554 Y84.951 E.02456
G1 X155.219 Y85.396 E.02457
G1 X155.95 Y85.978 E.02873
G1 X156.586 Y86.587 E.02704
G1 X157.165 Y87.247 E.027
G1 X157.716 Y88.003 E.02873
G1 X158.132 Y88.686 E.02457
G1 X158.49 Y89.4 E.02456
G1 X158.816 Y90.208 E.02678
G1 X159.088 Y91.102 E.0287
G1 X159.265 Y91.954 E.02674
G1 X159.37 Y92.829 E.02707
G1 X159.398 Y93.708 E.02702
G1 X159.35 Y94.576 E.02673
G1 X159.215 Y95.502 E.02873
G1 X159.034 Y96.281 E.02457
G1 X158.79 Y97.042 E.02456
G1 X158.458 Y97.847 E.02678
G1 X158.028 Y98.676 E.0287
G1 X157.559 Y99.409 E.02674
G1 X157.021 Y100.107 E.02706
G1 X156.427 Y100.755 E.02702
G1 X155.785 Y101.343 E.02673
G1 X155.041 Y101.909 E.02873
G1 X154.368 Y102.339 E.02454
G1 X153.661 Y102.713 E.02459
G1 X152.86 Y103.056 E.02678
G1 X151.972 Y103.348 E.02871
G1 X151.115 Y103.545 E.02703
G1 X150.245 Y103.667 E.02699
G1 X149.311 Y103.713 E.02873
G1 X148.513 Y103.685 E.02454
G1 X147.586 Y103.571 E.02868
G1 X146.865 Y103.422 E.02264
G1 X145.967 Y103.159 E.02874
G1 X145.158 Y102.839 E.02674
G1 X144.363 Y102.443 E.0273
G1 X143.577 Y101.957 E.02839
G1 X142.877 Y101.436 E.0268
G1 X142.271 Y100.901 E.02484
G1 X141.622 Y100.218 E.02895
G1 X141.122 Y99.593 E.0246
G1 X140.641 Y98.878 E.02648
G1 X140.21 Y98.101 E.0273
G1 X139.838 Y97.255 E.02839
G1 X139.555 Y96.421 E.02708
G1 X139.36 Y95.645 E.02456
G1 X139.23 Y94.856 E.02457
G1 X139.155 Y93.924 E.02876
G1 X139.162 Y93.117 E.02478
G1 X139.247 Y92.186 E.02873
G1 X139.407 Y91.321 E.02703
G1 X139.641 Y90.474 E.02699
G1 X139.97 Y89.599 E.02873
G1 X140.309 Y88.885 E.02429
G1 X140.649 Y88.296 E.02088
G1 X140.72 Y88.192 E.00387
G1 X141.04 Y88.378 F10800
G1 F1200
G1 X141.073 Y88.321 E.00201
G1 X141.556 Y87.636 E.02577
G1 X142.103 Y86.988 E.02604
G1 X142.697 Y86.395 E.02578
G1 X143.346 Y85.852 E.026
G1 X143.904 Y85.461 E.02093
G1 X144.7 Y84.983 E.02855
G1 X145.464 Y84.618 E.02601
G1 X146.29 Y84.31 E.02707
G1 X147.107 Y84.086 E.02604
G1 X147.932 Y83.935 E.02578
G1 X148.774 Y83.855 E.026
G1 X149.456 Y83.849 E.02093
G1 X150.383 Y83.906 E.02855
G1 X151.219 Y84.038 E.02602
G1 X152.033 Y84.241 E.02577
G1 X152.835 Y84.516 E.02604
G1 X153.602 Y84.856 E.02578
G1 X154.373 Y85.282 E.02706
G1 X155.068 Y85.751 E.02577
G1 X155.726 Y86.283 E.02601
G1 X156.301 Y86.835 E.02448
G1 X156.846 Y87.451 E.02527
G1 X157.345 Y88.124 E.02576
G1 X157.805 Y88.875 E.02706
G1 X158.183 Y89.634 E.02604
G1 X158.49 Y90.415 E.02577
G1 X158.729 Y91.219 E.02578
G1 X158.899 Y92.048 E.026
G1 X158.995 Y92.881 E.02577
G1 X159.021 Y93.677 E.02448
G1 X158.977 Y94.515 E.02578
G1 X158.86 Y95.354 E.02604
G1 X158.675 Y96.164 E.0255
G1 X158.41 Y96.986 E.02654
G1 X158.078 Y97.774 E.02628
G1 X157.685 Y98.515 E.02577
G1 X157.231 Y99.22 E.02577
G1 X156.744 Y99.851 E.02449
G1 X156.172 Y100.476 E.02605
G1 X155.574 Y101.028 E.025
G1 X155 Y101.472 E.02229
G1 X154.214 Y101.992 E.02896
G1 X153.428 Y102.407 E.02733
G1 X152.639 Y102.738 E.02627
G1 X151.84 Y102.993 E.02577
G1 X151.022 Y103.179 E.02578
G1 X150.224 Y103.29 E.02475
G1 X149.387 Y103.336 E.02578
G1 X148.524 Y103.308 E.02653
G1 X147.7 Y103.209 E.0255
G1 X147.016 Y103.067 E.02146
G1 X146.105 Y102.807 E.02912
G1 X145.318 Y102.498 E.02595
G1 X144.545 Y102.113 E.02654
G1 X143.823 Y101.67 E.02604
G1 X143.148 Y101.172 E.02577
G1 X142.519 Y100.617 E.02578
G1 X141.935 Y100.004 E.026
G1 X141.411 Y99.35 E.02577
G1 X140.966 Y98.688 E.02449
G1 X140.566 Y97.97 E.02527
G1 X140.222 Y97.205 E.02576
G1 X139.942 Y96.405 E.02604
G1 X139.735 Y95.593 E.02578
G1 X139.593 Y94.724 E.02706
G1 X139.531 Y93.887 E.02577
G1 X139.542 Y93.048 E.02578
G1 X139.625 Y92.206 E.026
G1 X139.751 Y91.537 E.02093
G1 X139.985 Y90.638 E.02855
G1 X140.276 Y89.842 E.02602
G1 X140.631 Y89.083 E.02577
G1 X141.02 Y88.412 E.02381
G1 X141.345 Y88.601 F10800
G1 F1200
G1 X141.379 Y88.542 E.0021
G1 X141.842 Y87.882 E.02478
G1 X142.366 Y87.257 E.02504
G1 X142.936 Y86.687 E.02478
G1 X143.559 Y86.163 E.025
G1 X144.095 Y85.786 E.02012
G1 X144.899 Y85.303 E.02884
G1 X145.63 Y84.956 E.02485
G1 X146.385 Y84.675 E.02478
G1 X147.171 Y84.458 E.02504
G1 X147.964 Y84.311 E.02478
G1 X148.774 Y84.232 E.025
G1 X149.429 Y84.225 E.02012
G1 X150.365 Y84.283 E.02884
G1 X151.164 Y84.411 E.02485
G1 X151.946 Y84.608 E.02478
G1 X152.716 Y84.874 E.02504
G1 X153.453 Y85.202 E.02478
G1 X154.158 Y85.592 E.02478
G1 X154.828 Y86.042 E.02478
G1 X155.462 Y86.552 E.025
G1 X156.044 Y87.11 E.02478
G1 X156.565 Y87.704 E.02428
G1 X157.044 Y88.352 E.02478
G1 X157.466 Y89.04 E.02478
G1 X157.83 Y89.769 E.02504
G1 X158.127 Y90.518 E.02478
G1 X158.358 Y91.291 E.02478
G1 X158.524 Y92.088 E.025
G1 X158.618 Y92.888 E.02478
G1 X158.644 Y93.694 E.02478
G1 X158.6 Y94.499 E.02478
G1 X158.486 Y95.306 E.02504
G1 X158.307 Y96.083 E.02451
G1 X158.065 Y96.835 E.02428
G1 X157.746 Y97.594 E.02527
G1 X157.371 Y98.307 E.02477
G1 X156.935 Y98.986 E.02478
G1 X156.443 Y99.625 E.02478
G1 X155.891 Y100.225 E.02504
G1 X155.315 Y100.753 E.02401
G1 X154.795 Y101.155 E.0202
G1 X154.001 Y101.68 E.02926
G1 X153.286 Y102.058 E.02485
G1 X152.528 Y102.377 E.02527
G1 X151.761 Y102.624 E.02477
G1 X150.975 Y102.805 E.02478
G1 X150.167 Y102.918 E.02504
G1 X149.362 Y102.96 E.02478
G1 X148.573 Y102.934 E.02428
G1 X147.78 Y102.841 E.02451
G1 X147.123 Y102.705 E.02062
G1 X146.203 Y102.443 E.02941
G1 X145.453 Y102.146 E.02478
G1 X144.746 Y101.794 E.02428
G1 X144.05 Y101.369 E.02504
G1 X143.401 Y100.891 E.02478
G1 X142.795 Y100.359 E.02478
G1 X142.232 Y99.772 E.025
G1 X141.726 Y99.143 E.02478
G1 X141.277 Y98.474 E.02478
G1 X140.894 Y97.783 E.02428
G1 X140.564 Y97.047 E.02478
G1 X140.297 Y96.277 E.02504
G1 X140.099 Y95.495 E.02478
G1 X139.969 Y94.7 E.02478
G1 X139.908 Y93.896 E.02478
G1 X139.917 Y93.089 E.02478
G1 X139.995 Y92.28 E.025
G1 X140.114 Y91.636 E.02012
G1 X140.351 Y90.727 E.02884
G1 X140.631 Y89.969 E.02485
G1 X140.974 Y89.239 E.02478
G1 X141.325 Y88.635 E.02144
G1 E-.56 F1800
;WIPE_START
G1 F1200
G1 X141.379 Y88.542 E-.02602
G1 X141.842 Y87.882 E-.19351
G1 X141.897 Y87.816 E-.02047
;WIPE_END
G1 X143.155 Y89.804 Z.6 F10800
G1 Z.2 F720
G1 E.8 F1800
G1 F1200
G1 X143.414 Y89.399 E.01478
G1 X143.734 Y88.981 E.01618
G1 X144.292 Y88.387 E.02505
G1 X144.662 Y88.05 E.01538
G1 X145.185 Y87.656 E.02011
G1 X145.571 Y87.411 E.01404
G1 X146.251 Y87.049 E.02368
G1 X146.817 Y86.815 E.01881
G1 X147.402 Y86.631 E.01885
G1 X148 Y86.497 E.01885
G1 X148.618 Y86.413 E.01916
G1 X149.116 Y86.388 E.0153
G1 X149.536 Y86.391 E.01292
G1 X149.93 Y86.412 E.01211
G1 X150.486 Y86.487 E.01725
G1 X151.086 Y86.616 E.01887
G1 X151.673 Y86.796 E.01885
G1 X152.241 Y87.024 E.01882
G1 X152.924 Y87.377 E.02363
G1 X153.439 Y87.71 E.01883
G1 X153.883 Y88.05 E.01717
G1 X154.477 Y88.608 E.02504
G1 X154.81 Y88.974 E.01521
G1 X155.19 Y89.475 E.01931
G1 X155.518 Y89.993 E.01886
G1 X155.802 Y90.537 E.01885
G1 X156.037 Y91.103 E.01885
G1 X156.224 Y91.687 E.01881
G1 X156.385 Y92.44 E.02367
G1 X156.451 Y92.932 E.01527
G1 X156.476 Y93.485 E.01699
G1 X156.471 Y93.879 E.0121
G1 X156.452 Y94.245 E.01129
G1 X156.381 Y94.771 E.01629
G1 X156.254 Y95.371 E.01885
G1 X156.026 Y96.106 E.02363
G1 X155.788 Y96.67 E.01881
G1 X155.503 Y97.213 E.01885
G1 X155.172 Y97.73 E.01886
G1 X154.814 Y98.199 E.01814
G1 X154.247 Y98.802 E.02541
G1 X153.883 Y99.127 E.01499
G1 X153.439 Y99.47 E.01725
G1 X152.937 Y99.794 E.01835
G1 X152.284 Y100.137 E.02267
G1 X151.731 Y100.364 E.01835
G1 X151.162 Y100.544 E.01836
G1 X150.44 Y100.699 E.0227
G1 X149.931 Y100.766 E.01576
G1 X149.432 Y100.791 E.01536
G1 X149.012 Y100.788 E.01292
G1 X148.624 Y100.768 E.01192
G1 X148.015 Y100.685 E.01888
G1 X147.431 Y100.556 E.01838
G1 X146.861 Y100.379 E.01835
G1 X146.179 Y100.097 E.02267
G1 X145.651 Y99.818 E.01835
G1 X145.147 Y99.497 E.01838
G1 X144.663 Y99.128 E.0187
G1 X144.306 Y98.806 E.01476
G1 X143.944 Y98.435 E.01593
G1 X143.735 Y98.201 E.00963
G1 X143.423 Y97.793 E.0158
G1 X143.022 Y97.172 E.0227
G1 X142.746 Y96.642 E.01836
G1 X142.516 Y96.09 E.01838
G1 X142.332 Y95.522 E.01835
