
; ### Ellis' Pressure Advance / Linear Advance Calibration Tool ###
;
; Original Marlin linear advance calibration tool by Sineos [https://github.com/Sineos]
; Heavily modified/rewritten by Andrew Ellis [https://github.com/AndrewEllis93]
;
; -------------------------------------------
; Generated: Sat Mar 23 2024 18:06:47 GMT+0400 (Mauritius Standard Time)
; -------------------------------------------
;
; Advanced Mode: false
;
; Printer:
;  - Firmware: klipper
;  - Bed Shape: Rect
;  - Bed Size X: 300 mm
;  - Bed Size Y: 210 mm
;  - Origin Bed Center: false
;  - Travel Speed: 120 mm/s
;  - Nozzle Diameter: 0.4 mm
;  - Filament Diameter: 1.75 mm
;  - Extrusion Multiplier: 0.98
;
; Retraction / Z Hop:
;  - Retraction Distance: 0.5 mm
;  - Retract Speed: 35 mm/s
;  - Unretract Speed: 35 mm/s
;  - Z Hop Enable: true
;  - Z Hop Height: 0.1mm
;
; First Layer Settings:
;  - First Layer Height: 0.25 mm
;  - First Layer Printing Speed: 30 mm/s
;  - First Layer Fan Speed: 0%
;  - Anchor Option: anchor_frame
;
; Print Settings:
;  - Layer Height: 0.2 mm
;  - Print Speed: 40 mm/s
;  - Acceleration: Disabled
;  - Fan Speed: 100%
;
; Pressure Advance Stepping:
;  - PA Start Value: 0
;  - PA End Value: 0.08
;  - PA Increment: 0.005
;
; Start / End G-code:
;  - Hotend Temp: 200C
;  - Bed Temp: 0C
;  - Don't Add G28: false
;  - Don't Add Heating G-Codes: false
;  - Entered Start G-code: 
;       G28 ; Home all axes
;       M190 S0 ; Set & wait for bed temp
;       M109 S200 ; Set & wait for hotend temp
;       PRINT_START EXTRUDER=200 BED=0
;  - Entered End G-code: 
;       PRINT_END ; End macro. Change name to match yours
;
; Calculated Values:
;  - Print Size X: 84.72 mm
;  - Print Size Y: 53.99 mm
;  - Number of Patterns to Print: 17
;  - PA Values: 0, 0.005, 0.01, 0.015, 0.02, 0.025, 0.03, 0.035, 0.04, 0.045, 0.05, 0.055, 0.06, 0.065, 0.07, 0.075, 0.08
;
; Prepare printing
;
G28 ; Home all axes
M190 S0 ; Set & wait for bed temp
M109 S200 ; Set & wait for hotend temp
PRINT_START EXTRUDER=200 BED=0
G21 ; Millimeter units
G90 ; Absolute XYZ
M83 ; Relative E
G92 E0 ; Reset extruder distance
;
;  Begin printing
;
M106 S0 ; Set fan speed
G1 E-0.5 F2100 ; Retract
G0 Z5 F7200 ; Z raise
G0 X107.6417 Y78.0068 F7200 ; Move to start position
G0 Z0.25 F7200 ; Move to start layer height
G1 E0.5 F2100 ; Un-retract
SET_PRESSURE_ADVANCE ADVANCE=0 ; Set pressure advance to start value
M117 PA 0
G1 X107.6417 Y120.4332 E2.1882 F1800 ; Draw perimeter (up)
G1 X192.3583 Y120.4332 E4.36937 F1800 ; Draw perimeter (right)
G1 X192.3583 Y78.0068 E2.1882 F1800 ; Draw perimeter (down)
G1 X107.6417 Y78.0068 E4.36937 F1800 ; Draw perimeter (left)
G0 X108.148 Y78.5131 F7200 ; Step inwards to print next perimeter
G1 X108.148 Y119.9269 E2.13597 F1800 ; Draw perimeter (up)
G1 X191.852 Y119.9269 E4.31714 F1800 ; Draw perimeter (right)
G1 X191.852 Y78.5131 E2.13597 F1800 ; Draw perimeter (down)
G1 X108.148 Y78.5131 E4.31714 F1800 ; Draw perimeter (left)
G0 X108.6544 Y79.0195 F7200 ; Step inwards to print next perimeter
G1 X108.6544 Y119.4205 E2.08374 F1800 ; Draw perimeter (up)
G1 X191.3456 Y119.4205 E4.26491 F1800 ; Draw perimeter (right)
G1 X191.3456 Y79.0195 E2.08374 F1800 ; Draw perimeter (down)
G1 X108.6544 Y79.0195 E4.26491 F1800 ; Draw perimeter (left)
G0 X109.1607 Y79.5258 F7200 ; Step inwards to print next perimeter
G1 X109.1607 Y118.9142 E2.0315 F1800 ; Draw perimeter (up)
G1 X190.8393 Y118.9142 E4.21268 F1800 ; Draw perimeter (right)
G1 X190.8393 Y79.5258 E2.0315 F1800 ; Draw perimeter (down)
G1 X109.1607 Y79.5258 E4.21268 F1800 ; Draw perimeter (left)
G1 E-0.5 F2100 ; Retract
G1 Z0.35 F7200 ; Z hop
G0 X107.6417 Y120.9396 F7200 ; Move to box start
G1 Z0.25 F7200 ; Z hop return
G1 E0.5 F2100 ; Un-retract
G1 X107.6417 Y132.4459 E0.59346 F1800 ; Draw perimeter (up)
G1 X171.8962 Y132.4459 E3.31401 F1800 ; Draw perimeter (right)
G1 X171.8962 Y120.9396 E0.59346 F1800 ; Draw perimeter (down)
G1 X107.6417 Y120.9396 E3.31401 F1800 ; Draw perimeter (left)
G0 X108.148 Y121.4459 F7200 ; Step inwards to print next perimeter
G1 X108.148 Y131.9396 E0.54122 F1800 ; Draw perimeter (up)
G1 X171.3898 Y131.9396 E3.26178 F1800 ; Draw perimeter (right)
G1 X171.3898 Y121.4459 E0.54122 F1800 ; Draw perimeter (down)
G1 X108.148 Y121.4459 E3.26178 F1800 ; Draw perimeter (left)
G0 X108.6544 Y121.9523 F7200 ; Step inwards to print next perimeter
G1 X108.6544 Y131.4332 E0.48899 F1800 ; Draw perimeter (up)
G1 X170.8835 Y131.4332 E3.20955 F1800 ; Draw perimeter (right)
G1 X170.8835 Y121.9523 E0.48899 F1800 ; Draw perimeter (down)
G1 X108.6544 Y121.9523 E3.20955 F1800 ; Draw perimeter (left)
G0 X109.1607 Y122.4586 F7200 ; Step inwards to print next perimeter
G1 X109.1607 Y130.9269 E0.43676 F1800 ; Draw perimeter (up)
G1 X170.3771 Y130.9269 E3.15732 F1800 ; Draw perimeter (right)
G1 X170.3771 Y122.4586 E0.43676 F1800 ; Draw perimeter (down)
G1 X109.1607 Y122.4586 E3.15732 F1800 ; Draw perimeter (left)
G0 X109.5341 Y122.8319 F7200 ; Move to fill start
G0 X110.2502 Y122.8319 F7200 ; Move
G1 X109.5341 Y123.548 E0.05223 F1800 ; Fill
G0 X109.5341 Y124.2641 F7200 ; Move
G1 X110.9663 Y122.8319 E0.10446 F1800 ; Fill
G0 X111.6823 Y122.8319 F7200 ; Move
G1 X109.5341 Y124.9802 E0.15669 F1800 ; Fill
G0 X109.5341 Y125.6963 F7200 ; Move
G1 X112.3984 Y122.8319 E0.20893 F1800 ; Fill
G0 X113.1145 Y122.8319 F7200 ; Move
G1 X109.5341 Y126.4124 E0.26116 F1800 ; Fill
G0 X109.5341 Y127.1285 F7200 ; Move
G1 X113.8306 Y122.8319 E0.31339 F1800 ; Fill
G0 X114.5467 Y122.8319 F7200 ; Move
G1 X109.5341 Y127.8445 E0.36562 F1800 ; Fill
G0 X109.5341 Y128.5606 F7200 ; Move
G1 X115.2628 Y122.8319 E0.41785 F1800 ; Fill
G0 X115.9789 Y122.8319 F7200 ; Move
G1 X109.5341 Y129.2767 E0.47008 F1800 ; Fill
G0 X109.5341 Y129.9928 F7200 ; Move
G1 X116.6949 Y122.8319 E0.52231 F1800 ; Fill
G0 X117.411 Y122.8319 F7200 ; Move
G1 X109.6894 Y130.5535 E0.56321 F1800 ; Fill
G0 X110.4055 Y130.5535 F7200 ; Move
G1 X118.1271 Y122.8319 E0.56321 F1800 ; Fill
G0 X118.8432 Y122.8319 F7200 ; Move
G1 X111.1216 Y130.5535 E0.56321 F1800 ; Fill
G0 X111.8377 Y130.5535 F7200 ; Move
G1 X119.5593 Y122.8319 E0.56321 F1800 ; Fill
G0 X120.2754 Y122.8319 F7200 ; Move
G1 X112.5538 Y130.5535 E0.56321 F1800 ; Fill
G0 X113.2699 Y130.5535 F7200 ; Move
G1 X120.9915 Y122.8319 E0.56321 F1800 ; Fill
G0 X121.7076 Y122.8319 F7200 ; Move
G1 X113.986 Y130.5535 E0.56321 F1800 ; Fill
G0 X114.7021 Y130.5535 F7200 ; Move
G1 X122.4236 Y122.8319 E0.56321 F1800 ; Fill
G0 X123.1397 Y122.8319 F7200 ; Move
G1 X115.4181 Y130.5535 E0.56321 F1800 ; Fill
G0 X116.1342 Y130.5535 F7200 ; Move
G1 X123.8558 Y122.8319 E0.56321 F1800 ; Fill
G0 X124.5719 Y122.8319 F7200 ; Move
G1 X116.8503 Y130.5535 E0.56321 F1800 ; Fill
G0 X117.5664 Y130.5535 F7200 ; Move
G1 X125.288 Y122.8319 E0.56321 F1800 ; Fill
G0 X126.0041 Y122.8319 F7200 ; Move
G1 X118.2825 Y130.5535 E0.56321 F1800 ; Fill
G0 X118.9986 Y130.5535 F7200 ; Move
G1 X126.7202 Y122.8319 E0.56321 F1800 ; Fill
G0 X127.4362 Y122.8319 F7200 ; Move
G1 X119.7147 Y130.5535 E0.56321 F1800 ; Fill
G0 X120.4307 Y130.5535 F7200 ; Move
G1 X128.1523 Y122.8319 E0.56321 F1800 ; Fill
G0 X128.8684 Y122.8319 F7200 ; Move
G1 X121.1468 Y130.5535 E0.56321 F1800 ; Fill
G0 X121.8629 Y130.5535 F7200 ; Move
G1 X129.5845 Y122.8319 E0.56321 F1800 ; Fill
G0 X130.3006 Y122.8319 F7200 ; Move
G1 X122.579 Y130.5535 E0.56321 F1800 ; Fill
G0 X123.2951 Y130.5535 F7200 ; Move
G1 X131.0167 Y122.8319 E0.56321 F1800 ; Fill
G0 X131.7328 Y122.8319 F7200 ; Move
G1 X124.0112 Y130.5535 E0.56321 F1800 ; Fill
G0 X124.7273 Y130.5535 F7200 ; Move
G1 X132.4488 Y122.8319 E0.56321 F1800 ; Fill
G0 X133.1649 Y122.8319 F7200 ; Move
G1 X125.4433 Y130.5535 E0.56321 F1800 ; Fill
G0 X126.1594 Y130.5535 F7200 ; Move
G1 X133.881 Y122.8319 E0.56321 F1800 ; Fill
G0 X134.5971 Y122.8319 F7200 ; Move
G1 X126.8755 Y130.5535 E0.56321 F1800 ; Fill
G0 X127.5916 Y130.5535 F7200 ; Move
G1 X135.3132 Y122.8319 E0.56321 F1800 ; Fill
G0 X136.0293 Y122.8319 F7200 ; Move
G1 X128.3077 Y130.5535 E0.56321 F1800 ; Fill
G0 X129.0238 Y130.5535 F7200 ; Move
G1 X136.7454 Y122.8319 E0.56321 F1800 ; Fill
G0 X137.4615 Y122.8319 F7200 ; Move
G1 X129.7399 Y130.5535 E0.56321 F1800 ; Fill
G0 X130.456 Y130.5535 F7200 ; Move
G1 X138.1775 Y122.8319 E0.56321 F1800 ; Fill
G0 X138.8936 Y122.8319 F7200 ; Move
G1 X131.172 Y130.5535 E0.56321 F1800 ; Fill
G0 X131.8881 Y130.5535 F7200 ; Move
G1 X139.6097 Y122.8319 E0.56321 F1800 ; Fill
G0 X140.3258 Y122.8319 F7200 ; Move
G1 X132.6042 Y130.5535 E0.56321 F1800 ; Fill
G0 X133.3203 Y130.5535 F7200 ; Move
G1 X141.0419 Y122.8319 E0.56321 F1800 ; Fill
G0 X141.758 Y122.8319 F7200 ; Move
G1 X134.0364 Y130.5535 E0.56321 F1800 ; Fill
G0 X134.7525 Y130.5535 F7200 ; Move
G1 X142.4741 Y122.8319 E0.56321 F1800 ; Fill
G0 X143.1901 Y122.8319 F7200 ; Move
G1 X135.4686 Y130.5535 E0.56321 F1800 ; Fill
G0 X136.1846 Y130.5535 F7200 ; Move
G1 X143.9062 Y122.8319 E0.56321 F1800 ; Fill
G0 X144.6223 Y122.8319 F7200 ; Move
G1 X136.9007 Y130.5535 E0.56321 F1800 ; Fill
G0 X137.6168 Y130.5535 F7200 ; Move
G1 X145.3384 Y122.8319 E0.56321 F1800 ; Fill
G0 X146.0545 Y122.8319 F7200 ; Move
G1 X138.3329 Y130.5535 E0.56321 F1800 ; Fill
G0 X139.049 Y130.5535 F7200 ; Move
G1 X146.7706 Y122.8319 E0.56321 F1800 ; Fill
G0 X147.4867 Y122.8319 F7200 ; Move
G1 X139.7651 Y130.5535 E0.56321 F1800 ; Fill
G0 X140.4812 Y130.5535 F7200 ; Move
G1 X148.2027 Y122.8319 E0.56321 F1800 ; Fill
G0 X148.9188 Y122.8319 F7200 ; Move
G1 X141.1972 Y130.5535 E0.56321 F1800 ; Fill
G0 X141.9133 Y130.5535 F7200 ; Move
G1 X149.6349 Y122.8319 E0.56321 F1800 ; Fill
G0 X150.351 Y122.8319 F7200 ; Move
G1 X142.6294 Y130.5535 E0.56321 F1800 ; Fill
G0 X143.3455 Y130.5535 F7200 ; Move
G1 X151.0671 Y122.8319 E0.56321 F1800 ; Fill
G0 X151.7832 Y122.8319 F7200 ; Move
G1 X144.0616 Y130.5535 E0.56321 F1800 ; Fill
G0 X144.7777 Y130.5535 F7200 ; Move
G1 X152.4993 Y122.8319 E0.56321 F1800 ; Fill
G0 X153.2154 Y122.8319 F7200 ; Move
G1 X145.4938 Y130.5535 E0.56321 F1800 ; Fill
G0 X146.2099 Y130.5535 F7200 ; Move
G1 X153.9314 Y122.8319 E0.56321 F1800 ; Fill
G0 X154.6475 Y122.8319 F7200 ; Move
G1 X146.9259 Y130.5535 E0.56321 F1800 ; Fill
G0 X147.642 Y130.5535 F7200 ; Move
G1 X155.3636 Y122.8319 E0.56321 F1800 ; Fill
G0 X156.0797 Y122.8319 F7200 ; Move
G1 X148.3581 Y130.5535 E0.56321 F1800 ; Fill
G0 X149.0742 Y130.5535 F7200 ; Move
G1 X156.7958 Y122.8319 E0.56321 F1800 ; Fill
G0 X157.5119 Y122.8319 F7200 ; Move
G1 X149.7903 Y130.5535 E0.56321 F1800 ; Fill
G0 X150.5064 Y130.5535 F7200 ; Move
G1 X158.228 Y122.8319 E0.56321 F1800 ; Fill
G0 X158.944 Y122.8319 F7200 ; Move
G1 X151.2225 Y130.5535 E0.56321 F1800 ; Fill
G0 X151.9385 Y130.5535 F7200 ; Move
G1 X159.6601 Y122.8319 E0.56321 F1800 ; Fill
G0 X160.3762 Y122.8319 F7200 ; Move
G1 X152.6546 Y130.5535 E0.56321 F1800 ; Fill
G0 X153.3707 Y130.5535 F7200 ; Move
G1 X161.0923 Y122.8319 E0.56321 F1800 ; Fill
G0 X161.8084 Y122.8319 F7200 ; Move
G1 X154.0868 Y130.5535 E0.56321 F1800 ; Fill
G0 X154.8029 Y130.5535 F7200 ; Move
G1 X162.5245 Y122.8319 E0.56321 F1800 ; Fill
G0 X163.2406 Y122.8319 F7200 ; Move
G1 X155.519 Y130.5535 E0.56321 F1800 ; Fill
G0 X156.2351 Y130.5535 F7200 ; Move
G1 X163.9566 Y122.8319 E0.56321 F1800 ; Fill
G0 X164.6727 Y122.8319 F7200 ; Move
G1 X156.9511 Y130.5535 E0.56321 F1800 ; Fill
G0 X157.6672 Y130.5535 F7200 ; Move
G1 X165.3888 Y122.8319 E0.56321 F1800 ; Fill
G0 X166.1049 Y122.8319 F7200 ; Move
G1 X158.3833 Y130.5535 E0.56321 F1800 ; Fill
G0 X159.0994 Y130.5535 F7200 ; Move
G1 X166.821 Y122.8319 E0.56321 F1800 ; Fill
G0 X167.5371 Y122.8319 F7200 ; Move
G1 X159.8155 Y130.5535 E0.56321 F1800 ; Fill
G0 X160.5316 Y130.5535 F7200 ; Move
G1 X168.2532 Y122.8319 E0.56321 F1800 ; Fill
G0 X168.9693 Y122.8319 F7200 ; Move
G1 X161.2477 Y130.5535 E0.56321 F1800 ; Fill
G0 X161.9638 Y130.5535 F7200 ; Move
G1 X169.6853 Y122.8319 E0.56321 F1800 ; Fill
G0 X170.0038 Y123.2296 F7200 ; Move
G1 X162.6798 Y130.5535 E0.53421 F1800 ; Fill
G0 X163.3959 Y130.5535 F7200 ; Move
G1 X170.0038 Y123.9457 E0.48198 F1800 ; Fill
G0 X170.0038 Y124.6617 F7200 ; Move
G1 X164.112 Y130.5535 E0.42975 F1800 ; Fill
G0 X164.8281 Y130.5535 F7200 ; Move
G1 X170.0038 Y125.3778 E0.37751 F1800 ; Fill
G0 X170.0038 Y126.0939 F7200 ; Move
G1 X165.5442 Y130.5535 E0.32528 F1800 ; Fill
G0 X166.2603 Y130.5535 F7200 ; Move
G1 X170.0038 Y126.81 E0.27305 F1800 ; Fill
G0 X170.0038 Y127.5261 F7200 ; Move
G1 X166.9764 Y130.5535 E0.22082 F1800 ; Fill
G0 X167.6924 Y130.5535 F7200 ; Move
G1 X170.0038 Y128.2422 E0.16859 F1800 ; Fill
G0 X170.0038 Y128.9583 F7200 ; Move
G1 X168.4085 Y130.5535 E0.11636 F1800 ; Fill
G0 X169.1246 Y130.5535 F7200 ; Move
G1 X170.0038 Y129.6744 E0.06413 F1800 ; Fill
G0 X170.0038 Y130.3904 F7200 ; Move
G1 X169.8407 Y130.5535 E0.0119 F1800 ; Fill
G0 Z0.25 F7200 ; Move to layer height
G1 E-0.5 F2100 ; Retract
G1 Z0.35 F7200 ; Z hop
G0 X112.2384 Y79.8992 F7200 ; Move to pattern start

G1 Z0.25 F7200 ; Z hop return
G1 E0.5 F2100 ; Un-retract
SET_PRESSURE_ADVANCE ADVANCE=0 ; Set pressure advance
M117 PA 0
G1 X131.5592 Y99.22 E1.10311 F1800 ; Print pattern wall
G1 X112.2384 Y118.5408 E1.10311 F1800 ; Print pattern wall
G1 E-0.5 F2100 ; Retract
G1 Z0.35 F7200 ; Z hop
G0 X112.8141 Y79.8992 F7200 ; Move to start next pattern wall
G1 Z0.25 F7200 ; Z hop return
G1 E0.5 F2100 ; Un-retract
G1 X132.1349 Y99.22 E1.10311 F1800 ; Print pattern wall
G1 X112.8141 Y118.5408 E1.10311 F1800 ; Print pattern wall
G1 E-0.5 F2100 ; Retract
G1 Z0.35 F7200 ; Z hop
G0 X113.3898 Y79.8992 F7200 ; Move to start next pattern wall
G1 Z0.25 F7200 ; Z hop return
G1 E0.5 F2100 ; Un-retract
G1 X132.7106 Y99.22 E1.10311 F1800 ; Print pattern wall
G1 X113.3898 Y118.5408 E1.10311 F1800 ; Print pattern wall
G1 E-0.5 F2100 ; Retract
G1 Z0.35 F7200 ; Z hop
G0 X115.8398 Y79.8992 F7200 ; Move to next pattern
G1 Z0.25 F7200 ; Z hop return
G1 E0.5 F2100 ; Un-retract
SET_PRESSURE_ADVANCE ADVANCE=0.005 ; Set pressure advance
M117 PA 0.005
G1 X135.1606 Y99.22 E1.10311 F1800 ; Print pattern wall
G1 X115.8398 Y118.5408 E1.10311 F1800 ; Print pattern wall
G1 E-0.5 F2100 ; Retract
G1 Z0.35 F7200 ; Z hop
G0 X116.4155 Y79.8992 F7200 ; Move to start next pattern wall
G1 Z0.25 F7200 ; Z hop return
G1 E0.5 F2100 ; Un-retract
G1 X135.7363 Y99.22 E1.10311 F1800 ; Print pattern wall
G1 X116.4155 Y118.5408 E1.10311 F1800 ; Print pattern wall
G1 E-0.5 F2100 ; Retract
G1 Z0.35 F7200 ; Z hop
G0 X116.9912 Y79.8992 F7200 ; Move to start next pattern wall
G1 Z0.25 F7200 ; Z hop return
G1 E0.5 F2100 ; Un-retract
G1 X136.312 Y99.22 E1.10311 F1800 ; Print pattern wall
G1 X116.9912 Y118.5408 E1.10311 F1800 ; Print pattern wall
G1 E-0.5 F2100 ; Retract
G1 Z0.35 F7200 ; Z hop
G0 X119.4412 Y79.8992 F7200 ; Move to next pattern
G1 Z0.25 F7200 ; Z hop return
G1 E0.5 F2100 ; Un-retract
SET_PRESSURE_ADVANCE ADVANCE=0.01 ; Set pressure advance
M117 PA 0.01
G1 X138.762 Y99.22 E1.10311 F1800 ; Print pattern wall
G1 X119.4412 Y118.5408 E1.10311 F1800 ; Print pattern wall
G1 E-0.5 F2100 ; Retract
G1 Z0.35 F7200 ; Z hop
G0 X120.0169 Y79.8992 F7200 ; Move to start next pattern wall
G1 Z0.25 F7200 ; Z hop return
G1 E0.5 F2100 ; Un-retract
G1 X139.3377 Y99.22 E1.10311 F1800 ; Print pattern wall
G1 X120.0169 Y118.5408 E1.10311 F1800 ; Print pattern wall
G1 E-0.5 F2100 ; Retract
G1 Z0.35 F7200 ; Z hop
G0 X120.5926 Y79.8992 F7200 ; Move to start next pattern wall
G1 Z0.25 F7200 ; Z hop return
G1 E0.5 F2100 ; Un-retract
G1 X139.9134 Y99.22 E1.10311 F1800 ; Print pattern wall
G1 X120.5926 Y118.5408 E1.10311 F1800 ; Print pattern wall
G1 E-0.5 F2100 ; Retract
G1 Z0.35 F7200 ; Z hop
G0 X123.0426 Y79.8992 F7200 ; Move to next pattern
G1 Z0.25 F7200 ; Z hop return
G1 E0.5 F2100 ; Un-retract
SET_PRESSURE_ADVANCE ADVANCE=0.015 ; Set pressure advance
M117 PA 0.015
G1 X142.3634 Y99.22 E1.10311 F1800 ; Print pattern wall
G1 X123.0426 Y118.5408 E1.10311 F1800 ; Print pattern wall
G1 E-0.5 F2100 ; Retract
G1 Z0.35 F7200 ; Z hop
G0 X123.6183 Y79.8992 F7200 ; Move to start next pattern wall
G1 Z0.25 F7200 ; Z hop return
G1 E0.5 F2100 ; Un-retract
G1 X142.9391 Y99.22 E1.10311 F1800 ; Print pattern wall
G1 X123.6183 Y118.5408 E1.10311 F1800 ; Print pattern wall
G1 E-0.5 F2100 ; Retract
G1 Z0.35 F7200 ; Z hop
G0 X124.194 Y79.8992 F7200 ; Move to start next pattern wall
G1 Z0.25 F7200 ; Z hop return
G1 E0.5 F2100 ; Un-retract
G1 X143.5148 Y99.22 E1.10311 F1800 ; Print pattern wall
G1 X124.194 Y118.5408 E1.10311 F1800 ; Print pattern wall
G1 E-0.5 F2100 ; Retract
G1 Z0.35 F7200 ; Z hop
G0 X126.644 Y79.8992 F7200 ; Move to next pattern
G1 Z0.25 F7200 ; Z hop return
G1 E0.5 F2100 ; Un-retract
SET_PRESSURE_ADVANCE ADVANCE=0.02 ; Set pressure advance
M117 PA 0.02
G1 X145.9648 Y99.22 E1.10311 F1800 ; Print pattern wall
G1 X126.644 Y118.5408 E1.10311 F1800 ; Print pattern wall
G1 E-0.5 F2100 ; Retract
G1 Z0.35 F7200 ; Z hop
G0 X127.2197 Y79.8992 F7200 ; Move to start next pattern wall
G1 Z0.25 F7200 ; Z hop return
G1 E0.5 F2100 ; Un-retract
G1 X146.5405 Y99.22 E1.10311 F1800 ; Print pattern wall
G1 X127.2197 Y118.5408 E1.10311 F1800 ; Print pattern wall
G1 E-0.5 F2100 ; Retract
G1 Z0.35 F7200 ; Z hop
G0 X127.7954 Y79.8992 F7200 ; Move to start next pattern wall
G1 Z0.25 F7200 ; Z hop return
G1 E0.5 F2100 ; Un-retract
G1 X147.1162 Y99.22 E1.10311 F1800 ; Print pattern wall
G1 X127.7954 Y118.5408 E1.10311 F1800 ; Print pattern wall
G1 E-0.5 F2100 ; Retract
G1 Z0.35 F7200 ; Z hop
G0 X130.2454 Y79.8992 F7200 ; Move to next pattern
G1 Z0.25 F7200 ; Z hop return
G1 E0.5 F2100 ; Un-retract
SET_PRESSURE_ADVANCE ADVANCE=0.025 ; Set pressure advance
M117 PA 0.025
G1 X149.5662 Y99.22 E1.10311 F1800 ; Print pattern wall
G1 X130.2454 Y118.5408 E1.10311 F1800 ; Print pattern wall
G1 E-0.5 F2100 ; Retract
G1 Z0.35 F7200 ; Z hop
G0 X130.8211 Y79.8992 F7200 ; Move to start next pattern wall
G1 Z0.25 F7200 ; Z hop return
G1 E0.5 F2100 ; Un-retract
G1 X150.1419 Y99.22 E1.10311 F1800 ; Print pattern wall
G1 X130.8211 Y118.5408 E1.10311 F1800 ; Print pattern wall
G1 E-0.5 F2100 ; Retract
G1 Z0.35 F7200 ; Z hop
G0 X131.3968 Y79.8992 F7200 ; Move to start next pattern wall
G1 Z0.25 F7200 ; Z hop return
G1 E0.5 F2100 ; Un-retract
G1 X150.7176 Y99.22 E1.10311 F1800 ; Print pattern wall
G1 X131.3968 Y118.5408 E1.10311 F1800 ; Print pattern wall
G1 E-0.5 F2100 ; Retract
G1 Z0.35 F7200 ; Z hop
G0 X133.8468 Y79.8992 F7200 ; Move to next pattern
G1 Z0.25 F7200 ; Z hop return
G1 E0.5 F2100 ; Un-retract
SET_PRESSURE_ADVANCE ADVANCE=0.03 ; Set pressure advance
M117 PA 0.03
G1 X153.1676 Y99.22 E1.10311 F1800 ; Print pattern wall
G1 X133.8468 Y118.5408 E1.10311 F1800 ; Print pattern wall
G1 E-0.5 F2100 ; Retract
G1 Z0.35 F7200 ; Z hop
G0 X134.4225 Y79.8992 F7200 ; Move to start next pattern wall
G1 Z0.25 F7200 ; Z hop return
G1 E0.5 F2100 ; Un-retract
G1 X153.7433 Y99.22 E1.10311 F1800 ; Print pattern wall
G1 X134.4225 Y118.5408 E1.10311 F1800 ; Print pattern wall
G1 E-0.5 F2100 ; Retract
G1 Z0.35 F7200 ; Z hop
G0 X134.9981 Y79.8992 F7200 ; Move to start next pattern wall
G1 Z0.25 F7200 ; Z hop return
G1 E0.5 F2100 ; Un-retract
G1 X154.319 Y99.22 E1.10311 F1800 ; Print pattern wall
G1 X134.9981 Y118.5408 E1.10311 F1800 ; Print pattern wall
G1 E-0.5 F2100 ; Retract
G1 Z0.35 F7200 ; Z hop
G0 X137.4481 Y79.8992 F7200 ; Move to next pattern
G1 Z0.25 F7200 ; Z hop return
G1 E0.5 F2100 ; Un-retract
SET_PRESSURE_ADVANCE ADVANCE=0.035 ; Set pressure advance
M117 PA 0.035
G1 X156.769 Y99.22 E1.10311 F1800 ; Print pattern wall
G1 X137.4481 Y118.5408 E1.10311 F1800 ; Print pattern wall
G1 E-0.5 F2100 ; Retract
G1 Z0.35 F7200 ; Z hop
G0 X138.0238 Y79.8992 F7200 ; Move to start next pattern wall
G1 Z0.25 F7200 ; Z hop return
G1 E0.5 F2100 ; Un-retract
G1 X157.3447 Y99.22 E1.10311 F1800 ; Print pattern wall
G1 X138.0238 Y118.5408 E1.10311 F1800 ; Print pattern wall
G1 E-0.5 F2100 ; Retract
G1 Z0.35 F7200 ; Z hop
G0 X138.5995 Y79.8992 F7200 ; Move to start next pattern wall
G1 Z0.25 F7200 ; Z hop return
G1 E0.5 F2100 ; Un-retract
G1 X157.9204 Y99.22 E1.10311 F1800 ; Print pattern wall
G1 X138.5995 Y118.5408 E1.10311 F1800 ; Print pattern wall
G1 E-0.5 F2100 ; Retract
G1 Z0.35 F7200 ; Z hop
G0 X141.0495 Y79.8992 F7200 ; Move to next pattern
G1 Z0.25 F7200 ; Z hop return
G1 E0.5 F2100 ; Un-retract
SET_PRESSURE_ADVANCE ADVANCE=0.04 ; Set pressure advance
M117 PA 0.04
G1 X160.3704 Y99.22 E1.10311 F1800 ; Print pattern wall
G1 X141.0495 Y118.5408 E1.10311 F1800 ; Print pattern wall
G1 E-0.5 F2100 ; Retract
G1 Z0.35 F7200 ; Z hop
G0 X141.6252 Y79.8992 F7200 ; Move to start next pattern wall
G1 Z0.25 F7200 ; Z hop return
G1 E0.5 F2100 ; Un-retract
G1 X160.9461 Y99.22 E1.10311 F1800 ; Print pattern wall
G1 X141.6252 Y118.5408 E1.10311 F1800 ; Print pattern wall
G1 E-0.5 F2100 ; Retract
G1 Z0.35 F7200 ; Z hop
G0 X142.2009 Y79.8992 F7200 ; Move to start next pattern wall
G1 Z0.25 F7200 ; Z hop return
G1 E0.5 F2100 ; Un-retract
G1 X161.5218 Y99.22 E1.10311 F1800 ; Print pattern wall
G1 X142.2009 Y118.5408 E1.10311 F1800 ; Print pattern wall
G1 E-0.5 F2100 ; Retract
G1 Z0.35 F7200 ; Z hop
G0 X144.6509 Y79.8992 F7200 ; Move to next pattern
G1 Z0.25 F7200 ; Z hop return
G1 E0.5 F2100 ; Un-retract
SET_PRESSURE_ADVANCE ADVANCE=0.045 ; Set pressure advance
M117 PA 0.045
G1 X163.9718 Y99.22 E1.10311 F1800 ; Print pattern wall
G1 X144.6509 Y118.5408 E1.10311 F1800 ; Print pattern wall
G1 E-0.5 F2100 ; Retract
G1 Z0.35 F7200 ; Z hop
G0 X145.2266 Y79.8992 F7200 ; Move to start next pattern wall
G1 Z0.25 F7200 ; Z hop return
G1 E0.5 F2100 ; Un-retract
G1 X164.5475 Y99.22 E1.10311 F1800 ; Print pattern wall
G1 X145.2266 Y118.5408 E1.10311 F1800 ; Print pattern wall
G1 E-0.5 F2100 ; Retract
G1 Z0.35 F7200 ; Z hop
G0 X145.8023 Y79.8992 F7200 ; Move to start next pattern wall
G1 Z0.25 F7200 ; Z hop return
G1 E0.5 F2100 ; Un-retract
G1 X165.1232 Y99.22 E1.10311 F1800 ; Print pattern wall
G1 X145.8023 Y118.5408 E1.10311 F1800 ; Print pattern wall
G1 E-0.5 F2100 ; Retract
G1 Z0.35 F7200 ; Z hop
G0 X148.2523 Y79.8992 F7200 ; Move to next pattern
G1 Z0.25 F7200 ; Z hop return
G1 E0.5 F2100 ; Un-retract
SET_PRESSURE_ADVANCE ADVANCE=0.05 ; Set pressure advance
M117 PA 0.05
G1 X167.5732 Y99.22 E1.10311 F1800 ; Print pattern wall
G1 X148.2523 Y118.5408 E1.10311 F1800 ; Print pattern wall
G1 E-0.5 F2100 ; Retract
G1 Z0.35 F7200 ; Z hop
G0 X148.828 Y79.8992 F7200 ; Move to start next pattern wall
G1 Z0.25 F7200 ; Z hop return
G1 E0.5 F2100 ; Un-retract
G1 X168.1489 Y99.22 E1.10311 F1800 ; Print pattern wall
G1 X148.828 Y118.5408 E1.10311 F1800 ; Print pattern wall
G1 E-0.5 F2100 ; Retract
G1 Z0.35 F7200 ; Z hop
G0 X149.4037 Y79.8992 F7200 ; Move to start next pattern wall
G1 Z0.25 F7200 ; Z hop return
G1 E0.5 F2100 ; Un-retract
G1 X168.7246 Y99.22 E1.10311 F1800 ; Print pattern wall
G1 X149.4037 Y118.5408 E1.10311 F1800 ; Print pattern wall
G1 E-0.5 F2100 ; Retract
G1 Z0.35 F7200 ; Z hop
G0 X151.8537 Y79.8992 F7200 ; Move to next pattern
G1 Z0.25 F7200 ; Z hop return
G1 E0.5 F2100 ; Un-retract
SET_PRESSURE_ADVANCE ADVANCE=0.055 ; Set pressure advance
M117 PA 0.055
G1 X171.1746 Y99.22 E1.10311 F1800 ; Print pattern wall
G1 X151.8537 Y118.5408 E1.10311 F1800 ; Print pattern wall
G1 E-0.5 F2100 ; Retract
G1 Z0.35 F7200 ; Z hop
G0 X152.4294 Y79.8992 F7200 ; Move to start next pattern wall
G1 Z0.25 F7200 ; Z hop return
G1 E0.5 F2100 ; Un-retract
G1 X171.7502 Y99.22 E1.10311 F1800 ; Print pattern wall
G1 X152.4294 Y118.5408 E1.10311 F1800 ; Print pattern wall
G1 E-0.5 F2100 ; Retract
G1 Z0.35 F7200 ; Z hop
G0 X153.0051 Y79.8992 F7200 ; Move to start next pattern wall
G1 Z0.25 F7200 ; Z hop return
G1 E0.5 F2100 ; Un-retract
G1 X172.3259 Y99.22 E1.10311 F1800 ; Print pattern wall
G1 X153.0051 Y118.5408 E1.10311 F1800 ; Print pattern wall
G1 E-0.5 F2100 ; Retract
G1 Z0.35 F7200 ; Z hop
G0 X155.4551 Y79.8992 F7200 ; Move to next pattern
G1 Z0.25 F7200 ; Z hop return
G1 E0.5 F2100 ; Un-retract
SET_PRESSURE_ADVANCE ADVANCE=0.06 ; Set pressure advance
M117 PA 0.06
G1 X174.7759 Y99.22 E1.10311 F1800 ; Print pattern wall
G1 X155.4551 Y118.5408 E1.10311 F1800 ; Print pattern wall
G1 E-0.5 F2100 ; Retract
G1 Z0.35 F7200 ; Z hop
G0 X156.0308 Y79.8992 F7200 ; Move to start next pattern wall
G1 Z0.25 F7200 ; Z hop return
G1 E0.5 F2100 ; Un-retract
G1 X175.3516 Y99.22 E1.10311 F1800 ; Print pattern wall
G1 X156.0308 Y118.5408 E1.10311 F1800 ; Print pattern wall
G1 E-0.5 F2100 ; Retract
G1 Z0.35 F7200 ; Z hop
G0 X156.6065 Y79.8992 F7200 ; Move to start next pattern wall
G1 Z0.25 F7200 ; Z hop return
G1 E0.5 F2100 ; Un-retract
G1 X175.9273 Y99.22 E1.10311 F1800 ; Print pattern wall
G1 X156.6065 Y118.5408 E1.10311 F1800 ; Print pattern wall
G1 E-0.5 F2100 ; Retract
G1 Z0.35 F7200 ; Z hop
G0 X159.0565 Y79.8992 F7200 ; Move to next pattern
G1 Z0.25 F7200 ; Z hop return
G1 E0.5 F2100 ; Un-retract
SET_PRESSURE_ADVANCE ADVANCE=0.065 ; Set pressure advance
M117 PA 0.065
G1 X178.3773 Y99.22 E1.10311 F1800 ; Print pattern wall
G1 X159.0565 Y118.5408 E1.10311 F1800 ; Print pattern wall
G1 E-0.5 F2100 ; Retract
G1 Z0.35 F7200 ; Z hop
G0 X159.6322 Y79.8992 F7200 ; Move to start next pattern wall
G1 Z0.25 F7200 ; Z hop return
G1 E0.5 F2100 ; Un-retract
G1 X178.953 Y99.22 E1.10311 F1800 ; Print pattern wall
G1 X159.6322 Y118.5408 E1.10311 F1800 ; Print pattern wall
G1 E-0.5 F2100 ; Retract
G1 Z0.35 F7200 ; Z hop
G0 X160.2079 Y79.8992 F7200 ; Move to start next pattern wall
G1 Z0.25 F7200 ; Z hop return
G1 E0.5 F2100 ; Un-retract
G1 X179.5287 Y99.22 E1.10311 F1800 ; Print pattern wall
G1 X160.2079 Y118.5408 E1.10311 F1800 ; Print pattern wall
G1 E-0.5 F2100 ; Retract
G1 Z0.35 F7200 ; Z hop
G0 X162.6579 Y79.8992 F7200 ; Move to next pattern
G1 Z0.25 F7200 ; Z hop return
G1 E0.5 F2100 ; Un-retract
SET_PRESSURE_ADVANCE ADVANCE=0.07 ; Set pressure advance
M117 PA 0.07
G1 X181.9787 Y99.22 E1.10311 F1800 ; Print pattern wall
G1 X162.6579 Y118.5408 E1.10311 F1800 ; Print pattern wall
G1 E-0.5 F2100 ; Retract
G1 Z0.35 F7200 ; Z hop
G0 X163.2336 Y79.8992 F7200 ; Move to start next pattern wall
G1 Z0.25 F7200 ; Z hop return
G1 E0.5 F2100 ; Un-retract
G1 X182.5544 Y99.22 E1.10311 F1800 ; Print pattern wall
G1 X163.2336 Y118.5408 E1.10311 F1800 ; Print pattern wall
G1 E-0.5 F2100 ; Retract
G1 Z0.35 F7200 ; Z hop
G0 X163.8093 Y79.8992 F7200 ; Move to start next pattern wall
G1 Z0.25 F7200 ; Z hop return
G1 E0.5 F2100 ; Un-retract
G1 X183.1301 Y99.22 E1.10311 F1800 ; Print pattern wall
G1 X163.8093 Y118.5408 E1.10311 F1800 ; Print pattern wall
G1 E-0.5 F2100 ; Retract
G1 Z0.35 F7200 ; Z hop
G0 X166.2593 Y79.8992 F7200 ; Move to next pattern
G1 Z0.25 F7200 ; Z hop return
G1 E0.5 F2100 ; Un-retract
SET_PRESSURE_ADVANCE ADVANCE=0.075 ; Set pressure advance
M117 PA 0.075
G1 X185.5801 Y99.22 E1.10311 F1800 ; Print pattern wall
G1 X166.2593 Y118.5408 E1.10311 F1800 ; Print pattern wall
G1 E-0.5 F2100 ; Retract
G1 Z0.35 F7200 ; Z hop
G0 X166.835 Y79.8992 F7200 ; Move to start next pattern wall
G1 Z0.25 F7200 ; Z hop return
G1 E0.5 F2100 ; Un-retract
G1 X186.1558 Y99.22 E1.10311 F1800 ; Print pattern wall
G1 X166.835 Y118.5408 E1.10311 F1800 ; Print pattern wall
G1 E-0.5 F2100 ; Retract
G1 Z0.35 F7200 ; Z hop
G0 X167.4107 Y79.8992 F7200 ; Move to start next pattern wall
G1 Z0.25 F7200 ; Z hop return
G1 E0.5 F2100 ; Un-retract
G1 X186.7315 Y99.22 E1.10311 F1800 ; Print pattern wall
G1 X167.4107 Y118.5408 E1.10311 F1800 ; Print pattern wall
G1 E-0.5 F2100 ; Retract
G1 Z0.35 F7200 ; Z hop
G0 X169.8607 Y79.8992 F7200 ; Move to next pattern
G1 Z0.25 F7200 ; Z hop return
G1 E0.5 F2100 ; Un-retract
SET_PRESSURE_ADVANCE ADVANCE=0.08 ; Set pressure advance
M117 PA 0.08
G1 X189.1815 Y99.22 E1.10311 F1800 ; Print pattern wall
G1 X169.8607 Y118.5408 E1.10311 F1800 ; Print pattern wall
G1 E-0.5 F2100 ; Retract
G1 Z0.35 F7200 ; Z hop
G0 X170.4364 Y79.8992 F7200 ; Move to start next pattern wall
G1 Z0.25 F7200 ; Z hop return
G1 E0.5 F2100 ; Un-retract
G1 X189.7572 Y99.22 E1.10311 F1800 ; Print pattern wall
G1 X170.4364 Y118.5408 E1.10311 F1800 ; Print pattern wall
G1 E-0.5 F2100 ; Retract
G1 Z0.35 F7200 ; Z hop
G0 X171.0121 Y79.8992 F7200 ; Move to start next pattern wall
G1 Z0.25 F7200 ; Z hop return
G1 E0.5 F2100 ; Un-retract
G1 X190.3329 Y99.22 E1.10311 F1800 ; Print pattern wall
G1 X171.0121 Y118.5408 E1.10311 F1800 ; Print pattern wall
G1 E-0.5 F2100 ; Retract
G1 Z0.35 F7200 ; Z hop
G0 X112.2384 Y79.8992 F7200 ; Move back to start position
G1 Z0.25 F7200 ; Z hop return
G1 E0.5 F2100 ; Un-retract
M106 S255 ; Set fan speed
G0 Z0.45 F7200 ; Move to layer height
SET_PRESSURE_ADVANCE ADVANCE=0 ; Set pressure advance to start value for numbering
M117 PA 0
G1 E-0.5 F2100 ; Retract
G1 Z0.55 F7200 ; Z hop
G0 X108.9217 Y121.8832 F7200 ; Move
G1 Z0.45 F7200 ; Z hop return
G1 E0.5 F2100 ; Un-retract
G1 X110.9217 Y121.8832 E0.06634 F1800 ; Glyph: 0
G1 X112.9217 Y121.8832 E0.06634 F1800 ; Glyph: 0
G1 X112.9217 Y123.8832 E0.06634 F1800 ; Glyph: 0
G1 X110.9217 Y123.8832 E0.06634 F1800 ; Glyph: 0
G1 X108.9217 Y123.8832 E0.06634 F1800 ; Glyph: 0
G1 X108.9217 Y121.8832 E0.06634 F1800 ; Glyph: 0
G1 E-0.5 F2100 ; Retract
G1 Z0.55 F7200 ; Z hop
G0 X116.1245 Y121.8832 F7200 ; Move
G1 Z0.45 F7200 ; Z hop return
G1 E0.5 F2100 ; Un-retract
G1 X118.1245 Y121.8832 E0.06634 F1800 ; Glyph: 0
G1 X120.1245 Y121.8832 E0.06634 F1800 ; Glyph: 0
G1 X120.1245 Y123.8832 E0.06634 F1800 ; Glyph: 0
G1 X118.1245 Y123.8832 E0.06634 F1800 ; Glyph: 0
G1 X116.1245 Y123.8832 E0.06634 F1800 ; Glyph: 0
G1 X116.1245 Y121.8832 E0.06634 F1800 ; Glyph: 0
G1 E-0.5 F2100 ; Retract
G1 Z0.55 F7200 ; Z hop
G0 X120.1245 Y124.8832 F7200 ; Move
G1 Z0.45 F7200 ; Z hop return
G1 E0.5 F2100 ; Un-retract
G1 X119.3745 Y124.8832 E0.02488 F1800 ; Glyph: .
G1 E-0.5 F2100 ; Retract
G1 Z0.55 F7200 ; Z hop
G0 X116.1245 Y125.8832 F7200 ; Move
G1 Z0.45 F7200 ; Z hop return
G1 E0.5 F2100 ; Un-retract
G1 X118.1245 Y125.8832 E0.06634 F1800 ; Glyph: 0
G1 X120.1245 Y125.8832 E0.06634 F1800 ; Glyph: 0
G1 X120.1245 Y127.8832 E0.06634 F1800 ; Glyph: 0
G1 X118.1245 Y127.8832 E0.06634 F1800 ; Glyph: 0
G1 X116.1245 Y127.8832 E0.06634 F1800 ; Glyph: 0
G1 X116.1245 Y125.8832 E0.06634 F1800 ; Glyph: 0
G1 E-0.5 F2100 ; Retract
G1 Z0.55 F7200 ; Z hop
G0 X116.1245 Y128.8832 F7200 ; Move
G1 Z0.45 F7200 ; Z hop return
G1 E0.5 F2100 ; Un-retract
G1 X118.1245 Y128.8832 E0.06634 F1800 ; Glyph: 1
G1 X120.1245 Y128.8832 E0.06634 F1800 ; Glyph: 1
G1 E-0.5 F2100 ; Retract
G1 Z0.55 F7200 ; Z hop
G0 X123.3273 Y121.8832 F7200 ; Move
G1 Z0.45 F7200 ; Z hop return
G1 E0.5 F2100 ; Un-retract
G1 X125.3273 Y121.8832 E0.06634 F1800 ; Glyph: 0
G1 X127.3273 Y121.8832 E0.06634 F1800 ; Glyph: 0
G1 X127.3273 Y123.8832 E0.06634 F1800 ; Glyph: 0
G1 X125.3273 Y123.8832 E0.06634 F1800 ; Glyph: 0
G1 X123.3273 Y123.8832 E0.06634 F1800 ; Glyph: 0
G1 X123.3273 Y121.8832 E0.06634 F1800 ; Glyph: 0
G1 E-0.5 F2100 ; Retract
G1 Z0.55 F7200 ; Z hop
G0 X127.3273 Y124.8832 F7200 ; Move
G1 Z0.45 F7200 ; Z hop return
G1 E0.5 F2100 ; Un-retract
G1 X126.5773 Y124.8832 E0.02488 F1800 ; Glyph: .
G1 E-0.5 F2100 ; Retract
G1 Z0.55 F7200 ; Z hop
G0 X123.3273 Y125.8832 F7200 ; Move
G1 Z0.45 F7200 ; Z hop return
G1 E0.5 F2100 ; Un-retract
G1 X125.3273 Y125.8832 E0.06634 F1800 ; Glyph: 0
G1 X127.3273 Y125.8832 E0.06634 F1800 ; Glyph: 0
G1 X127.3273 Y127.8832 E0.06634 F1800 ; Glyph: 0
G1 X125.3273 Y127.8832 E0.06634 F1800 ; Glyph: 0
G1 X123.3273 Y127.8832 E0.06634 F1800 ; Glyph: 0
G1 X123.3273 Y125.8832 E0.06634 F1800 ; Glyph: 0
G1 E-0.5 F2100 ; Retract
G1 Z0.55 F7200 ; Z hop
G0 X123.3273 Y128.8832 F7200 ; Move
G1 Z0.45 F7200 ; Z hop return
G1 E0.5 F2100 ; Un-retract
G1 X123.3273 Y130.8832 E0.06634 F1800 ; Glyph: 2
G1 X125.3273 Y130.8832 E0.06634 F1800 ; Glyph: 2
G1 X125.3273 Y128.8832 E0.06634 F1800 ; Glyph: 2
G1 X127.3273 Y128.8832 E0.06634 F1800 ; Glyph: 2
G1 X127.3273 Y130.8832 E0.06634 F1800 ; Glyph: 2
G1 E-0.5 F2100 ; Retract
G1 Z0.55 F7200 ; Z hop
G0 X130.5301 Y121.8832 F7200 ; Move
G1 Z0.45 F7200 ; Z hop return
G1 E0.5 F2100 ; Un-retract
G1 X132.5301 Y121.8832 E0.06634 F1800 ; Glyph: 0
G1 X134.5301 Y121.8832 E0.06634 F1800 ; Glyph: 0
G1 X134.5301 Y123.8832 E0.06634 F1800 ; Glyph: 0
G1 X132.5301 Y123.8832 E0.06634 F1800 ; Glyph: 0
G1 X130.5301 Y123.8832 E0.06634 F1800 ; Glyph: 0
G1 X130.5301 Y121.8832 E0.06634 F1800 ; Glyph: 0
G1 E-0.5 F2100 ; Retract
G1 Z0.55 F7200 ; Z hop
G0 X134.5301 Y124.8832 F7200 ; Move
G1 Z0.45 F7200 ; Z hop return
G1 E0.5 F2100 ; Un-retract
G1 X133.7801 Y124.8832 E0.02488 F1800 ; Glyph: .
G1 E-0.5 F2100 ; Retract
G1 Z0.55 F7200 ; Z hop
G0 X130.5301 Y125.8832 F7200 ; Move
G1 Z0.45 F7200 ; Z hop return
G1 E0.5 F2100 ; Un-retract
G1 X132.5301 Y125.8832 E0.06634 F1800 ; Glyph: 0
G1 X134.5301 Y125.8832 E0.06634 F1800 ; Glyph: 0
G1 X134.5301 Y127.8832 E0.06634 F1800 ; Glyph: 0
G1 X132.5301 Y127.8832 E0.06634 F1800 ; Glyph: 0
G1 X130.5301 Y127.8832 E0.06634 F1800 ; Glyph: 0
G1 X130.5301 Y125.8832 E0.06634 F1800 ; Glyph: 0
G1 E-0.5 F2100 ; Retract
G1 Z0.55 F7200 ; Z hop
G0 X130.5301 Y128.8832 F7200 ; Move
G1 Z0.45 F7200 ; Z hop return
G1 E0.5 F2100 ; Un-retract
G1 X130.5301 Y130.8832 E0.06634 F1800 ; Glyph: 3
G1 X132.5301 Y130.8832 E0.06634 F1800 ; Glyph: 3
G1 X132.5301 Y128.8832 E0.06634 F1800 ; Glyph: 3
G0 X132.5301 Y130.8832 F7200 ; Move
G1 X134.5301 Y130.8832 E0.06634 F1800 ; Glyph: 3
G1 X134.5301 Y128.8832 E0.06634 F1800 ; Glyph: 3
G1 E-0.5 F2100 ; Retract
G1 Z0.55 F7200 ; Z hop
G0 X137.7329 Y121.8832 F7200 ; Move
G1 Z0.45 F7200 ; Z hop return
G1 E0.5 F2100 ; Un-retract
G1 X139.7329 Y121.8832 E0.06634 F1800 ; Glyph: 0
G1 X141.7329 Y121.8832 E0.06634 F1800 ; Glyph: 0
G1 X141.7329 Y123.8832 E0.06634 F1800 ; Glyph: 0
G1 X139.7329 Y123.8832 E0.06634 F1800 ; Glyph: 0
G1 X137.7329 Y123.8832 E0.06634 F1800 ; Glyph: 0
G1 X137.7329 Y121.8832 E0.06634 F1800 ; Glyph: 0
G1 E-0.5 F2100 ; Retract
G1 Z0.55 F7200 ; Z hop
G0 X141.7329 Y124.8832 F7200 ; Move
G1 Z0.45 F7200 ; Z hop return
G1 E0.5 F2100 ; Un-retract
G1 X140.9829 Y124.8832 E0.02488 F1800 ; Glyph: .
G1 E-0.5 F2100 ; Retract
G1 Z0.55 F7200 ; Z hop
G0 X137.7329 Y125.8832 F7200 ; Move
G1 Z0.45 F7200 ; Z hop return
G1 E0.5 F2100 ; Un-retract
G1 X139.7329 Y125.8832 E0.06634 F1800 ; Glyph: 0
G1 X141.7329 Y125.8832 E0.06634 F1800 ; Glyph: 0
G1 X141.7329 Y127.8832 E0.06634 F1800 ; Glyph: 0
G1 X139.7329 Y127.8832 E0.06634 F1800 ; Glyph: 0
G1 X137.7329 Y127.8832 E0.06634 F1800 ; Glyph: 0
G1 X137.7329 Y125.8832 E0.06634 F1800 ; Glyph: 0
G1 E-0.5 F2100 ; Retract
G1 Z0.55 F7200 ; Z hop
G0 X137.7329 Y130.8832 F7200 ; Move
G1 Z0.45 F7200 ; Z hop return
G1 E0.5 F2100 ; Un-retract
G1 X139.7329 Y130.8832 E0.06634 F1800 ; Glyph: 4
G1 X141.7329 Y130.8832 E0.06634 F1800 ; Glyph: 4
G0 X139.7329 Y130.8832 F7200 ; Move
G1 X139.7329 Y128.8832 E0.06634 F1800 ; Glyph: 4
G1 X137.7329 Y128.8832 E0.06634 F1800 ; Glyph: 4
G1 E-0.5 F2100 ; Retract
G1 Z0.55 F7200 ; Z hop
G0 X144.9357 Y121.8832 F7200 ; Move
G1 Z0.45 F7200 ; Z hop return
G1 E0.5 F2100 ; Un-retract
G1 X146.9357 Y121.8832 E0.06634 F1800 ; Glyph: 0
G1 X148.9357 Y121.8832 E0.06634 F1800 ; Glyph: 0
G1 X148.9357 Y123.8832 E0.06634 F1800 ; Glyph: 0
G1 X146.9357 Y123.8832 E0.06634 F1800 ; Glyph: 0
G1 X144.9357 Y123.8832 E0.06634 F1800 ; Glyph: 0
G1 X144.9357 Y121.8832 E0.06634 F1800 ; Glyph: 0
G1 E-0.5 F2100 ; Retract
G1 Z0.55 F7200 ; Z hop
G0 X148.9357 Y124.8832 F7200 ; Move
G1 Z0.45 F7200 ; Z hop return
G1 E0.5 F2100 ; Un-retract
G1 X148.1857 Y124.8832 E0.02488 F1800 ; Glyph: .
G1 E-0.5 F2100 ; Retract
G1 Z0.55 F7200 ; Z hop
G0 X144.9357 Y125.8832 F7200 ; Move
G1 Z0.45 F7200 ; Z hop return
G1 E0.5 F2100 ; Un-retract
G1 X146.9357 Y125.8832 E0.06634 F1800 ; Glyph: 0
G1 X148.9357 Y125.8832 E0.06634 F1800 ; Glyph: 0
G1 X148.9357 Y127.8832 E0.06634 F1800 ; Glyph: 0
G1 X146.9357 Y127.8832 E0.06634 F1800 ; Glyph: 0
G1 X144.9357 Y127.8832 E0.06634 F1800 ; Glyph: 0
G1 X144.9357 Y125.8832 E0.06634 F1800 ; Glyph: 0
G1 E-0.5 F2100 ; Retract
G1 Z0.55 F7200 ; Z hop
G0 X144.9357 Y130.8832 F7200 ; Move
G1 Z0.45 F7200 ; Z hop return
G1 E0.5 F2100 ; Un-retract
G1 X144.9357 Y128.8832 E0.06634 F1800 ; Glyph: 5
G1 X146.9357 Y128.8832 E0.06634 F1800 ; Glyph: 5
G1 X146.9357 Y130.8832 E0.06634 F1800 ; Glyph: 5
G1 X148.9357 Y130.8832 E0.06634 F1800 ; Glyph: 5
G1 X148.9357 Y128.8832 E0.06634 F1800 ; Glyph: 5
G1 E-0.5 F2100 ; Retract
G1 Z0.55 F7200 ; Z hop
G0 X152.1384 Y121.8832 F7200 ; Move
G1 Z0.45 F7200 ; Z hop return
G1 E0.5 F2100 ; Un-retract
G1 X154.1384 Y121.8832 E0.06634 F1800 ; Glyph: 0
G1 X156.1384 Y121.8832 E0.06634 F1800 ; Glyph: 0
G1 X156.1384 Y123.8832 E0.06634 F1800 ; Glyph: 0
G1 X154.1384 Y123.8832 E0.06634 F1800 ; Glyph: 0
G1 X152.1384 Y123.8832 E0.06634 F1800 ; Glyph: 0
G1 X152.1384 Y121.8832 E0.06634 F1800 ; Glyph: 0
G1 E-0.5 F2100 ; Retract
G1 Z0.55 F7200 ; Z hop
G0 X156.1384 Y124.8832 F7200 ; Move
G1 Z0.45 F7200 ; Z hop return
G1 E0.5 F2100 ; Un-retract
G1 X155.3884 Y124.8832 E0.02488 F1800 ; Glyph: .
G1 E-0.5 F2100 ; Retract
G1 Z0.55 F7200 ; Z hop
G0 X152.1384 Y125.8832 F7200 ; Move
G1 Z0.45 F7200 ; Z hop return
G1 E0.5 F2100 ; Un-retract
G1 X154.1384 Y125.8832 E0.06634 F1800 ; Glyph: 0
G1 X156.1384 Y125.8832 E0.06634 F1800 ; Glyph: 0
G1 X156.1384 Y127.8832 E0.06634 F1800 ; Glyph: 0
G1 X154.1384 Y127.8832 E0.06634 F1800 ; Glyph: 0
G1 X152.1384 Y127.8832 E0.06634 F1800 ; Glyph: 0
G1 X152.1384 Y125.8832 E0.06634 F1800 ; Glyph: 0
G1 E-0.5 F2100 ; Retract
G1 Z0.55 F7200 ; Z hop
G0 X152.1384 Y130.8832 F7200 ; Move
G1 Z0.45 F7200 ; Z hop return
G1 E0.5 F2100 ; Un-retract
G1 X152.1384 Y128.8832 E0.06634 F1800 ; Glyph: 6
G1 X154.1384 Y128.8832 E0.06634 F1800 ; Glyph: 6
G1 X156.1384 Y128.8832 E0.06634 F1800 ; Glyph: 6
G1 X156.1384 Y130.8832 E0.06634 F1800 ; Glyph: 6
G1 X154.1384 Y130.8832 E0.06634 F1800 ; Glyph: 6
G1 X154.1384 Y128.8832 E0.06634 F1800 ; Glyph: 6
G1 E-0.5 F2100 ; Retract
G1 Z0.55 F7200 ; Z hop
G0 X159.3412 Y121.8832 F7200 ; Move
G1 Z0.45 F7200 ; Z hop return
G1 E0.5 F2100 ; Un-retract
G1 X161.3412 Y121.8832 E0.06634 F1800 ; Glyph: 0
G1 X163.3412 Y121.8832 E0.06634 F1800 ; Glyph: 0
G1 X163.3412 Y123.8832 E0.06634 F1800 ; Glyph: 0
G1 X161.3412 Y123.8832 E0.06634 F1800 ; Glyph: 0
G1 X159.3412 Y123.8832 E0.06634 F1800 ; Glyph: 0
G1 X159.3412 Y121.8832 E0.06634 F1800 ; Glyph: 0
G1 E-0.5 F2100 ; Retract
G1 Z0.55 F7200 ; Z hop
G0 X163.3412 Y124.8832 F7200 ; Move
G1 Z0.45 F7200 ; Z hop return
G1 E0.5 F2100 ; Un-retract
G1 X162.5912 Y124.8832 E0.02488 F1800 ; Glyph: .
G1 E-0.5 F2100 ; Retract
G1 Z0.55 F7200 ; Z hop
G0 X159.3412 Y125.8832 F7200 ; Move
G1 Z0.45 F7200 ; Z hop return
G1 E0.5 F2100 ; Un-retract
G1 X161.3412 Y125.8832 E0.06634 F1800 ; Glyph: 0
G1 X163.3412 Y125.8832 E0.06634 F1800 ; Glyph: 0
G1 X163.3412 Y127.8832 E0.06634 F1800 ; Glyph: 0
G1 X161.3412 Y127.8832 E0.06634 F1800 ; Glyph: 0
G1 X159.3412 Y127.8832 E0.06634 F1800 ; Glyph: 0
G1 X159.3412 Y125.8832 E0.06634 F1800 ; Glyph: 0
G1 E-0.5 F2100 ; Retract
G1 Z0.55 F7200 ; Z hop
G0 X159.3412 Y128.8832 F7200 ; Move
G1 Z0.45 F7200 ; Z hop return
G1 E0.5 F2100 ; Un-retract
G1 X159.3412 Y130.8832 E0.06634 F1800 ; Glyph: 7
G1 X161.3412 Y130.8832 E0.06634 F1800 ; Glyph: 7
G1 X163.3412 Y130.8832 E0.06634 F1800 ; Glyph: 7
G1 E-0.5 F2100 ; Retract
G1 Z0.55 F7200 ; Z hop
G0 X166.544 Y121.8832 F7200 ; Move
G1 Z0.45 F7200 ; Z hop return
G1 E0.5 F2100 ; Un-retract
G1 X168.544 Y121.8832 E0.06634 F1800 ; Glyph: 0
G1 X170.544 Y121.8832 E0.06634 F1800 ; Glyph: 0
G1 X170.544 Y123.8832 E0.06634 F1800 ; Glyph: 0
G1 X168.544 Y123.8832 E0.06634 F1800 ; Glyph: 0
G1 X166.544 Y123.8832 E0.06634 F1800 ; Glyph: 0
G1 X166.544 Y121.8832 E0.06634 F1800 ; Glyph: 0
G1 E-0.5 F2100 ; Retract
G1 Z0.55 F7200 ; Z hop
G0 X170.544 Y124.8832 F7200 ; Move
G1 Z0.45 F7200 ; Z hop return
G1 E0.5 F2100 ; Un-retract
G1 X169.794 Y124.8832 E0.02488 F1800 ; Glyph: .
G1 E-0.5 F2100 ; Retract
G1 Z0.55 F7200 ; Z hop
G0 X166.544 Y125.8832 F7200 ; Move
G1 Z0.45 F7200 ; Z hop return
G1 E0.5 F2100 ; Un-retract
G1 X168.544 Y125.8832 E0.06634 F1800 ; Glyph: 0
G1 X170.544 Y125.8832 E0.06634 F1800 ; Glyph: 0
G1 X170.544 Y127.8832 E0.06634 F1800 ; Glyph: 0
G1 X168.544 Y127.8832 E0.06634 F1800 ; Glyph: 0
G1 X166.544 Y127.8832 E0.06634 F1800 ; Glyph: 0
G1 X166.544 Y125.8832 E0.06634 F1800 ; Glyph: 0
G1 E-0.5 F2100 ; Retract
G1 Z0.55 F7200 ; Z hop
G0 X166.544 Y128.8832 F7200 ; Move
G1 Z0.45 F7200 ; Z hop return
G1 E0.5 F2100 ; Un-retract
G1 X168.544 Y128.8832 E0.06634 F1800 ; Glyph: 8
G1 X170.544 Y128.8832 E0.06634 F1800 ; Glyph: 8
G1 X170.544 Y130.8832 E0.06634 F1800 ; Glyph: 8
G1 X168.544 Y130.8832 E0.06634 F1800 ; Glyph: 8
G1 X166.544 Y130.8832 E0.06634 F1800 ; Glyph: 8
G1 X166.544 Y128.8832 E0.06634 F1800 ; Glyph: 8
G0 X168.544 Y128.8832 F7200 ; Move
G1 X168.544 Y130.8832 E0.06634 F1800 ; Glyph: 8
G1 E-0.5 F2100 ; Retract
G1 Z0.55 F7200 ; Z hop
G0 X110.346 Y78.0068 F7200 ; Move to pattern start

G1 Z0.45 F7200 ; Z hop return
G1 E0.5 F2100 ; Un-retract
SET_PRESSURE_ADVANCE ADVANCE=0 ; Set pressure advance
M117 PA 0
G1 X131.5592 Y99.22 E0.99515 F2400 ; Print pattern wall
G1 X110.346 Y120.4332 E0.99515 F2400 ; Print pattern wall
G1 E-0.5 F2100 ; Retract
G1 Z0.55 F7200 ; Z hop
G0 X110.9217 Y78.0068 F7200 ; Move to start next pattern wall
G1 Z0.45 F7200 ; Z hop return
G1 E0.5 F2100 ; Un-retract
G1 X132.1349 Y99.22 E0.99515 F2400 ; Print pattern wall
G1 X110.9217 Y120.4332 E0.99515 F2400 ; Print pattern wall
G1 E-0.5 F2100 ; Retract
G1 Z0.55 F7200 ; Z hop
G0 X111.4974 Y78.0068 F7200 ; Move to start next pattern wall
G1 Z0.45 F7200 ; Z hop return
G1 E0.5 F2100 ; Un-retract
G1 X132.7106 Y99.22 E0.99515 F2400 ; Print pattern wall
G1 X111.4974 Y120.4332 E0.99515 F2400 ; Print pattern wall
G1 E-0.5 F2100 ; Retract
G1 Z0.55 F7200 ; Z hop
G0 X113.9474 Y78.0068 F7200 ; Move to next pattern
G1 Z0.45 F7200 ; Z hop return
G1 E0.5 F2100 ; Un-retract
SET_PRESSURE_ADVANCE ADVANCE=0.005 ; Set pressure advance
M117 PA 0.005
G1 X135.1606 Y99.22 E0.99515 F2400 ; Print pattern wall
G1 X113.9474 Y120.4332 E0.99515 F2400 ; Print pattern wall
G1 E-0.5 F2100 ; Retract
G1 Z0.55 F7200 ; Z hop
G0 X114.5231 Y78.0068 F7200 ; Move to start next pattern wall
G1 Z0.45 F7200 ; Z hop return
G1 E0.5 F2100 ; Un-retract
G1 X135.7363 Y99.22 E0.99515 F2400 ; Print pattern wall
G1 X114.5231 Y120.4332 E0.99515 F2400 ; Print pattern wall
G1 E-0.5 F2100 ; Retract
G1 Z0.55 F7200 ; Z hop
G0 X115.0988 Y78.0068 F7200 ; Move to start next pattern wall
G1 Z0.45 F7200 ; Z hop return
G1 E0.5 F2100 ; Un-retract
G1 X136.312 Y99.22 E0.99515 F2400 ; Print pattern wall
G1 X115.0988 Y120.4332 E0.99515 F2400 ; Print pattern wall
G1 E-0.5 F2100 ; Retract
G1 Z0.55 F7200 ; Z hop
G0 X117.5488 Y78.0068 F7200 ; Move to next pattern
G1 Z0.45 F7200 ; Z hop return
G1 E0.5 F2100 ; Un-retract
SET_PRESSURE_ADVANCE ADVANCE=0.01 ; Set pressure advance
M117 PA 0.01
G1 X138.762 Y99.22 E0.99515 F2400 ; Print pattern wall
G1 X117.5488 Y120.4332 E0.99515 F2400 ; Print pattern wall
G1 E-0.5 F2100 ; Retract
G1 Z0.55 F7200 ; Z hop
G0 X118.1245 Y78.0068 F7200 ; Move to start next pattern wall
G1 Z0.45 F7200 ; Z hop return
G1 E0.5 F2100 ; Un-retract
G1 X139.3377 Y99.22 E0.99515 F2400 ; Print pattern wall
G1 X118.1245 Y120.4332 E0.99515 F2400 ; Print pattern wall
G1 E-0.5 F2100 ; Retract
G1 Z0.55 F7200 ; Z hop
G0 X118.7002 Y78.0068 F7200 ; Move to start next pattern wall
G1 Z0.45 F7200 ; Z hop return
G1 E0.5 F2100 ; Un-retract
G1 X139.9134 Y99.22 E0.99515 F2400 ; Print pattern wall
G1 X118.7002 Y120.4332 E0.99515 F2400 ; Print pattern wall
G1 E-0.5 F2100 ; Retract
G1 Z0.55 F7200 ; Z hop
G0 X121.1502 Y78.0068 F7200 ; Move to next pattern
G1 Z0.45 F7200 ; Z hop return
G1 E0.5 F2100 ; Un-retract
SET_PRESSURE_ADVANCE ADVANCE=0.015 ; Set pressure advance
M117 PA 0.015
G1 X142.3634 Y99.22 E0.99515 F2400 ; Print pattern wall
G1 X121.1502 Y120.4332 E0.99515 F2400 ; Print pattern wall
G1 E-0.5 F2100 ; Retract
G1 Z0.55 F7200 ; Z hop
G0 X121.7259 Y78.0068 F7200 ; Move to start next pattern wall
G1 Z0.45 F7200 ; Z hop return
G1 E0.5 F2100 ; Un-retract
G1 X142.9391 Y99.22 E0.99515 F2400 ; Print pattern wall
G1 X121.7259 Y120.4332 E0.99515 F2400 ; Print pattern wall
G1 E-0.5 F2100 ; Retract
G1 Z0.55 F7200 ; Z hop
G0 X122.3016 Y78.0068 F7200 ; Move to start next pattern wall
G1 Z0.45 F7200 ; Z hop return
G1 E0.5 F2100 ; Un-retract
G1 X143.5148 Y99.22 E0.99515 F2400 ; Print pattern wall
G1 X122.3016 Y120.4332 E0.99515 F2400 ; Print pattern wall
G1 E-0.5 F2100 ; Retract
G1 Z0.55 F7200 ; Z hop
G0 X124.7516 Y78.0068 F7200 ; Move to next pattern
G1 Z0.45 F7200 ; Z hop return
G1 E0.5 F2100 ; Un-retract
SET_PRESSURE_ADVANCE ADVANCE=0.02 ; Set pressure advance
M117 PA 0.02
G1 X145.9648 Y99.22 E0.99515 F2400 ; Print pattern wall
G1 X124.7516 Y120.4332 E0.99515 F2400 ; Print pattern wall
G1 E-0.5 F2100 ; Retract
G1 Z0.55 F7200 ; Z hop
G0 X125.3273 Y78.0068 F7200 ; Move to start next pattern wall
G1 Z0.45 F7200 ; Z hop return
G1 E0.5 F2100 ; Un-retract
G1 X146.5405 Y99.22 E0.99515 F2400 ; Print pattern wall
G1 X125.3273 Y120.4332 E0.99515 F2400 ; Print pattern wall
G1 E-0.5 F2100 ; Retract
G1 Z0.55 F7200 ; Z hop
G0 X125.903 Y78.0068 F7200 ; Move to start next pattern wall
G1 Z0.45 F7200 ; Z hop return
G1 E0.5 F2100 ; Un-retract
G1 X147.1162 Y99.22 E0.99515 F2400 ; Print pattern wall
G1 X125.903 Y120.4332 E0.99515 F2400 ; Print pattern wall
G1 E-0.5 F2100 ; Retract
G1 Z0.55 F7200 ; Z hop
G0 X128.353 Y78.0068 F7200 ; Move to next pattern
G1 Z0.45 F7200 ; Z hop return
G1 E0.5 F2100 ; Un-retract
SET_PRESSURE_ADVANCE ADVANCE=0.025 ; Set pressure advance
M117 PA 0.025
G1 X149.5662 Y99.22 E0.99515 F2400 ; Print pattern wall
G1 X128.353 Y120.4332 E0.99515 F2400 ; Print pattern wall
G1 E-0.5 F2100 ; Retract
G1 Z0.55 F7200 ; Z hop
G0 X128.9287 Y78.0068 F7200 ; Move to start next pattern wall
G1 Z0.45 F7200 ; Z hop return
G1 E0.5 F2100 ; Un-retract
G1 X150.1419 Y99.22 E0.99515 F2400 ; Print pattern wall
G1 X128.9287 Y120.4332 E0.99515 F2400 ; Print pattern wall
G1 E-0.5 F2100 ; Retract
G1 Z0.55 F7200 ; Z hop
G0 X129.5044 Y78.0068 F7200 ; Move to start next pattern wall
G1 Z0.45 F7200 ; Z hop return
G1 E0.5 F2100 ; Un-retract
G1 X150.7176 Y99.22 E0.99515 F2400 ; Print pattern wall
G1 X129.5044 Y120.4332 E0.99515 F2400 ; Print pattern wall
G1 E-0.5 F2100 ; Retract
G1 Z0.55 F7200 ; Z hop
G0 X131.9544 Y78.0068 F7200 ; Move to next pattern
G1 Z0.45 F7200 ; Z hop return
G1 E0.5 F2100 ; Un-retract
SET_PRESSURE_ADVANCE ADVANCE=0.03 ; Set pressure advance
M117 PA 0.03
G1 X153.1676 Y99.22 E0.99515 F2400 ; Print pattern wall
G1 X131.9544 Y120.4332 E0.99515 F2400 ; Print pattern wall
G1 E-0.5 F2100 ; Retract
G1 Z0.55 F7200 ; Z hop
G0 X132.5301 Y78.0068 F7200 ; Move to start next pattern wall
G1 Z0.45 F7200 ; Z hop return
G1 E0.5 F2100 ; Un-retract
G1 X153.7433 Y99.22 E0.99515 F2400 ; Print pattern wall
G1 X132.5301 Y120.4332 E0.99515 F2400 ; Print pattern wall
G1 E-0.5 F2100 ; Retract
G1 Z0.55 F7200 ; Z hop
G0 X133.1058 Y78.0068 F7200 ; Move to start next pattern wall
G1 Z0.45 F7200 ; Z hop return
G1 E0.5 F2100 ; Un-retract
G1 X154.319 Y99.22 E0.99515 F2400 ; Print pattern wall
G1 X133.1058 Y120.4332 E0.99515 F2400 ; Print pattern wall
G1 E-0.5 F2100 ; Retract
G1 Z0.55 F7200 ; Z hop
G0 X135.5558 Y78.0068 F7200 ; Move to next pattern
G1 Z0.45 F7200 ; Z hop return
G1 E0.5 F2100 ; Un-retract
SET_PRESSURE_ADVANCE ADVANCE=0.035 ; Set pressure advance
M117 PA 0.035
G1 X156.769 Y99.22 E0.99515 F2400 ; Print pattern wall
G1 X135.5558 Y120.4332 E0.99515 F2400 ; Print pattern wall
G1 E-0.5 F2100 ; Retract
G1 Z0.55 F7200 ; Z hop
G0 X136.1315 Y78.0068 F7200 ; Move to start next pattern wall
G1 Z0.45 F7200 ; Z hop return
G1 E0.5 F2100 ; Un-retract
G1 X157.3447 Y99.22 E0.99515 F2400 ; Print pattern wall
G1 X136.1315 Y120.4332 E0.99515 F2400 ; Print pattern wall
G1 E-0.5 F2100 ; Retract
G1 Z0.55 F7200 ; Z hop
G0 X136.7072 Y78.0068 F7200 ; Move to start next pattern wall
G1 Z0.45 F7200 ; Z hop return
G1 E0.5 F2100 ; Un-retract
G1 X157.9204 Y99.22 E0.99515 F2400 ; Print pattern wall
G1 X136.7072 Y120.4332 E0.99515 F2400 ; Print pattern wall
G1 E-0.5 F2100 ; Retract
G1 Z0.55 F7200 ; Z hop
G0 X139.1572 Y78.0068 F7200 ; Move to next pattern
G1 Z0.45 F7200 ; Z hop return
G1 E0.5 F2100 ; Un-retract
SET_PRESSURE_ADVANCE ADVANCE=0.04 ; Set pressure advance
M117 PA 0.04
G1 X160.3704 Y99.22 E0.99515 F2400 ; Print pattern wall
G1 X139.1572 Y120.4332 E0.99515 F2400 ; Print pattern wall
G1 E-0.5 F2100 ; Retract
G1 Z0.55 F7200 ; Z hop
G0 X139.7329 Y78.0068 F7200 ; Move to start next pattern wall
G1 Z0.45 F7200 ; Z hop return
G1 E0.5 F2100 ; Un-retract
G1 X160.9461 Y99.22 E0.99515 F2400 ; Print pattern wall
G1 X139.7329 Y120.4332 E0.99515 F2400 ; Print pattern wall
G1 E-0.5 F2100 ; Retract
G1 Z0.55 F7200 ; Z hop
G0 X140.3086 Y78.0068 F7200 ; Move to start next pattern wall
G1 Z0.45 F7200 ; Z hop return
G1 E0.5 F2100 ; Un-retract
G1 X161.5218 Y99.22 E0.99515 F2400 ; Print pattern wall
G1 X140.3086 Y120.4332 E0.99515 F2400 ; Print pattern wall
G1 E-0.5 F2100 ; Retract
G1 Z0.55 F7200 ; Z hop
G0 X142.7586 Y78.0068 F7200 ; Move to next pattern
G1 Z0.45 F7200 ; Z hop return
G1 E0.5 F2100 ; Un-retract
SET_PRESSURE_ADVANCE ADVANCE=0.045 ; Set pressure advance
M117 PA 0.045
G1 X163.9718 Y99.22 E0.99515 F2400 ; Print pattern wall
G1 X142.7586 Y120.4332 E0.99515 F2400 ; Print pattern wall
G1 E-0.5 F2100 ; Retract
G1 Z0.55 F7200 ; Z hop
G0 X143.3343 Y78.0068 F7200 ; Move to start next pattern wall
G1 Z0.45 F7200 ; Z hop return
G1 E0.5 F2100 ; Un-retract
G1 X164.5475 Y99.22 E0.99515 F2400 ; Print pattern wall
G1 X143.3343 Y120.4332 E0.99515 F2400 ; Print pattern wall
G1 E-0.5 F2100 ; Retract
G1 Z0.55 F7200 ; Z hop
G0 X143.91 Y78.0068 F7200 ; Move to start next pattern wall
G1 Z0.45 F7200 ; Z hop return
G1 E0.5 F2100 ; Un-retract
G1 X165.1232 Y99.22 E0.99515 F2400 ; Print pattern wall
G1 X143.91 Y120.4332 E0.99515 F2400 ; Print pattern wall
G1 E-0.5 F2100 ; Retract
G1 Z0.55 F7200 ; Z hop
G0 X146.36 Y78.0068 F7200 ; Move to next pattern
G1 Z0.45 F7200 ; Z hop return
G1 E0.5 F2100 ; Un-retract
SET_PRESSURE_ADVANCE ADVANCE=0.05 ; Set pressure advance
M117 PA 0.05
G1 X167.5732 Y99.22 E0.99515 F2400 ; Print pattern wall
G1 X146.36 Y120.4332 E0.99515 F2400 ; Print pattern wall
G1 E-0.5 F2100 ; Retract
G1 Z0.55 F7200 ; Z hop
G0 X146.9357 Y78.0068 F7200 ; Move to start next pattern wall
G1 Z0.45 F7200 ; Z hop return
G1 E0.5 F2100 ; Un-retract
G1 X168.1489 Y99.22 E0.99515 F2400 ; Print pattern wall
G1 X146.9357 Y120.4332 E0.99515 F2400 ; Print pattern wall
G1 E-0.5 F2100 ; Retract
G1 Z0.55 F7200 ; Z hop
G0 X147.5113 Y78.0068 F7200 ; Move to start next pattern wall
G1 Z0.45 F7200 ; Z hop return
G1 E0.5 F2100 ; Un-retract
G1 X168.7246 Y99.22 E0.99515 F2400 ; Print pattern wall
G1 X147.5113 Y120.4332 E0.99515 F2400 ; Print pattern wall
G1 E-0.5 F2100 ; Retract
G1 Z0.55 F7200 ; Z hop
G0 X149.9613 Y78.0068 F7200 ; Move to next pattern
G1 Z0.45 F7200 ; Z hop return
G1 E0.5 F2100 ; Un-retract
SET_PRESSURE_ADVANCE ADVANCE=0.055 ; Set pressure advance
M117 PA 0.055
G1 X171.1746 Y99.22 E0.99515 F2400 ; Print pattern wall
G1 X149.9613 Y120.4332 E0.99515 F2400 ; Print pattern wall
G1 E-0.5 F2100 ; Retract
G1 Z0.55 F7200 ; Z hop
G0 X150.537 Y78.0068 F7200 ; Move to start next pattern wall
G1 Z0.45 F7200 ; Z hop return
G1 E0.5 F2100 ; Un-retract
G1 X171.7502 Y99.22 E0.99515 F2400 ; Print pattern wall
G1 X150.537 Y120.4332 E0.99515 F2400 ; Print pattern wall
G1 E-0.5 F2100 ; Retract
G1 Z0.55 F7200 ; Z hop
G0 X151.1127 Y78.0068 F7200 ; Move to start next pattern wall
G1 Z0.45 F7200 ; Z hop return
G1 E0.5 F2100 ; Un-retract
G1 X172.3259 Y99.22 E0.99515 F2400 ; Print pattern wall
G1 X151.1127 Y120.4332 E0.99515 F2400 ; Print pattern wall
G1 E-0.5 F2100 ; Retract
G1 Z0.55 F7200 ; Z hop
G0 X153.5627 Y78.0068 F7200 ; Move to next pattern
G1 Z0.45 F7200 ; Z hop return
G1 E0.5 F2100 ; Un-retract
SET_PRESSURE_ADVANCE ADVANCE=0.06 ; Set pressure advance
M117 PA 0.06
G1 X174.7759 Y99.22 E0.99515 F2400 ; Print pattern wall
G1 X153.5627 Y120.4332 E0.99515 F2400 ; Print pattern wall
G1 E-0.5 F2100 ; Retract
G1 Z0.55 F7200 ; Z hop
G0 X154.1384 Y78.0068 F7200 ; Move to start next pattern wall
G1 Z0.45 F7200 ; Z hop return
G1 E0.5 F2100 ; Un-retract
G1 X175.3516 Y99.22 E0.99515 F2400 ; Print pattern wall
G1 X154.1384 Y120.4332 E0.99515 F2400 ; Print pattern wall
G1 E-0.5 F2100 ; Retract
G1 Z0.55 F7200 ; Z hop
G0 X154.7141 Y78.0068 F7200 ; Move to start next pattern wall
G1 Z0.45 F7200 ; Z hop return
G1 E0.5 F2100 ; Un-retract
G1 X175.9273 Y99.22 E0.99515 F2400 ; Print pattern wall
G1 X154.7141 Y120.4332 E0.99515 F2400 ; Print pattern wall
G1 E-0.5 F2100 ; Retract
G1 Z0.55 F7200 ; Z hop
G0 X157.1641 Y78.0068 F7200 ; Move to next pattern
G1 Z0.45 F7200 ; Z hop return
G1 E0.5 F2100 ; Un-retract
SET_PRESSURE_ADVANCE ADVANCE=0.065 ; Set pressure advance
M117 PA 0.065
G1 X178.3773 Y99.22 E0.99515 F2400 ; Print pattern wall
G1 X157.1641 Y120.4332 E0.99515 F2400 ; Print pattern wall
G1 E-0.5 F2100 ; Retract
G1 Z0.55 F7200 ; Z hop
G0 X157.7398 Y78.0068 F7200 ; Move to start next pattern wall
G1 Z0.45 F7200 ; Z hop return
G1 E0.5 F2100 ; Un-retract
G1 X178.953 Y99.22 E0.99515 F2400 ; Print pattern wall
G1 X157.7398 Y120.4332 E0.99515 F2400 ; Print pattern wall
G1 E-0.5 F2100 ; Retract
G1 Z0.55 F7200 ; Z hop
G0 X158.3155 Y78.0068 F7200 ; Move to start next pattern wall
G1 Z0.45 F7200 ; Z hop return
G1 E0.5 F2100 ; Un-retract
G1 X179.5287 Y99.22 E0.99515 F2400 ; Print pattern wall
G1 X158.3155 Y120.4332 E0.99515 F2400 ; Print pattern wall
G1 E-0.5 F2100 ; Retract
G1 Z0.55 F7200 ; Z hop
G0 X160.7655 Y78.0068 F7200 ; Move to next pattern
G1 Z0.45 F7200 ; Z hop return
G1 E0.5 F2100 ; Un-retract
SET_PRESSURE_ADVANCE ADVANCE=0.07 ; Set pressure advance
M117 PA 0.07
G1 X181.9787 Y99.22 E0.99515 F2400 ; Print pattern wall
G1 X160.7655 Y120.4332 E0.99515 F2400 ; Print pattern wall
G1 E-0.5 F2100 ; Retract
G1 Z0.55 F7200 ; Z hop
G0 X161.3412 Y78.0068 F7200 ; Move to start next pattern wall
G1 Z0.45 F7200 ; Z hop return
G1 E0.5 F2100 ; Un-retract
G1 X182.5544 Y99.22 E0.99515 F2400 ; Print pattern wall
G1 X161.3412 Y120.4332 E0.99515 F2400 ; Print pattern wall
G1 E-0.5 F2100 ; Retract
G1 Z0.55 F7200 ; Z hop
G0 X161.9169 Y78.0068 F7200 ; Move to start next pattern wall
G1 Z0.45 F7200 ; Z hop return
G1 E0.5 F2100 ; Un-retract
G1 X183.1301 Y99.22 E0.99515 F2400 ; Print pattern wall
G1 X161.9169 Y120.4332 E0.99515 F2400 ; Print pattern wall
G1 E-0.5 F2100 ; Retract
G1 Z0.55 F7200 ; Z hop
G0 X164.3669 Y78.0068 F7200 ; Move to next pattern
G1 Z0.45 F7200 ; Z hop return
G1 E0.5 F2100 ; Un-retract
SET_PRESSURE_ADVANCE ADVANCE=0.075 ; Set pressure advance
M117 PA 0.075
G1 X185.5801 Y99.22 E0.99515 F2400 ; Print pattern wall
G1 X164.3669 Y120.4332 E0.99515 F2400 ; Print pattern wall
G1 E-0.5 F2100 ; Retract
G1 Z0.55 F7200 ; Z hop
G0 X164.9426 Y78.0068 F7200 ; Move to start next pattern wall
G1 Z0.45 F7200 ; Z hop return
G1 E0.5 F2100 ; Un-retract
G1 X186.1558 Y99.22 E0.99515 F2400 ; Print pattern wall
G1 X164.9426 Y120.4332 E0.99515 F2400 ; Print pattern wall
G1 E-0.5 F2100 ; Retract
G1 Z0.55 F7200 ; Z hop
G0 X165.5183 Y78.0068 F7200 ; Move to start next pattern wall
G1 Z0.45 F7200 ; Z hop return
G1 E0.5 F2100 ; Un-retract
G1 X186.7315 Y99.22 E0.99515 F2400 ; Print pattern wall
G1 X165.5183 Y120.4332 E0.99515 F2400 ; Print pattern wall
G1 E-0.5 F2100 ; Retract
G1 Z0.55 F7200 ; Z hop
G0 X167.9683 Y78.0068 F7200 ; Move to next pattern
G1 Z0.45 F7200 ; Z hop return
G1 E0.5 F2100 ; Un-retract
SET_PRESSURE_ADVANCE ADVANCE=0.08 ; Set pressure advance
M117 PA 0.08
G1 X189.1815 Y99.22 E0.99515 F2400 ; Print pattern wall
G1 X167.9683 Y120.4332 E0.99515 F2400 ; Print pattern wall
G1 E-0.5 F2100 ; Retract
G1 Z0.55 F7200 ; Z hop
G0 X168.544 Y78.0068 F7200 ; Move to start next pattern wall
G1 Z0.45 F7200 ; Z hop return
G1 E0.5 F2100 ; Un-retract
G1 X189.7572 Y99.22 E0.99515 F2400 ; Print pattern wall
G1 X168.544 Y120.4332 E0.99515 F2400 ; Print pattern wall
G1 E-0.5 F2100 ; Retract
G1 Z0.55 F7200 ; Z hop
G0 X169.1197 Y78.0068 F7200 ; Move to start next pattern wall
G1 Z0.45 F7200 ; Z hop return
G1 E0.5 F2100 ; Un-retract
G1 X190.3329 Y99.22 E0.99515 F2400 ; Print pattern wall
G1 X169.1197 Y120.4332 E0.99515 F2400 ; Print pattern wall
G1 E-0.5 F2100 ; Retract
G1 Z0.55 F7200 ; Z hop
G0 X110.346 Y78.0068 F7200 ; Move back to start position
G1 Z0.45 F7200 ; Z hop return
G1 E0.5 F2100 ; Un-retract
G0 Z0.65 F7200 ; Move to layer height
SET_PRESSURE_ADVANCE ADVANCE=0 ; Set pressure advance
M117 PA 0
G1 X131.5592 Y99.22 E0.99515 F2400 ; Print pattern wall
G1 X110.346 Y120.4332 E0.99515 F2400 ; Print pattern wall
G1 E-0.5 F2100 ; Retract
G1 Z0.75 F7200 ; Z hop
G0 X110.9217 Y78.0068 F7200 ; Move to start next pattern wall
G1 Z0.65 F7200 ; Z hop return
G1 E0.5 F2100 ; Un-retract
G1 X132.1349 Y99.22 E0.99515 F2400 ; Print pattern wall
G1 X110.9217 Y120.4332 E0.99515 F2400 ; Print pattern wall
G1 E-0.5 F2100 ; Retract
G1 Z0.75 F7200 ; Z hop
G0 X111.4974 Y78.0068 F7200 ; Move to start next pattern wall
G1 Z0.65 F7200 ; Z hop return
G1 E0.5 F2100 ; Un-retract
G1 X132.7106 Y99.22 E0.99515 F2400 ; Print pattern wall
G1 X111.4974 Y120.4332 E0.99515 F2400 ; Print pattern wall
G1 E-0.5 F2100 ; Retract
G1 Z0.75 F7200 ; Z hop
G0 X113.9474 Y78.0068 F7200 ; Move to next pattern
G1 Z0.65 F7200 ; Z hop return
G1 E0.5 F2100 ; Un-retract
SET_PRESSURE_ADVANCE ADVANCE=0.005 ; Set pressure advance
M117 PA 0.005
G1 X135.1606 Y99.22 E0.99515 F2400 ; Print pattern wall
G1 X113.9474 Y120.4332 E0.99515 F2400 ; Print pattern wall
G1 E-0.5 F2100 ; Retract
G1 Z0.75 F7200 ; Z hop
G0 X114.5231 Y78.0068 F7200 ; Move to start next pattern wall
G1 Z0.65 F7200 ; Z hop return
G1 E0.5 F2100 ; Un-retract
G1 X135.7363 Y99.22 E0.99515 F2400 ; Print pattern wall
G1 X114.5231 Y120.4332 E0.99515 F2400 ; Print pattern wall
G1 E-0.5 F2100 ; Retract
G1 Z0.75 F7200 ; Z hop
G0 X115.0988 Y78.0068 F7200 ; Move to start next pattern wall
G1 Z0.65 F7200 ; Z hop return
G1 E0.5 F2100 ; Un-retract
G1 X136.312 Y99.22 E0.99515 F2400 ; Print pattern wall
G1 X115.0988 Y120.4332 E0.99515 F2400 ; Print pattern wall
G1 E-0.5 F2100 ; Retract
G1 Z0.75 F7200 ; Z hop
G0 X117.5488 Y78.0068 F7200 ; Move to next pattern
G1 Z0.65 F7200 ; Z hop return
G1 E0.5 F2100 ; Un-retract
SET_PRESSURE_ADVANCE ADVANCE=0.01 ; Set pressure advance
M117 PA 0.01
G1 X138.762 Y99.22 E0.99515 F2400 ; Print pattern wall
G1 X117.5488 Y120.4332 E0.99515 F2400 ; Print pattern wall
G1 E-0.5 F2100 ; Retract
G1 Z0.75 F7200 ; Z hop
G0 X118.1245 Y78.0068 F7200 ; Move to start next pattern wall
G1 Z0.65 F7200 ; Z hop return
G1 E0.5 F2100 ; Un-retract
G1 X139.3377 Y99.22 E0.99515 F2400 ; Print pattern wall
G1 X118.1245 Y120.4332 E0.99515 F2400 ; Print pattern wall
G1 E-0.5 F2100 ; Retract
G1 Z0.75 F7200 ; Z hop
G0 X118.7002 Y78.0068 F7200 ; Move to start next pattern wall
G1 Z0.65 F7200 ; Z hop return
G1 E0.5 F2100 ; Un-retract
G1 X139.9134 Y99.22 E0.99515 F2400 ; Print pattern wall
G1 X118.7002 Y120.4332 E0.99515 F2400 ; Print pattern wall
G1 E-0.5 F2100 ; Retract
G1 Z0.75 F7200 ; Z hop
G0 X121.1502 Y78.0068 F7200 ; Move to next pattern
G1 Z0.65 F7200 ; Z hop return
G1 E0.5 F2100 ; Un-retract
SET_PRESSURE_ADVANCE ADVANCE=0.015 ; Set pressure advance
M117 PA 0.015
G1 X142.3634 Y99.22 E0.99515 F2400 ; Print pattern wall
G1 X121.1502 Y120.4332 E0.99515 F2400 ; Print pattern wall
G1 E-0.5 F2100 ; Retract
G1 Z0.75 F7200 ; Z hop
G0 X121.7259 Y78.0068 F7200 ; Move to start next pattern wall
G1 Z0.65 F7200 ; Z hop return
G1 E0.5 F2100 ; Un-retract
G1 X142.9391 Y99.22 E0.99515 F2400 ; Print pattern wall
G1 X121.7259 Y120.4332 E0.99515 F2400 ; Print pattern wall
G1 E-0.5 F2100 ; Retract
G1 Z0.75 F7200 ; Z hop
G0 X122.3016 Y78.0068 F7200 ; Move to start next pattern wall
G1 Z0.65 F7200 ; Z hop return
G1 E0.5 F2100 ; Un-retract
G1 X143.5148 Y99.22 E0.99515 F2400 ; Print pattern wall
G1 X122.3016 Y120.4332 E0.99515 F2400 ; Print pattern wall
G1 E-0.5 F2100 ; Retract
G1 Z0.75 F7200 ; Z hop
G0 X124.7516 Y78.0068 F7200 ; Move to next pattern
G1 Z0.65 F7200 ; Z hop return
G1 E0.5 F2100 ; Un-retract
SET_PRESSURE_ADVANCE ADVANCE=0.02 ; Set pressure advance
M117 PA 0.02
G1 X145.9648 Y99.22 E0.99515 F2400 ; Print pattern wall
G1 X124.7516 Y120.4332 E0.99515 F2400 ; Print pattern wall
G1 E-0.5 F2100 ; Retract
G1 Z0.75 F7200 ; Z hop
G0 X125.3273 Y78.0068 F7200 ; Move to start next pattern wall
G1 Z0.65 F7200 ; Z hop return
G1 E0.5 F2100 ; Un-retract
G1 X146.5405 Y99.22 E0.99515 F2400 ; Print pattern wall
G1 X125.3273 Y120.4332 E0.99515 F2400 ; Print pattern wall
G1 E-0.5 F2100 ; Retract
G1 Z0.75 F7200 ; Z hop
G0 X125.903 Y78.0068 F7200 ; Move to start next pattern wall
G1 Z0.65 F7200 ; Z hop return
G1 E0.5 F2100 ; Un-retract
G1 X147.1162 Y99.22 E0.99515 F2400 ; Print pattern wall
G1 X125.903 Y120.4332 E0.99515 F2400 ; Print pattern wall
G1 E-0.5 F2100 ; Retract
G1 Z0.75 F7200 ; Z hop
G0 X128.353 Y78.0068 F7200 ; Move to next pattern
G1 Z0.65 F7200 ; Z hop return
G1 E0.5 F2100 ; Un-retract
SET_PRESSURE_ADVANCE ADVANCE=0.025 ; Set pressure advance
M117 PA 0.025
G1 X149.5662 Y99.22 E0.99515 F2400 ; Print pattern wall
G1 X128.353 Y120.4332 E0.99515 F2400 ; Print pattern wall
G1 E-0.5 F2100 ; Retract
G1 Z0.75 F7200 ; Z hop
G0 X128.9287 Y78.0068 F7200 ; Move to start next pattern wall
G1 Z0.65 F7200 ; Z hop return
G1 E0.5 F2100 ; Un-retract
G1 X150.1419 Y99.22 E0.99515 F2400 ; Print pattern wall
G1 X128.9287 Y120.4332 E0.99515 F2400 ; Print pattern wall
G1 E-0.5 F2100 ; Retract
G1 Z0.75 F7200 ; Z hop
G0 X129.5044 Y78.0068 F7200 ; Move to start next pattern wall
G1 Z0.65 F7200 ; Z hop return
G1 E0.5 F2100 ; Un-retract
G1 X150.7176 Y99.22 E0.99515 F2400 ; Print pattern wall
G1 X129.5044 Y120.4332 E0.99515 F2400 ; Print pattern wall
G1 E-0.5 F2100 ; Retract
G1 Z0.75 F7200 ; Z hop
G0 X131.9544 Y78.0068 F7200 ; Move to next pattern
G1 Z0.65 F7200 ; Z hop return
G1 E0.5 F2100 ; Un-retract
SET_PRESSURE_ADVANCE ADVANCE=0.03 ; Set pressure advance
M117 PA 0.03
G1 X153.1676 Y99.22 E0.99515 F2400 ; Print pattern wall
G1 X131.9544 Y120.4332 E0.99515 F2400 ; Print pattern wall
G1 E-0.5 F2100 ; Retract
G1 Z0.75 F7200 ; Z hop
G0 X132.5301 Y78.0068 F7200 ; Move to start next pattern wall
G1 Z0.65 F7200 ; Z hop return
G1 E0.5 F2100 ; Un-retract
G1 X153.7433 Y99.22 E0.99515 F2400 ; Print pattern wall
G1 X132.5301 Y120.4332 E0.99515 F2400 ; Print pattern wall
G1 E-0.5 F2100 ; Retract
G1 Z0.75 F7200 ; Z hop
G0 X133.1058 Y78.0068 F7200 ; Move to start next pattern wall
G1 Z0.65 F7200 ; Z hop return
G1 E0.5 F2100 ; Un-retract
G1 X154.319 Y99.22 E0.99515 F2400 ; Print pattern wall
G1 X133.1058 Y120.4332 E0.99515 F2400 ; Print pattern wall
G1 E-0.5 F2100 ; Retract
G1 Z0.75 F7200 ; Z hop
G0 X135.5558 Y78.0068 F7200 ; Move to next pattern
G1 Z0.65 F7200 ; Z hop return
G1 E0.5 F2100 ; Un-retract
SET_PRESSURE_ADVANCE ADVANCE=0.035 ; Set pressure advance
M117 PA 0.035
G1 X156.769 Y99.22 E0.99515 F2400 ; Print pattern wall
G1 X135.5558 Y120.4332 E0.99515 F2400 ; Print pattern wall
G1 E-0.5 F2100 ; Retract
G1 Z0.75 F7200 ; Z hop
G0 X136.1315 Y78.0068 F7200 ; Move to start next pattern wall
G1 Z0.65 F7200 ; Z hop return
G1 E0.5 F2100 ; Un-retract
G1 X157.3447 Y99.22 E0.99515 F2400 ; Print pattern wall
G1 X136.1315 Y120.4332 E0.99515 F2400 ; Print pattern wall
G1 E-0.5 F2100 ; Retract
G1 Z0.75 F7200 ; Z hop
G0 X136.7072 Y78.0068 F7200 ; Move to start next pattern wall
G1 Z0.65 F7200 ; Z hop return
G1 E0.5 F2100 ; Un-retract
G1 X157.9204 Y99.22 E0.99515 F2400 ; Print pattern wall
G1 X136.7072 Y120.4332 E0.99515 F2400 ; Print pattern wall
G1 E-0.5 F2100 ; Retract
G1 Z0.75 F7200 ; Z hop
G0 X139.1572 Y78.0068 F7200 ; Move to next pattern
G1 Z0.65 F7200 ; Z hop return
G1 E0.5 F2100 ; Un-retract
SET_PRESSURE_ADVANCE ADVANCE=0.04 ; Set pressure advance
M117 PA 0.04
G1 X160.3704 Y99.22 E0.99515 F2400 ; Print pattern wall
G1 X139.1572 Y120.4332 E0.99515 F2400 ; Print pattern wall
G1 E-0.5 F2100 ; Retract
G1 Z0.75 F7200 ; Z hop
G0 X139.7329 Y78.0068 F7200 ; Move to start next pattern wall
G1 Z0.65 F7200 ; Z hop return
G1 E0.5 F2100 ; Un-retract
G1 X160.9461 Y99.22 E0.99515 F2400 ; Print pattern wall
G1 X139.7329 Y120.4332 E0.99515 F2400 ; Print pattern wall
G1 E-0.5 F2100 ; Retract
G1 Z0.75 F7200 ; Z hop
G0 X140.3086 Y78.0068 F7200 ; Move to start next pattern wall
G1 Z0.65 F7200 ; Z hop return
G1 E0.5 F2100 ; Un-retract
G1 X161.5218 Y99.22 E0.99515 F2400 ; Print pattern wall
G1 X140.3086 Y120.4332 E0.99515 F2400 ; Print pattern wall
G1 E-0.5 F2100 ; Retract
G1 Z0.75 F7200 ; Z hop
G0 X142.7586 Y78.0068 F7200 ; Move to next pattern
G1 Z0.65 F7200 ; Z hop return
G1 E0.5 F2100 ; Un-retract
SET_PRESSURE_ADVANCE ADVANCE=0.045 ; Set pressure advance
M117 PA 0.045
G1 X163.9718 Y99.22 E0.99515 F2400 ; Print pattern wall
G1 X142.7586 Y120.4332 E0.99515 F2400 ; Print pattern wall
G1 E-0.5 F2100 ; Retract
G1 Z0.75 F7200 ; Z hop
G0 X143.3343 Y78.0068 F7200 ; Move to start next pattern wall
G1 Z0.65 F7200 ; Z hop return
G1 E0.5 F2100 ; Un-retract
G1 X164.5475 Y99.22 E0.99515 F2400 ; Print pattern wall
G1 X143.3343 Y120.4332 E0.99515 F2400 ; Print pattern wall
G1 E-0.5 F2100 ; Retract
G1 Z0.75 F7200 ; Z hop
G0 X143.91 Y78.0068 F7200 ; Move to start next pattern wall
G1 Z0.65 F7200 ; Z hop return
G1 E0.5 F2100 ; Un-retract
G1 X165.1232 Y99.22 E0.99515 F2400 ; Print pattern wall
G1 X143.91 Y120.4332 E0.99515 F2400 ; Print pattern wall
G1 E-0.5 F2100 ; Retract
G1 Z0.75 F7200 ; Z hop
G0 X146.36 Y78.0068 F7200 ; Move to next pattern
G1 Z0.65 F7200 ; Z hop return
G1 E0.5 F2100 ; Un-retract
SET_PRESSURE_ADVANCE ADVANCE=0.05 ; Set pressure advance
M117 PA 0.05
G1 X167.5732 Y99.22 E0.99515 F2400 ; Print pattern wall
G1 X146.36 Y120.4332 E0.99515 F2400 ; Print pattern wall
G1 E-0.5 F2100 ; Retract
G1 Z0.75 F7200 ; Z hop
G0 X146.9357 Y78.0068 F7200 ; Move to start next pattern wall
G1 Z0.65 F7200 ; Z hop return
G1 E0.5 F2100 ; Un-retract
G1 X168.1489 Y99.22 E0.99515 F2400 ; Print pattern wall
G1 X146.9357 Y120.4332 E0.99515 F2400 ; Print pattern wall
G1 E-0.5 F2100 ; Retract
G1 Z0.75 F7200 ; Z hop
G0 X147.5113 Y78.0068 F7200 ; Move to start next pattern wall
G1 Z0.65 F7200 ; Z hop return
G1 E0.5 F2100 ; Un-retract
G1 X168.7246 Y99.22 E0.99515 F2400 ; Print pattern wall
G1 X147.5113 Y120.4332 E0.99515 F2400 ; Print pattern wall
G1 E-0.5 F2100 ; Retract
G1 Z0.75 F7200 ; Z hop
G0 X149.9613 Y78.0068 F7200 ; Move to next pattern
G1 Z0.65 F7200 ; Z hop return
G1 E0.5 F2100 ; Un-retract
SET_PRESSURE_ADVANCE ADVANCE=0.055 ; Set pressure advance
M117 PA 0.055
G1 X171.1746 Y99.22 E0.99515 F2400 ; Print pattern wall
G1 X149.9613 Y120.4332 E0.99515 F2400 ; Print pattern wall
G1 E-0.5 F2100 ; Retract
G1 Z0.75 F7200 ; Z hop
G0 X150.537 Y78.0068 F7200 ; Move to start next pattern wall
G1 Z0.65 F7200 ; Z hop return
G1 E0.5 F2100 ; Un-retract
G1 X171.7502 Y99.22 E0.99515 F2400 ; Print pattern wall
G1 X150.537 Y120.4332 E0.99515 F2400 ; Print pattern wall
G1 E-0.5 F2100 ; Retract
G1 Z0.75 F7200 ; Z hop
G0 X151.1127 Y78.0068 F7200 ; Move to start next pattern wall
G1 Z0.65 F7200 ; Z hop return
G1 E0.5 F2100 ; Un-retract
G1 X172.3259 Y99.22 E0.99515 F2400 ; Print pattern wall
G1 X151.1127 Y120.4332 E0.99515 F2400 ; Print pattern wall
G1 E-0.5 F2100 ; Retract
G1 Z0.75 F7200 ; Z hop
G0 X153.5627 Y78.0068 F7200 ; Move to next pattern
G1 Z0.65 F7200 ; Z hop return
G1 E0.5 F2100 ; Un-retract
SET_PRESSURE_ADVANCE ADVANCE=0.06 ; Set pressure advance
M117 PA 0.06
G1 X174.7759 Y99.22 E0.99515 F2400 ; Print pattern wall
G1 X153.5627 Y120.4332 E0.99515 F2400 ; Print pattern wall
G1 E-0.5 F2100 ; Retract
G1 Z0.75 F7200 ; Z hop
G0 X154.1384 Y78.0068 F7200 ; Move to start next pattern wall
G1 Z0.65 F7200 ; Z hop return
G1 E0.5 F2100 ; Un-retract
G1 X175.3516 Y99.22 E0.99515 F2400 ; Print pattern wall
G1 X154.1384 Y120.4332 E0.99515 F2400 ; Print pattern wall
G1 E-0.5 F2100 ; Retract
G1 Z0.75 F7200 ; Z hop
G0 X154.7141 Y78.0068 F7200 ; Move to start next pattern wall
G1 Z0.65 F7200 ; Z hop return
G1 E0.5 F2100 ; Un-retract
G1 X175.9273 Y99.22 E0.99515 F2400 ; Print pattern wall
G1 X154.7141 Y120.4332 E0.99515 F2400 ; Print pattern wall
G1 E-0.5 F2100 ; Retract
G1 Z0.75 F7200 ; Z hop
G0 X157.1641 Y78.0068 F7200 ; Move to next pattern
G1 Z0.65 F7200 ; Z hop return
G1 E0.5 F2100 ; Un-retract
SET_PRESSURE_ADVANCE ADVANCE=0.065 ; Set pressure advance
M117 PA 0.065
G1 X178.3773 Y99.22 E0.99515 F2400 ; Print pattern wall
G1 X157.1641 Y120.4332 E0.99515 F2400 ; Print pattern wall
G1 E-0.5 F2100 ; Retract
G1 Z0.75 F7200 ; Z hop
G0 X157.7398 Y78.0068 F7200 ; Move to start next pattern wall
G1 Z0.65 F7200 ; Z hop return
G1 E0.5 F2100 ; Un-retract
G1 X178.953 Y99.22 E0.99515 F2400 ; Print pattern wall
G1 X157.7398 Y120.4332 E0.99515 F2400 ; Print pattern wall
G1 E-0.5 F2100 ; Retract
G1 Z0.75 F7200 ; Z hop
G0 X158.3155 Y78.0068 F7200 ; Move to start next pattern wall
G1 Z0.65 F7200 ; Z hop return
G1 E0.5 F2100 ; Un-retract
G1 X179.5287 Y99.22 E0.99515 F2400 ; Print pattern wall
G1 X158.3155 Y120.4332 E0.99515 F2400 ; Print pattern wall
G1 E-0.5 F2100 ; Retract
G1 Z0.75 F7200 ; Z hop
G0 X160.7655 Y78.0068 F7200 ; Move to next pattern
G1 Z0.65 F7200 ; Z hop return
G1 E0.5 F2100 ; Un-retract
SET_PRESSURE_ADVANCE ADVANCE=0.07 ; Set pressure advance
M117 PA 0.07
G1 X181.9787 Y99.22 E0.99515 F2400 ; Print pattern wall
G1 X160.7655 Y120.4332 E0.99515 F2400 ; Print pattern wall
G1 E-0.5 F2100 ; Retract
G1 Z0.75 F7200 ; Z hop
G0 X161.3412 Y78.0068 F7200 ; Move to start next pattern wall
G1 Z0.65 F7200 ; Z hop return
G1 E0.5 F2100 ; Un-retract
G1 X182.5544 Y99.22 E0.99515 F2400 ; Print pattern wall
G1 X161.3412 Y120.4332 E0.99515 F2400 ; Print pattern wall
G1 E-0.5 F2100 ; Retract
G1 Z0.75 F7200 ; Z hop
G0 X161.9169 Y78.0068 F7200 ; Move to start next pattern wall
G1 Z0.65 F7200 ; Z hop return
G1 E0.5 F2100 ; Un-retract
G1 X183.1301 Y99.22 E0.99515 F2400 ; Print pattern wall
G1 X161.9169 Y120.4332 E0.99515 F2400 ; Print pattern wall
G1 E-0.5 F2100 ; Retract
G1 Z0.75 F7200 ; Z hop
G0 X164.3669 Y78.0068 F7200 ; Move to next pattern
G1 Z0.65 F7200 ; Z hop return
G1 E0.5 F2100 ; Un-retract
SET_PRESSURE_ADVANCE ADVANCE=0.075 ; Set pressure advance
M117 PA 0.075
G1 X185.5801 Y99.22 E0.99515 F2400 ; Print pattern wall
G1 X164.3669 Y120.4332 E0.99515 F2400 ; Print pattern wall
G1 E-0.5 F2100 ; Retract
G1 Z0.75 F7200 ; Z hop
G0 X164.9426 Y78.0068 F7200 ; Move to start next pattern wall
G1 Z0.65 F7200 ; Z hop return
G1 E0.5 F2100 ; Un-retract
G1 X186.1558 Y99.22 E0.99515 F2400 ; Print pattern wall
G1 X164.9426 Y120.4332 E0.99515 F2400 ; Print pattern wall
G1 E-0.5 F2100 ; Retract
G1 Z0.75 F7200 ; Z hop
G0 X165.5183 Y78.0068 F7200 ; Move to start next pattern wall
G1 Z0.65 F7200 ; Z hop return
G1 E0.5 F2100 ; Un-retract
G1 X186.7315 Y99.22 E0.99515 F2400 ; Print pattern wall
G1 X165.5183 Y120.4332 E0.99515 F2400 ; Print pattern wall
G1 E-0.5 F2100 ; Retract
G1 Z0.75 F7200 ; Z hop
G0 X167.9683 Y78.0068 F7200 ; Move to next pattern
G1 Z0.65 F7200 ; Z hop return
G1 E0.5 F2100 ; Un-retract
SET_PRESSURE_ADVANCE ADVANCE=0.08 ; Set pressure advance
M117 PA 0.08
G1 X189.1815 Y99.22 E0.99515 F2400 ; Print pattern wall
G1 X167.9683 Y120.4332 E0.99515 F2400 ; Print pattern wall
G1 E-0.5 F2100 ; Retract
G1 Z0.75 F7200 ; Z hop
G0 X168.544 Y78.0068 F7200 ; Move to start next pattern wall
G1 Z0.65 F7200 ; Z hop return
G1 E0.5 F2100 ; Un-retract
G1 X189.7572 Y99.22 E0.99515 F2400 ; Print pattern wall
G1 X168.544 Y120.4332 E0.99515 F2400 ; Print pattern wall
G1 E-0.5 F2100 ; Retract
G1 Z0.75 F7200 ; Z hop
G0 X169.1197 Y78.0068 F7200 ; Move to start next pattern wall
G1 Z0.65 F7200 ; Z hop return
G1 E0.5 F2100 ; Un-retract
G1 X190.3329 Y99.22 E0.99515 F2400 ; Print pattern wall
G1 X169.1197 Y120.4332 E0.99515 F2400 ; Print pattern wall
G1 E-0.5 F2100 ; Retract
G1 Z0.75 F7200 ; Z hop
G0 X110.346 Y78.0068 F7200 ; Move back to start position
G1 Z0.65 F7200 ; Z hop return
G1 E0.5 F2100 ; Un-retract
G0 Z0.85 F7200 ; Move to layer height
SET_PRESSURE_ADVANCE ADVANCE=0 ; Set pressure advance
M117 PA 0
G1 X131.5592 Y99.22 E0.99515 F2400 ; Print pattern wall
G1 X110.346 Y120.4332 E0.99515 F2400 ; Print pattern wall
G1 E-0.5 F2100 ; Retract
G1 Z0.95 F7200 ; Z hop
G0 X110.9217 Y78.0068 F7200 ; Move to start next pattern wall
G1 Z0.85 F7200 ; Z hop return
G1 E0.5 F2100 ; Un-retract
G1 X132.1349 Y99.22 E0.99515 F2400 ; Print pattern wall
G1 X110.9217 Y120.4332 E0.99515 F2400 ; Print pattern wall
G1 E-0.5 F2100 ; Retract
G1 Z0.95 F7200 ; Z hop
G0 X111.4974 Y78.0068 F7200 ; Move to start next pattern wall
G1 Z0.85 F7200 ; Z hop return
G1 E0.5 F2100 ; Un-retract
G1 X132.7106 Y99.22 E0.99515 F2400 ; Print pattern wall
G1 X111.4974 Y120.4332 E0.99515 F2400 ; Print pattern wall
G1 E-0.5 F2100 ; Retract
G1 Z0.95 F7200 ; Z hop
G0 X113.9474 Y78.0068 F7200 ; Move to next pattern
G1 Z0.85 F7200 ; Z hop return
G1 E0.5 F2100 ; Un-retract
SET_PRESSURE_ADVANCE ADVANCE=0.005 ; Set pressure advance
M117 PA 0.005
G1 X135.1606 Y99.22 E0.99515 F2400 ; Print pattern wall
G1 X113.9474 Y120.4332 E0.99515 F2400 ; Print pattern wall
G1 E-0.5 F2100 ; Retract
G1 Z0.95 F7200 ; Z hop
G0 X114.5231 Y78.0068 F7200 ; Move to start next pattern wall
G1 Z0.85 F7200 ; Z hop return
G1 E0.5 F2100 ; Un-retract
G1 X135.7363 Y99.22 E0.99515 F2400 ; Print pattern wall
G1 X114.5231 Y120.4332 E0.99515 F2400 ; Print pattern wall
G1 E-0.5 F2100 ; Retract
G1 Z0.95 F7200 ; Z hop
G0 X115.0988 Y78.0068 F7200 ; Move to start next pattern wall
G1 Z0.85 F7200 ; Z hop return
G1 E0.5 F2100 ; Un-retract
G1 X136.312 Y99.22 E0.99515 F2400 ; Print pattern wall
G1 X115.0988 Y120.4332 E0.99515 F2400 ; Print pattern wall
G1 E-0.5 F2100 ; Retract
G1 Z0.95 F7200 ; Z hop
G0 X117.5488 Y78.0068 F7200 ; Move to next pattern
G1 Z0.85 F7200 ; Z hop return
G1 E0.5 F2100 ; Un-retract
SET_PRESSURE_ADVANCE ADVANCE=0.01 ; Set pressure advance
M117 PA 0.01
G1 X138.762 Y99.22 E0.99515 F2400 ; Print pattern wall
G1 X117.5488 Y120.4332 E0.99515 F2400 ; Print pattern wall
G1 E-0.5 F2100 ; Retract
G1 Z0.95 F7200 ; Z hop
G0 X118.1245 Y78.0068 F7200 ; Move to start next pattern wall
G1 Z0.85 F7200 ; Z hop return
G1 E0.5 F2100 ; Un-retract
G1 X139.3377 Y99.22 E0.99515 F2400 ; Print pattern wall
G1 X118.1245 Y120.4332 E0.99515 F2400 ; Print pattern wall
G1 E-0.5 F2100 ; Retract
G1 Z0.95 F7200 ; Z hop
G0 X118.7002 Y78.0068 F7200 ; Move to start next pattern wall
G1 Z0.85 F7200 ; Z hop return
G1 E0.5 F2100 ; Un-retract
G1 X139.9134 Y99.22 E0.99515 F2400 ; Print pattern wall
G1 X118.7002 Y120.4332 E0.99515 F2400 ; Print pattern wall
G1 E-0.5 F2100 ; Retract
G1 Z0.95 F7200 ; Z hop
G0 X121.1502 Y78.0068 F7200 ; Move to next pattern
G1 Z0.85 F7200 ; Z hop return
G1 E0.5 F2100 ; Un-retract
SET_PRESSURE_ADVANCE ADVANCE=0.015 ; Set pressure advance
M117 PA 0.015
G1 X142.3634 Y99.22 E0.99515 F2400 ; Print pattern wall
G1 X121.1502 Y120.4332 E0.99515 F2400 ; Print pattern wall
G1 E-0.5 F2100 ; Retract
G1 Z0.95 F7200 ; Z hop
G0 X121.7259 Y78.0068 F7200 ; Move to start next pattern wall
G1 Z0.85 F7200 ; Z hop return
G1 E0.5 F2100 ; Un-retract
G1 X142.9391 Y99.22 E0.99515 F2400 ; Print pattern wall
G1 X121.7259 Y120.4332 E0.99515 F2400 ; Print pattern wall
G1 E-0.5 F2100 ; Retract
G1 Z0.95 F7200 ; Z hop
G0 X122.3016 Y78.0068 F7200 ; Move to start next pattern wall
G1 Z0.85 F7200 ; Z hop return
G1 E0.5 F2100 ; Un-retract
G1 X143.5148 Y99.22 E0.99515 F2400 ; Print pattern wall
G1 X122.3016 Y120.4332 E0.99515 F2400 ; Print pattern wall
G1 E-0.5 F2100 ; Retract
G1 Z0.95 F7200 ; Z hop
G0 X124.7516 Y78.0068 F7200 ; Move to next pattern
G1 Z0.85 F7200 ; Z hop return
G1 E0.5 F2100 ; Un-retract
SET_PRESSURE_ADVANCE ADVANCE=0.02 ; Set pressure advance
M117 PA 0.02
G1 X145.9648 Y99.22 E0.99515 F2400 ; Print pattern wall
G1 X124.7516 Y120.4332 E0.99515 F2400 ; Print pattern wall
G1 E-0.5 F2100 ; Retract
G1 Z0.95 F7200 ; Z hop
G0 X125.3273 Y78.0068 F7200 ; Move to start next pattern wall
G1 Z0.85 F7200 ; Z hop return
G1 E0.5 F2100 ; Un-retract
G1 X146.5405 Y99.22 E0.99515 F2400 ; Print pattern wall
G1 X125.3273 Y120.4332 E0.99515 F2400 ; Print pattern wall
G1 E-0.5 F2100 ; Retract
G1 Z0.95 F7200 ; Z hop
G0 X125.903 Y78.0068 F7200 ; Move to start next pattern wall
G1 Z0.85 F7200 ; Z hop return
G1 E0.5 F2100 ; Un-retract
G1 X147.1162 Y99.22 E0.99515 F2400 ; Print pattern wall
G1 X125.903 Y120.4332 E0.99515 F2400 ; Print pattern wall
G1 E-0.5 F2100 ; Retract
G1 Z0.95 F7200 ; Z hop
G0 X128.353 Y78.0068 F7200 ; Move to next pattern
G1 Z0.85 F7200 ; Z hop return
G1 E0.5 F2100 ; Un-retract
SET_PRESSURE_ADVANCE ADVANCE=0.025 ; Set pressure advance
M117 PA 0.025
G1 X149.5662 Y99.22 E0.99515 F2400 ; Print pattern wall
G1 X128.353 Y120.4332 E0.99515 F2400 ; Print pattern wall
G1 E-0.5 F2100 ; Retract
G1 Z0.95 F7200 ; Z hop
G0 X128.9287 Y78.0068 F7200 ; Move to start next pattern wall
G1 Z0.85 F7200 ; Z hop return
G1 E0.5 F2100 ; Un-retract
G1 X150.1419 Y99.22 E0.99515 F2400 ; Print pattern wall
G1 X128.9287 Y120.4332 E0.99515 F2400 ; Print pattern wall
G1 E-0.5 F2100 ; Retract
G1 Z0.95 F7200 ; Z hop
G0 X129.5044 Y78.0068 F7200 ; Move to start next pattern wall
G1 Z0.85 F7200 ; Z hop return
G1 E0.5 F2100 ; Un-retract
G1 X150.7176 Y99.22 E0.99515 F2400 ; Print pattern wall
G1 X129.5044 Y120.4332 E0.99515 F2400 ; Print pattern wall
G1 E-0.5 F2100 ; Retract
G1 Z0.95 F7200 ; Z hop
G0 X131.9544 Y78.0068 F7200 ; Move to next pattern
G1 Z0.85 F7200 ; Z hop return
G1 E0.5 F2100 ; Un-retract
SET_PRESSURE_ADVANCE ADVANCE=0.03 ; Set pressure advance
M117 PA 0.03
G1 X153.1676 Y99.22 E0.99515 F2400 ; Print pattern wall
G1 X131.9544 Y120.4332 E0.99515 F2400 ; Print pattern wall
G1 E-0.5 F2100 ; Retract
G1 Z0.95 F7200 ; Z hop
G0 X132.5301 Y78.0068 F7200 ; Move to start next pattern wall
G1 Z0.85 F7200 ; Z hop return
G1 E0.5 F2100 ; Un-retract
G1 X153.7433 Y99.22 E0.99515 F2400 ; Print pattern wall
G1 X132.5301 Y120.4332 E0.99515 F2400 ; Print pattern wall
G1 E-0.5 F2100 ; Retract
G1 Z0.95 F7200 ; Z hop
G0 X133.1058 Y78.0068 F7200 ; Move to start next pattern wall
G1 Z0.85 F7200 ; Z hop return
G1 E0.5 F2100 ; Un-retract
G1 X154.319 Y99.22 E0.99515 F2400 ; Print pattern wall
G1 X133.1058 Y120.4332 E0.99515 F2400 ; Print pattern wall
G1 E-0.5 F2100 ; Retract
G1 Z0.95 F7200 ; Z hop
G0 X135.5558 Y78.0068 F7200 ; Move to next pattern
G1 Z0.85 F7200 ; Z hop return
G1 E0.5 F2100 ; Un-retract
SET_PRESSURE_ADVANCE ADVANCE=0.035 ; Set pressure advance
M117 PA 0.035
G1 X156.769 Y99.22 E0.99515 F2400 ; Print pattern wall
G1 X135.5558 Y120.4332 E0.99515 F2400 ; Print pattern wall
G1 E-0.5 F2100 ; Retract
G1 Z0.95 F7200 ; Z hop
G0 X136.1315 Y78.0068 F7200 ; Move to start next pattern wall
G1 Z0.85 F7200 ; Z hop return
G1 E0.5 F2100 ; Un-retract
G1 X157.3447 Y99.22 E0.99515 F2400 ; Print pattern wall
G1 X136.1315 Y120.4332 E0.99515 F2400 ; Print pattern wall
G1 E-0.5 F2100 ; Retract
G1 Z0.95 F7200 ; Z hop
G0 X136.7072 Y78.0068 F7200 ; Move to start next pattern wall
G1 Z0.85 F7200 ; Z hop return
G1 E0.5 F2100 ; Un-retract
G1 X157.9204 Y99.22 E0.99515 F2400 ; Print pattern wall
G1 X136.7072 Y120.4332 E0.99515 F2400 ; Print pattern wall
G1 E-0.5 F2100 ; Retract
G1 Z0.95 F7200 ; Z hop
G0 X139.1572 Y78.0068 F7200 ; Move to next pattern
G1 Z0.85 F7200 ; Z hop return
G1 E0.5 F2100 ; Un-retract
SET_PRESSURE_ADVANCE ADVANCE=0.04 ; Set pressure advance
M117 PA 0.04
G1 X160.3704 Y99.22 E0.99515 F2400 ; Print pattern wall
G1 X139.1572 Y120.4332 E0.99515 F2400 ; Print pattern wall
G1 E-0.5 F2100 ; Retract
G1 Z0.95 F7200 ; Z hop
G0 X139.7329 Y78.0068 F7200 ; Move to start next pattern wall
G1 Z0.85 F7200 ; Z hop return
G1 E0.5 F2100 ; Un-retract
G1 X160.9461 Y99.22 E0.99515 F2400 ; Print pattern wall
G1 X139.7329 Y120.4332 E0.99515 F2400 ; Print pattern wall
G1 E-0.5 F2100 ; Retract
G1 Z0.95 F7200 ; Z hop
G0 X140.3086 Y78.0068 F7200 ; Move to start next pattern wall
G1 Z0.85 F7200 ; Z hop return
G1 E0.5 F2100 ; Un-retract
G1 X161.5218 Y99.22 E0.99515 F2400 ; Print pattern wall
G1 X140.3086 Y120.4332 E0.99515 F2400 ; Print pattern wall
G1 E-0.5 F2100 ; Retract
G1 Z0.95 F7200 ; Z hop
G0 X142.7586 Y78.0068 F7200 ; Move to next pattern
G1 Z0.85 F7200 ; Z hop return
G1 E0.5 F2100 ; Un-retract
SET_PRESSURE_ADVANCE ADVANCE=0.045 ; Set pressure advance
M117 PA 0.045
G1 X163.9718 Y99.22 E0.99515 F2400 ; Print pattern wall
G1 X142.7586 Y120.4332 E0.99515 F2400 ; Print pattern wall
G1 E-0.5 F2100 ; Retract
G1 Z0.95 F7200 ; Z hop
G0 X143.3343 Y78.0068 F7200 ; Move to start next pattern wall
G1 Z0.85 F7200 ; Z hop return
G1 E0.5 F2100 ; Un-retract
G1 X164.5475 Y99.22 E0.99515 F2400 ; Print pattern wall
G1 X143.3343 Y120.4332 E0.99515 F2400 ; Print pattern wall
G1 E-0.5 F2100 ; Retract
G1 Z0.95 F7200 ; Z hop
G0 X143.91 Y78.0068 F7200 ; Move to start next pattern wall
G1 Z0.85 F7200 ; Z hop return
G1 E0.5 F2100 ; Un-retract
G1 X165.1232 Y99.22 E0.99515 F2400 ; Print pattern wall
G1 X143.91 Y120.4332 E0.99515 F2400 ; Print pattern wall
G1 E-0.5 F2100 ; Retract
G1 Z0.95 F7200 ; Z hop
G0 X146.36 Y78.0068 F7200 ; Move to next pattern
G1 Z0.85 F7200 ; Z hop return
G1 E0.5 F2100 ; Un-retract
SET_PRESSURE_ADVANCE ADVANCE=0.05 ; Set pressure advance
M117 PA 0.05
G1 X167.5732 Y99.22 E0.99515 F2400 ; Print pattern wall
G1 X146.36 Y120.4332 E0.99515 F2400 ; Print pattern wall
G1 E-0.5 F2100 ; Retract
G1 Z0.95 F7200 ; Z hop
G0 X146.9357 Y78.0068 F7200 ; Move to start next pattern wall
G1 Z0.85 F7200 ; Z hop return
G1 E0.5 F2100 ; Un-retract
G1 X168.1489 Y99.22 E0.99515 F2400 ; Print pattern wall
G1 X146.9357 Y120.4332 E0.99515 F2400 ; Print pattern wall
G1 E-0.5 F2100 ; Retract
G1 Z0.95 F7200 ; Z hop
G0 X147.5113 Y78.0068 F7200 ; Move to start next pattern wall
G1 Z0.85 F7200 ; Z hop return
G1 E0.5 F2100 ; Un-retract
G1 X168.7246 Y99.22 E0.99515 F2400 ; Print pattern wall
G1 X147.5113 Y120.4332 E0.99515 F2400 ; Print pattern wall
G1 E-0.5 F2100 ; Retract
G1 Z0.95 F7200 ; Z hop
G0 X149.9613 Y78.0068 F7200 ; Move to next pattern
G1 Z0.85 F7200 ; Z hop return
G1 E0.5 F2100 ; Un-retract
SET_PRESSURE_ADVANCE ADVANCE=0.055 ; Set pressure advance
M117 PA 0.055
G1 X171.1746 Y99.22 E0.99515 F2400 ; Print pattern wall
G1 X149.9613 Y120.4332 E0.99515 F2400 ; Print pattern wall
G1 E-0.5 F2100 ; Retract
G1 Z0.95 F7200 ; Z hop
G0 X150.537 Y78.0068 F7200 ; Move to start next pattern wall
G1 Z0.85 F7200 ; Z hop return
G1 E0.5 F2100 ; Un-retract
G1 X171.7502 Y99.22 E0.99515 F2400 ; Print pattern wall
G1 X150.537 Y120.4332 E0.99515 F2400 ; Print pattern wall
G1 E-0.5 F2100 ; Retract
G1 Z0.95 F7200 ; Z hop
G0 X151.1127 Y78.0068 F7200 ; Move to start next pattern wall
G1 Z0.85 F7200 ; Z hop return
G1 E0.5 F2100 ; Un-retract
G1 X172.3259 Y99.22 E0.99515 F2400 ; Print pattern wall
G1 X151.1127 Y120.4332 E0.99515 F2400 ; Print pattern wall
G1 E-0.5 F2100 ; Retract
G1 Z0.95 F7200 ; Z hop
G0 X153.5627 Y78.0068 F7200 ; Move to next pattern
G1 Z0.85 F7200 ; Z hop return
G1 E0.5 F2100 ; Un-retract
SET_PRESSURE_ADVANCE ADVANCE=0.06 ; Set pressure advance
M117 PA 0.06
G1 X174.7759 Y99.22 E0.99515 F2400 ; Print pattern wall
G1 X153.5627 Y120.4332 E0.99515 F2400 ; Print pattern wall
G1 E-0.5 F2100 ; Retract
G1 Z0.95 F7200 ; Z hop
G0 X154.1384 Y78.0068 F7200 ; Move to start next pattern wall
G1 Z0.85 F7200 ; Z hop return
G1 E0.5 F2100 ; Un-retract
G1 X175.3516 Y99.22 E0.99515 F2400 ; Print pattern wall
G1 X154.1384 Y120.4332 E0.99515 F2400 ; Print pattern wall
G1 E-0.5 F2100 ; Retract
G1 Z0.95 F7200 ; Z hop
G0 X154.7141 Y78.0068 F7200 ; Move to start next pattern wall
G1 Z0.85 F7200 ; Z hop return
G1 E0.5 F2100 ; Un-retract
G1 X175.9273 Y99.22 E0.99515 F2400 ; Print pattern wall
G1 X154.7141 Y120.4332 E0.99515 F2400 ; Print pattern wall
G1 E-0.5 F2100 ; Retract
G1 Z0.95 F7200 ; Z hop
G0 X157.1641 Y78.0068 F7200 ; Move to next pattern
G1 Z0.85 F7200 ; Z hop return
G1 E0.5 F2100 ; Un-retract
SET_PRESSURE_ADVANCE ADVANCE=0.065 ; Set pressure advance
M117 PA 0.065
G1 X178.3773 Y99.22 E0.99515 F2400 ; Print pattern wall
G1 X157.1641 Y120.4332 E0.99515 F2400 ; Print pattern wall
G1 E-0.5 F2100 ; Retract
G1 Z0.95 F7200 ; Z hop
G0 X157.7398 Y78.0068 F7200 ; Move to start next pattern wall
G1 Z0.85 F7200 ; Z hop return
G1 E0.5 F2100 ; Un-retract
G1 X178.953 Y99.22 E0.99515 F2400 ; Print pattern wall
G1 X157.7398 Y120.4332 E0.99515 F2400 ; Print pattern wall
G1 E-0.5 F2100 ; Retract
G1 Z0.95 F7200 ; Z hop
G0 X158.3155 Y78.0068 F7200 ; Move to start next pattern wall
G1 Z0.85 F7200 ; Z hop return
G1 E0.5 F2100 ; Un-retract
G1 X179.5287 Y99.22 E0.99515 F2400 ; Print pattern wall
G1 X158.3155 Y120.4332 E0.99515 F2400 ; Print pattern wall
G1 E-0.5 F2100 ; Retract
G1 Z0.95 F7200 ; Z hop
G0 X160.7655 Y78.0068 F7200 ; Move to next pattern
G1 Z0.85 F7200 ; Z hop return
G1 E0.5 F2100 ; Un-retract
SET_PRESSURE_ADVANCE ADVANCE=0.07 ; Set pressure advance
M117 PA 0.07
G1 X181.9787 Y99.22 E0.99515 F2400 ; Print pattern wall
G1 X160.7655 Y120.4332 E0.99515 F2400 ; Print pattern wall
G1 E-0.5 F2100 ; Retract
G1 Z0.95 F7200 ; Z hop
G0 X161.3412 Y78.0068 F7200 ; Move to start next pattern wall
G1 Z0.85 F7200 ; Z hop return
G1 E0.5 F2100 ; Un-retract
G1 X182.5544 Y99.22 E0.99515 F2400 ; Print pattern wall
G1 X161.3412 Y120.4332 E0.99515 F2400 ; Print pattern wall
G1 E-0.5 F2100 ; Retract
G1 Z0.95 F7200 ; Z hop
G0 X161.9169 Y78.0068 F7200 ; Move to start next pattern wall
G1 Z0.85 F7200 ; Z hop return
G1 E0.5 F2100 ; Un-retract
G1 X183.1301 Y99.22 E0.99515 F2400 ; Print pattern wall
G1 X161.9169 Y120.4332 E0.99515 F2400 ; Print pattern wall
G1 E-0.5 F2100 ; Retract
G1 Z0.95 F7200 ; Z hop
G0 X164.3669 Y78.0068 F7200 ; Move to next pattern
G1 Z0.85 F7200 ; Z hop return
G1 E0.5 F2100 ; Un-retract
SET_PRESSURE_ADVANCE ADVANCE=0.075 ; Set pressure advance
M117 PA 0.075
G1 X185.5801 Y99.22 E0.99515 F2400 ; Print pattern wall
G1 X164.3669 Y120.4332 E0.99515 F2400 ; Print pattern wall
G1 E-0.5 F2100 ; Retract
G1 Z0.95 F7200 ; Z hop
G0 X164.9426 Y78.0068 F7200 ; Move to start next pattern wall
G1 Z0.85 F7200 ; Z hop return
G1 E0.5 F2100 ; Un-retract
G1 X186.1558 Y99.22 E0.99515 F2400 ; Print pattern wall
G1 X164.9426 Y120.4332 E0.99515 F2400 ; Print pattern wall
G1 E-0.5 F2100 ; Retract
G1 Z0.95 F7200 ; Z hop
G0 X165.5183 Y78.0068 F7200 ; Move to start next pattern wall
G1 Z0.85 F7200 ; Z hop return
G1 E0.5 F2100 ; Un-retract
G1 X186.7315 Y99.22 E0.99515 F2400 ; Print pattern wall
G1 X165.5183 Y120.4332 E0.99515 F2400 ; Print pattern wall
G1 E-0.5 F2100 ; Retract
G1 Z0.95 F7200 ; Z hop
G0 X167.9683 Y78.0068 F7200 ; Move to next pattern
G1 Z0.85 F7200 ; Z hop return
G1 E0.5 F2100 ; Un-retract
SET_PRESSURE_ADVANCE ADVANCE=0.08 ; Set pressure advance
M117 PA 0.08
G1 X189.1815 Y99.22 E0.99515 F2400 ; Print pattern wall
G1 X167.9683 Y120.4332 E0.99515 F2400 ; Print pattern wall
G1 E-0.5 F2100 ; Retract
G1 Z0.95 F7200 ; Z hop
G0 X168.544 Y78.0068 F7200 ; Move to start next pattern wall
G1 Z0.85 F7200 ; Z hop return
G1 E0.5 F2100 ; Un-retract
G1 X189.7572 Y99.22 E0.99515 F2400 ; Print pattern wall
G1 X168.544 Y120.4332 E0.99515 F2400 ; Print pattern wall
G1 E-0.5 F2100 ; Retract
G1 Z0.95 F7200 ; Z hop
G0 X169.1197 Y78.0068 F7200 ; Move to start next pattern wall
G1 Z0.85 F7200 ; Z hop return
G1 E0.5 F2100 ; Un-retract
G1 X190.3329 Y99.22 E0.99515 F2400 ; Print pattern wall
G1 X169.1197 Y120.4332 E0.99515 F2400 ; Print pattern wall
SET_PRESSURE_ADVANCE ADVANCE=0 ; Set pressure advance back to start value
M117 PA 0
G1 E-0.5 F2100 ; Retract
G1 Z0.95 F7200 ; Z hop
G0 Z5.85 F7200 ; Z raise
M104 S0 ; Turn off hotend
M140 S0 ; Turn off bed
M107    ; Turn off fan
;
; End G-code
;
PRINT_END ; End macro. Change name to match yours
;
; FINISH
;
