
; ### Ellis' Pressure Advance / Linear Advance Calibration Tool ###
;
; Original Marlin linear advance calibration tool by Sineos [https://github.com/Sineos]
; Heavily modified/rewritten by Andrew Ellis [https://github.com/AndrewEllis93]
;
; -------------------------------------------
; Generated: Sat Mar 23 2024 19:05:16 GMT+0400 (Mauritius Standard Time)
; -------------------------------------------
;
; Advanced Mode: false
;
; Printer:
;  - Firmware: klipper
;  - Bed Shape: Rect
;  - Bed Size X: 200 mm
;  - Bed Size Y: 200 mm
;  - Origin Bed Center: false
;  - Travel Speed: 120 mm/s
;  - Nozzle Diameter: 0.4 mm
;  - Filament Diameter: 1.75 mm
;  - Extrusion Multiplier: 0.98
;
; Retraction / Z Hop:
;  - Retraction Distance: 0.5 mm
;  - Retract Speed: 35 mm/s
;  - Unretract Speed: 35 mm/s
;  - Z Hop Enable: true
;  - Z Hop Height: 0.1mm
;
; First Layer Settings:
;  - First Layer Height: 0.25 mm
;  - First Layer Printing Speed: 25 mm/s
;  - First Layer Fan Speed: 0%
;  - Anchor Option: anchor_layer
;
; Print Settings:
;  - Layer Height: 0.2 mm
;  - Print Speed: 60 mm/s
;  - Acceleration: Disabled
;  - Fan Speed: 100%
;
; Pressure Advance Stepping:
;  - PA Start Value: 0
;  - PA End Value: 0.08
;  - PA Increment: 0.005
;
; Start / End G-code:
;  - Hotend Temp: 200C
;  - Bed Temp: 0C
;  - Don't Add G28: false
;  - Don't Add Heating G-Codes: false
;  - Entered Start G-code: 
;       G28 ; Home all axes
;       M190 S0 ; Set & wait for bed temp
;       M109 S200 ; Set & wait for hotend temp
;       PRINT_START EXTRUDER=200 BED=0
;  - Entered End G-code: 
;       PRINT_END ; End macro. Change name to match yours
;
; Calculated Values:
;  - Print Size X: 82.69 mm
;  - Print Size Y: 53.99 mm
;  - Number of Patterns to Print: 17
;  - PA Values: 0, 0.005, 0.01, 0.015, 0.02, 0.025, 0.03, 0.035, 0.04, 0.045, 0.05, 0.055, 0.06, 0.065, 0.07, 0.075, 0.08
;
; Prepare printing
;
G28 ; Home all axes
M190 S0 ; Set & wait for bed temp
M109 S200 ; Set & wait for hotend temp
PRINT_START EXTRUDER=200 BED=0
G21 ; Millimeter units
G90 ; Absolute XYZ
M83 ; Relative E
G92 E0 ; Reset extruder distance
;
;  Begin printing
;
M106 S0 ; Set fan speed
G1 E-0.5 F2100 ; Retract
G0 Z5 F7200 ; Z raise
G0 X58.6544 Y73.0068 F7200 ; Move to start position
G0 Z0.25 F7200 ; Move to start layer height
G1 E0.5 F2100 ; Un-retract
SET_PRESSURE_ADVANCE ADVANCE=0 ; Set pressure advance to start value
M117 PA 0
G1 X58.6544 Y115.4332 E2.1882 F1500 ; Draw perimeter (up)
G1 X141.3456 Y115.4332 E4.26491 F1500 ; Draw perimeter (right)
G1 X141.3456 Y73.0068 E2.1882 F1500 ; Draw perimeter (down)
G1 X58.6544 Y73.0068 E4.26491 F1500 ; Draw perimeter (left)
G0 X59.1607 Y73.5131 F7200 ; Step inwards to print next perimeter
G1 X59.1607 Y114.9269 E2.13597 F1500 ; Draw perimeter (up)
G1 X140.8393 Y114.9269 E4.21268 F1500 ; Draw perimeter (right)
G1 X140.8393 Y73.5131 E2.13597 F1500 ; Draw perimeter (down)
G1 X59.1607 Y73.5131 E4.21268 F1500 ; Draw perimeter (left)
G0 X59.6671 Y74.0195 F7200 ; Step inwards to print next perimeter
G1 X59.6671 Y114.4205 E2.08374 F1500 ; Draw perimeter (up)
G1 X140.3329 Y114.4205 E4.16045 F1500 ; Draw perimeter (right)
G1 X140.3329 Y74.0195 E2.08374 F1500 ; Draw perimeter (down)
G1 X59.6671 Y74.0195 E4.16045 F1500 ; Draw perimeter (left)
G0 X60.1734 Y74.5258 F7200 ; Step inwards to print next perimeter
G1 X60.1734 Y113.9142 E2.0315 F1500 ; Draw perimeter (up)
G1 X139.8266 Y113.9142 E4.10822 F1500 ; Draw perimeter (right)
G1 X139.8266 Y74.5258 E2.0315 F1500 ; Draw perimeter (down)
G1 X60.1734 Y74.5258 E4.10822 F1500 ; Draw perimeter (left)
G0 X60.5468 Y74.8992 F7200 ; Move to fill start
G0 X61.2629 Y74.8992 F7200 ; Move
G1 X60.5468 Y75.6153 E0.05223 F1500 ; Fill
G0 X60.5468 Y76.3314 F7200 ; Move
G1 X61.979 Y74.8992 E0.10446 F1500 ; Fill
G0 X62.695 Y74.8992 F7200 ; Move
G1 X60.5468 Y77.0474 E0.15669 F1500 ; Fill
G0 X60.5468 Y77.7635 F7200 ; Move
G1 X63.4111 Y74.8992 E0.20893 F1500 ; Fill
G0 X64.1272 Y74.8992 F7200 ; Move
G1 X60.5468 Y78.4796 E0.26116 F1500 ; Fill
G0 X60.5468 Y79.1957 F7200 ; Move
G1 X64.8433 Y74.8992 E0.31339 F1500 ; Fill
G0 X65.5594 Y74.8992 F7200 ; Move
G1 X60.5468 Y79.9118 E0.36562 F1500 ; Fill
G0 X60.5468 Y80.6279 F7200 ; Move
G1 X66.2755 Y74.8992 E0.41785 F1500 ; Fill
G0 X66.9916 Y74.8992 F7200 ; Move
G1 X60.5468 Y81.344 E0.47008 F1500 ; Fill
G0 X60.5468 Y82.06 F7200 ; Move
G1 X67.7076 Y74.8992 E0.52231 F1500 ; Fill
G0 X68.4237 Y74.8992 F7200 ; Move
G1 X60.5468 Y82.7761 E0.57454 F1500 ; Fill
G0 X60.5468 Y83.4922 F7200 ; Move
G1 X69.1398 Y74.8992 E0.62678 F1500 ; Fill
G0 X69.8559 Y74.8992 F7200 ; Move
G1 X60.5468 Y84.2083 E0.67901 F1500 ; Fill
G0 X60.5468 Y84.9244 F7200 ; Move
G1 X70.572 Y74.8992 E0.73124 F1500 ; Fill
G0 X71.2881 Y74.8992 F7200 ; Move
G1 X60.5468 Y85.6405 E0.78347 F1500 ; Fill
G0 X60.5468 Y86.3566 F7200 ; Move
G1 X72.0042 Y74.8992 E0.8357 F1500 ; Fill
G0 X72.7202 Y74.8992 F7200 ; Move
G1 X60.5468 Y87.0727 E0.88793 F1500 ; Fill
G0 X60.5468 Y87.7887 F7200 ; Move
G1 X73.4363 Y74.8992 E0.94016 F1500 ; Fill
G0 X74.1524 Y74.8992 F7200 ; Move
G1 X60.5468 Y88.5048 E0.99239 F1500 ; Fill
G0 X60.5468 Y89.2209 F7200 ; Move
G1 X74.8685 Y74.8992 E1.04463 F1500 ; Fill
G0 X75.5846 Y74.8992 F7200 ; Move
G1 X60.5468 Y89.937 E1.09686 F1500 ; Fill
G0 X60.5468 Y90.6531 F7200 ; Move
G1 X76.3007 Y74.8992 E1.14909 F1500 ; Fill
G0 X77.0168 Y74.8992 F7200 ; Move
G1 X60.5468 Y91.3692 E1.20132 F1500 ; Fill
G0 X60.5468 Y92.0853 F7200 ; Move
G1 X77.7329 Y74.8992 E1.25355 F1500 ; Fill
G0 X78.4489 Y74.8992 F7200 ; Move
G1 X60.5468 Y92.8013 E1.30578 F1500 ; Fill
G0 X60.5468 Y93.5174 F7200 ; Move
G1 X79.165 Y74.8992 E1.35801 F1500 ; Fill
G0 X79.8811 Y74.8992 F7200 ; Move
G1 X60.5468 Y94.2335 E1.41025 F1500 ; Fill
G0 X60.5468 Y94.9496 F7200 ; Move
G1 X80.5972 Y74.8992 E1.46248 F1500 ; Fill
G0 X81.3133 Y74.8992 F7200 ; Move
G1 X60.5468 Y95.6657 E1.51471 F1500 ; Fill
G0 X60.5468 Y96.3818 F7200 ; Move
G1 X82.0294 Y74.8992 E1.56694 F1500 ; Fill
G0 X82.7455 Y74.8992 F7200 ; Move
G1 X60.5468 Y97.0979 E1.61917 F1500 ; Fill
G0 X60.5468 Y97.8139 F7200 ; Move
G1 X83.4615 Y74.8992 E1.6714 F1500 ; Fill
G0 X84.1776 Y74.8992 F7200 ; Move
G1 X60.5468 Y98.53 E1.72363 F1500 ; Fill
G0 X60.5468 Y99.2461 F7200 ; Move
G1 X84.8937 Y74.8992 E1.77586 F1500 ; Fill
G0 X85.6098 Y74.8992 F7200 ; Move
G1 X60.5468 Y99.9622 E1.8281 F1500 ; Fill
G0 X60.5468 Y100.6783 F7200 ; Move
G1 X86.3259 Y74.8992 E1.88033 F1500 ; Fill
G0 X87.042 Y74.8992 F7200 ; Move
G1 X60.5468 Y101.3944 E1.93256 F1500 ; Fill
G0 X60.5468 Y102.1105 F7200 ; Move
G1 X87.7581 Y74.8992 E1.98479 F1500 ; Fill
G0 X88.4741 Y74.8992 F7200 ; Move
G1 X60.5468 Y102.8266 E2.03702 F1500 ; Fill
G0 X60.5468 Y103.5426 F7200 ; Move
G1 X89.1902 Y74.8992 E2.08925 F1500 ; Fill
G0 X89.9063 Y74.8992 F7200 ; Move
G1 X60.5468 Y104.2587 E2.14148 F1500 ; Fill
G0 X60.5468 Y104.9748 F7200 ; Move
G1 X90.6224 Y74.8992 E2.19372 F1500 ; Fill
G0 X91.3385 Y74.8992 F7200 ; Move
G1 X60.5468 Y105.6909 E2.24595 F1500 ; Fill
G0 X60.5468 Y106.407 F7200 ; Move
G1 X92.0546 Y74.8992 E2.29818 F1500 ; Fill
G0 X92.7707 Y74.8992 F7200 ; Move
G1 X60.5468 Y107.1231 E2.35041 F1500 ; Fill
G0 X60.5468 Y107.8392 F7200 ; Move
G1 X93.4868 Y74.8992 E2.40264 F1500 ; Fill
G0 X94.2028 Y74.8992 F7200 ; Move
G1 X60.5468 Y108.5552 E2.45487 F1500 ; Fill
G0 X60.5468 Y109.2713 F7200 ; Move
G1 X94.9189 Y74.8992 E2.5071 F1500 ; Fill
G0 X95.635 Y74.8992 F7200 ; Move
G1 X60.5468 Y109.9874 E2.55933 F1500 ; Fill
G0 X60.5468 Y110.7035 F7200 ; Move
G1 X96.3511 Y74.8992 E2.61157 F1500 ; Fill
G0 X97.0672 Y74.8992 F7200 ; Move
G1 X60.5468 Y111.4196 E2.6638 F1500 ; Fill
G0 X60.5468 Y112.1357 F7200 ; Move
G1 X97.7833 Y74.8992 E2.71603 F1500 ; Fill
G0 X98.4994 Y74.8992 F7200 ; Move
G1 X60.5468 Y112.8518 E2.76826 F1500 ; Fill
G0 X60.5738 Y113.5408 F7200 ; Move
G1 X99.2154 Y74.8992 E2.81852 F1500 ; Fill
G0 X99.9315 Y74.8992 F7200 ; Move
G1 X61.2899 Y113.5408 E2.81852 F1500 ; Fill
G0 X62.006 Y113.5408 F7200 ; Move
G1 X100.6476 Y74.8992 E2.81852 F1500 ; Fill
G0 X101.3637 Y74.8992 F7200 ; Move
G1 X62.7221 Y113.5408 E2.81852 F1500 ; Fill
G0 X63.4381 Y113.5408 F7200 ; Move
G1 X102.0798 Y74.8992 E2.81852 F1500 ; Fill
G0 X102.7959 Y74.8992 F7200 ; Move
G1 X64.1542 Y113.5408 E2.81852 F1500 ; Fill
G0 X64.8703 Y113.5408 F7200 ; Move
G1 X103.512 Y74.8992 E2.81852 F1500 ; Fill
G0 X104.2281 Y74.8992 F7200 ; Move
G1 X65.5864 Y113.5408 E2.81852 F1500 ; Fill
G0 X66.3025 Y113.5408 F7200 ; Move
G1 X104.9441 Y74.8992 E2.81852 F1500 ; Fill
G0 X105.6602 Y74.8992 F7200 ; Move
G1 X67.0186 Y113.5408 E2.81852 F1500 ; Fill
G0 X67.7347 Y113.5408 F7200 ; Move
G1 X106.3763 Y74.8992 E2.81852 F1500 ; Fill
G0 X107.0924 Y74.8992 F7200 ; Move
G1 X68.4508 Y113.5408 E2.81852 F1500 ; Fill
G0 X69.1668 Y113.5408 F7200 ; Move
G1 X107.8085 Y74.8992 E2.81852 F1500 ; Fill
G0 X108.5246 Y74.8992 F7200 ; Move
G1 X69.8829 Y113.5408 E2.81852 F1500 ; Fill
G0 X70.599 Y113.5408 F7200 ; Move
G1 X109.2407 Y74.8992 E2.81852 F1500 ; Fill
G0 X109.9567 Y74.8992 F7200 ; Move
G1 X71.3151 Y113.5408 E2.81852 F1500 ; Fill
G0 X72.0312 Y113.5408 F7200 ; Move
G1 X110.6728 Y74.8992 E2.81852 F1500 ; Fill
G0 X111.3889 Y74.8992 F7200 ; Move
G1 X72.7473 Y113.5408 E2.81852 F1500 ; Fill
G0 X73.4634 Y113.5408 F7200 ; Move
G1 X112.105 Y74.8992 E2.81852 F1500 ; Fill
G0 X112.8211 Y74.8992 F7200 ; Move
G1 X74.1794 Y113.5408 E2.81852 F1500 ; Fill
G0 X74.8955 Y113.5408 F7200 ; Move
G1 X113.5372 Y74.8992 E2.81852 F1500 ; Fill
G0 X114.2533 Y74.8992 F7200 ; Move
G1 X75.6116 Y113.5408 E2.81852 F1500 ; Fill
G0 X76.3277 Y113.5408 F7200 ; Move
G1 X114.9693 Y74.8992 E2.81852 F1500 ; Fill
G0 X115.6854 Y74.8992 F7200 ; Move
G1 X77.0438 Y113.5408 E2.81852 F1500 ; Fill
G0 X77.7599 Y113.5408 F7200 ; Move
G1 X116.4015 Y74.8992 E2.81852 F1500 ; Fill
G0 X117.1176 Y74.8992 F7200 ; Move
G1 X78.476 Y113.5408 E2.81852 F1500 ; Fill
G0 X79.192 Y113.5408 F7200 ; Move
G1 X117.8337 Y74.8992 E2.81852 F1500 ; Fill
G0 X118.5498 Y74.8992 F7200 ; Move
G1 X79.9081 Y113.5408 E2.81852 F1500 ; Fill
G0 X80.6242 Y113.5408 F7200 ; Move
G1 X119.2659 Y74.8992 E2.81852 F1500 ; Fill
G0 X119.982 Y74.8992 F7200 ; Move
G1 X81.3403 Y113.5408 E2.81852 F1500 ; Fill
G0 X82.0564 Y113.5408 F7200 ; Move
G1 X120.698 Y74.8992 E2.81852 F1500 ; Fill
G0 X121.4141 Y74.8992 F7200 ; Move
G1 X82.7725 Y113.5408 E2.81852 F1500 ; Fill
G0 X83.4886 Y113.5408 F7200 ; Move
G1 X122.1302 Y74.8992 E2.81852 F1500 ; Fill
G0 X122.8463 Y74.8992 F7200 ; Move
G1 X84.2047 Y113.5408 E2.81852 F1500 ; Fill
G0 X84.9207 Y113.5408 F7200 ; Move
G1 X123.5624 Y74.8992 E2.81852 F1500 ; Fill
G0 X124.2785 Y74.8992 F7200 ; Move
G1 X85.6368 Y113.5408 E2.81852 F1500 ; Fill
G0 X86.3529 Y113.5408 F7200 ; Move
G1 X124.9946 Y74.8992 E2.81852 F1500 ; Fill
G0 X125.7106 Y74.8992 F7200 ; Move
G1 X87.069 Y113.5408 E2.81852 F1500 ; Fill
G0 X87.7851 Y113.5408 F7200 ; Move
G1 X126.4267 Y74.8992 E2.81852 F1500 ; Fill
G0 X127.1428 Y74.8992 F7200 ; Move
G1 X88.5012 Y113.5408 E2.81852 F1500 ; Fill
G0 X89.2173 Y113.5408 F7200 ; Move
G1 X127.8589 Y74.8992 E2.81852 F1500 ; Fill
G0 X128.575 Y74.8992 F7200 ; Move
G1 X89.9333 Y113.5408 E2.81852 F1500 ; Fill
G0 X90.6494 Y113.5408 F7200 ; Move
G1 X129.2911 Y74.8992 E2.81852 F1500 ; Fill
G0 X130.0072 Y74.8992 F7200 ; Move
G1 X91.3655 Y113.5408 E2.81852 F1500 ; Fill
G0 X92.0816 Y113.5408 F7200 ; Move
G1 X130.7232 Y74.8992 E2.81852 F1500 ; Fill
G0 X131.4393 Y74.8992 F7200 ; Move
G1 X92.7977 Y113.5408 E2.81852 F1500 ; Fill
G0 X93.5138 Y113.5408 F7200 ; Move
G1 X132.1554 Y74.8992 E2.81852 F1500 ; Fill
G0 X132.8715 Y74.8992 F7200 ; Move
G1 X94.2299 Y113.5408 E2.81852 F1500 ; Fill
G0 X94.9459 Y113.5408 F7200 ; Move
G1 X133.5876 Y74.8992 E2.81852 F1500 ; Fill
G0 X134.3037 Y74.8992 F7200 ; Move
G1 X95.662 Y113.5408 E2.81852 F1500 ; Fill
G0 X96.3781 Y113.5408 F7200 ; Move
G1 X135.0198 Y74.8992 E2.81852 F1500 ; Fill
G0 X135.7359 Y74.8992 F7200 ; Move
G1 X97.0942 Y113.5408 E2.81852 F1500 ; Fill
G0 X97.8103 Y113.5408 F7200 ; Move
G1 X136.4519 Y74.8992 E2.81852 F1500 ; Fill
G0 X137.168 Y74.8992 F7200 ; Move
G1 X98.5264 Y113.5408 E2.81852 F1500 ; Fill
G0 X99.2425 Y113.5408 F7200 ; Move
G1 X137.8841 Y74.8992 E2.81852 F1500 ; Fill
G0 X138.6002 Y74.8992 F7200 ; Move
G1 X99.9586 Y113.5408 E2.81852 F1500 ; Fill
G0 X100.6746 Y113.5408 F7200 ; Move
G1 X139.3163 Y74.8992 E2.81852 F1500 ; Fill
G0 X139.4532 Y75.4783 F7200 ; Move
G1 X101.3907 Y113.5408 E2.77628 F1500 ; Fill
G0 X102.1068 Y113.5408 F7200 ; Move
G1 X139.4532 Y76.1944 E2.72405 F1500 ; Fill
G0 X139.4532 Y76.9105 F7200 ; Move
G1 X102.8229 Y113.5408 E2.67181 F1500 ; Fill
G0 X103.539 Y113.5408 F7200 ; Move
G1 X139.4532 Y77.6266 E2.61958 F1500 ; Fill
G0 X139.4532 Y78.3427 F7200 ; Move
G1 X104.2551 Y113.5408 E2.56735 F1500 ; Fill
G0 X104.9712 Y113.5408 F7200 ; Move
G1 X139.4532 Y79.0588 E2.51512 F1500 ; Fill
G0 X139.4532 Y79.7749 F7200 ; Move
G1 X105.6872 Y113.5408 E2.46289 F1500 ; Fill
G0 X106.4033 Y113.5408 F7200 ; Move
G1 X139.4532 Y80.4909 E2.41066 F1500 ; Fill
G0 X139.4532 Y81.207 F7200 ; Move
G1 X107.1194 Y113.5408 E2.35843 F1500 ; Fill
G0 X107.8355 Y113.5408 F7200 ; Move
G1 X139.4532 Y81.9231 E2.30619 F1500 ; Fill
G0 X139.4532 Y82.6392 F7200 ; Move
G1 X108.5516 Y113.5408 E2.25396 F1500 ; Fill
G0 X109.2677 Y113.5408 F7200 ; Move
G1 X139.4532 Y83.3553 E2.20173 F1500 ; Fill
G0 X139.4532 Y84.0714 F7200 ; Move
G1 X109.9838 Y113.5408 E2.1495 F1500 ; Fill
G0 X110.6998 Y113.5408 F7200 ; Move
G1 X139.4532 Y84.7875 E2.09727 F1500 ; Fill
G0 X139.4532 Y85.5035 F7200 ; Move
G1 X111.4159 Y113.5408 E2.04504 F1500 ; Fill
G0 X112.132 Y113.5408 F7200 ; Move
G1 X139.4532 Y86.2196 E1.99281 F1500 ; Fill
G0 X139.4532 Y86.9357 F7200 ; Move
G1 X112.8481 Y113.5408 E1.94058 F1500 ; Fill
G0 X113.5642 Y113.5408 F7200 ; Move
G1 X139.4532 Y87.6518 E1.88834 F1500 ; Fill
G0 X139.4532 Y88.3679 F7200 ; Move
G1 X114.2803 Y113.5408 E1.83611 F1500 ; Fill
G0 X114.9964 Y113.5408 F7200 ; Move
G1 X139.4532 Y89.084 E1.78388 F1500 ; Fill
G0 X139.4532 Y89.8001 F7200 ; Move
G1 X115.7125 Y113.5408 E1.73165 F1500 ; Fill
G0 X116.4285 Y113.5408 F7200 ; Move
G1 X139.4532 Y90.5161 E1.67942 F1500 ; Fill
G0 X139.4532 Y91.2322 F7200 ; Move
G1 X117.1446 Y113.5408 E1.62719 F1500 ; Fill
G0 X117.8607 Y113.5408 F7200 ; Move
G1 X139.4532 Y91.9483 E1.57496 F1500 ; Fill
G0 X139.4532 Y92.6644 F7200 ; Move
G1 X118.5768 Y113.5408 E1.52273 F1500 ; Fill
G0 X119.2929 Y113.5408 F7200 ; Move
G1 X139.4532 Y93.3805 E1.47049 F1500 ; Fill
G0 X139.4532 Y94.0966 F7200 ; Move
G1 X120.009 Y113.5408 E1.41826 F1500 ; Fill
G0 X120.7251 Y113.5408 F7200 ; Move
G1 X139.4532 Y94.8127 E1.36603 F1500 ; Fill
G0 X139.4532 Y95.5288 F7200 ; Move
G1 X121.4411 Y113.5408 E1.3138 F1500 ; Fill
G0 X122.1572 Y113.5408 F7200 ; Move
G1 X139.4532 Y96.2448 E1.26157 F1500 ; Fill
G0 X139.4532 Y96.9609 F7200 ; Move
G1 X122.8733 Y113.5408 E1.20934 F1500 ; Fill
G0 X123.5894 Y113.5408 F7200 ; Move
G1 X139.4532 Y97.677 E1.15711 F1500 ; Fill
G0 X139.4532 Y98.3931 F7200 ; Move
G1 X124.3055 Y113.5408 E1.10487 F1500 ; Fill
G0 X125.0216 Y113.5408 F7200 ; Move
G1 X139.4532 Y99.1092 E1.05264 F1500 ; Fill
G0 X139.4532 Y99.8253 F7200 ; Move
G1 X125.7377 Y113.5408 E1.00041 F1500 ; Fill
G0 X126.4538 Y113.5408 F7200 ; Move
G1 X139.4532 Y100.5414 E0.94818 F1500 ; Fill
G0 X139.4532 Y101.2574 F7200 ; Move
G1 X127.1698 Y113.5408 E0.89595 F1500 ; Fill
G0 X127.8859 Y113.5408 F7200 ; Move
G1 X139.4532 Y101.9735 E0.84372 F1500 ; Fill
G0 X139.4532 Y102.6896 F7200 ; Move
G1 X128.602 Y113.5408 E0.79149 F1500 ; Fill
G0 X129.3181 Y113.5408 F7200 ; Move
G1 X139.4532 Y103.4057 E0.73926 F1500 ; Fill
G0 X139.4532 Y104.1218 F7200 ; Move
G1 X130.0342 Y113.5408 E0.68702 F1500 ; Fill
G0 X130.7503 Y113.5408 F7200 ; Move
G1 X139.4532 Y104.8379 E0.63479 F1500 ; Fill
G0 X139.4532 Y105.554 F7200 ; Move
G1 X131.4664 Y113.5408 E0.58256 F1500 ; Fill
G0 X132.1824 Y113.5408 F7200 ; Move
G1 X139.4532 Y106.27 E0.53033 F1500 ; Fill
G0 X139.4532 Y106.9861 F7200 ; Move
G1 X132.8985 Y113.5408 E0.4781 F1500 ; Fill
G0 X133.6146 Y113.5408 F7200 ; Move
G1 X139.4532 Y107.7022 E0.42587 F1500 ; Fill
G0 X139.4532 Y108.4183 F7200 ; Move
G1 X134.3307 Y113.5408 E0.37364 F1500 ; Fill
G0 X135.0468 Y113.5408 F7200 ; Move
G1 X139.4532 Y109.1344 E0.3214 F1500 ; Fill
G0 X139.4532 Y109.8505 F7200 ; Move
G1 X135.7629 Y113.5408 E0.26917 F1500 ; Fill
G0 X136.479 Y113.5408 F7200 ; Move
G1 X139.4532 Y110.5666 E0.21694 F1500 ; Fill
G0 X139.4532 Y111.2827 F7200 ; Move
G1 X137.195 Y113.5408 E0.16471 F1500 ; Fill
G0 X137.9111 Y113.5408 F7200 ; Move
G1 X139.4532 Y111.9987 E0.11248 F1500 ; Fill
G0 X139.4532 Y112.7148 F7200 ; Move
G1 X138.6272 Y113.5408 E0.06025 F1500 ; Fill
G1 E-0.5 F2100 ; Retract
G1 Z0.35 F7200 ; Z hop
G0 X58.6544 Y115.9396 F7200 ; Move to box start
G1 Z0.25 F7200 ; Z hop return
G1 E0.5 F2100 ; Un-retract
G1 X58.6544 Y127.4459 E0.59346 F1500 ; Draw perimeter (up)
G1 X122.9089 Y127.4459 E3.31401 F1500 ; Draw perimeter (right)
G1 X122.9089 Y115.9396 E0.59346 F1500 ; Draw perimeter (down)
G1 X58.6544 Y115.9396 E3.31401 F1500 ; Draw perimeter (left)
G0 X59.1607 Y116.4459 F7200 ; Step inwards to print next perimeter
G1 X59.1607 Y126.9396 E0.54122 F1500 ; Draw perimeter (up)
G1 X122.4025 Y126.9396 E3.26178 F1500 ; Draw perimeter (right)
G1 X122.4025 Y116.4459 E0.54122 F1500 ; Draw perimeter (down)
G1 X59.1607 Y116.4459 E3.26178 F1500 ; Draw perimeter (left)
G0 X59.6671 Y116.9523 F7200 ; Step inwards to print next perimeter
G1 X59.6671 Y126.4332 E0.48899 F1500 ; Draw perimeter (up)
G1 X121.8962 Y126.4332 E3.20955 F1500 ; Draw perimeter (right)
G1 X121.8962 Y116.9523 E0.48899 F1500 ; Draw perimeter (down)
G1 X59.6671 Y116.9523 E3.20955 F1500 ; Draw perimeter (left)
G0 X60.1734 Y117.4586 F7200 ; Step inwards to print next perimeter
G1 X60.1734 Y125.9269 E0.43676 F1500 ; Draw perimeter (up)
G1 X121.3898 Y125.9269 E3.15732 F1500 ; Draw perimeter (right)
G1 X121.3898 Y117.4586 E0.43676 F1500 ; Draw perimeter (down)
G1 X60.1734 Y117.4586 E3.15732 F1500 ; Draw perimeter (left)
G0 X60.5468 Y117.8319 F7200 ; Move to fill start
G0 X61.2629 Y117.8319 F7200 ; Move
G1 X60.5468 Y118.548 E0.05223 F1500 ; Fill
G0 X60.5468 Y119.2641 F7200 ; Move
G1 X61.979 Y117.8319 E0.10446 F1500 ; Fill
G0 X62.695 Y117.8319 F7200 ; Move
G1 X60.5468 Y119.9802 E0.15669 F1500 ; Fill
G0 X60.5468 Y120.6963 F7200 ; Move
G1 X63.4111 Y117.8319 E0.20893 F1500 ; Fill
G0 X64.1272 Y117.8319 F7200 ; Move
G1 X60.5468 Y121.4124 E0.26116 F1500 ; Fill
G0 X60.5468 Y122.1285 F7200 ; Move
G1 X64.8433 Y117.8319 E0.31339 F1500 ; Fill
G0 X65.5594 Y117.8319 F7200 ; Move
G1 X60.5468 Y122.8445 E0.36562 F1500 ; Fill
G0 X60.5468 Y123.5606 F7200 ; Move
G1 X66.2755 Y117.8319 E0.41785 F1500 ; Fill
G0 X66.9916 Y117.8319 F7200 ; Move
G1 X60.5468 Y124.2767 E0.47008 F1500 ; Fill
G0 X60.5468 Y124.9928 F7200 ; Move
G1 X67.7076 Y117.8319 E0.52231 F1500 ; Fill
G0 X68.4237 Y117.8319 F7200 ; Move
G1 X60.7021 Y125.5535 E0.56321 F1500 ; Fill
G0 X61.4182 Y125.5535 F7200 ; Move
G1 X69.1398 Y117.8319 E0.56321 F1500 ; Fill
G0 X69.8559 Y117.8319 F7200 ; Move
G1 X62.1343 Y125.5535 E0.56321 F1500 ; Fill
G0 X62.8504 Y125.5535 F7200 ; Move
G1 X70.572 Y117.8319 E0.56321 F1500 ; Fill
G0 X71.2881 Y117.8319 F7200 ; Move
G1 X63.5665 Y125.5535 E0.56321 F1500 ; Fill
G0 X64.2826 Y125.5535 F7200 ; Move
G1 X72.0042 Y117.8319 E0.56321 F1500 ; Fill
G0 X72.7202 Y117.8319 F7200 ; Move
G1 X64.9987 Y125.5535 E0.56321 F1500 ; Fill
G0 X65.7148 Y125.5535 F7200 ; Move
G1 X73.4363 Y117.8319 E0.56321 F1500 ; Fill
G0 X74.1524 Y117.8319 F7200 ; Move
G1 X66.4308 Y125.5535 E0.56321 F1500 ; Fill
G0 X67.1469 Y125.5535 F7200 ; Move
G1 X74.8685 Y117.8319 E0.56321 F1500 ; Fill
G0 X75.5846 Y117.8319 F7200 ; Move
G1 X67.863 Y125.5535 E0.56321 F1500 ; Fill
G0 X68.5791 Y125.5535 F7200 ; Move
G1 X76.3007 Y117.8319 E0.56321 F1500 ; Fill
G0 X77.0168 Y117.8319 F7200 ; Move
G1 X69.2952 Y125.5535 E0.56321 F1500 ; Fill
G0 X70.0113 Y125.5535 F7200 ; Move
G1 X77.7329 Y117.8319 E0.56321 F1500 ; Fill
G0 X78.4489 Y117.8319 F7200 ; Move
G1 X70.7274 Y125.5535 E0.56321 F1500 ; Fill
G0 X71.4434 Y125.5535 F7200 ; Move
G1 X79.165 Y117.8319 E0.56321 F1500 ; Fill
G0 X79.8811 Y117.8319 F7200 ; Move
G1 X72.1595 Y125.5535 E0.56321 F1500 ; Fill
G0 X72.8756 Y125.5535 F7200 ; Move
G1 X80.5972 Y117.8319 E0.56321 F1500 ; Fill
G0 X81.3133 Y117.8319 F7200 ; Move
G1 X73.5917 Y125.5535 E0.56321 F1500 ; Fill
G0 X74.3078 Y125.5535 F7200 ; Move
G1 X82.0294 Y117.8319 E0.56321 F1500 ; Fill
G0 X82.7455 Y117.8319 F7200 ; Move
G1 X75.0239 Y125.5535 E0.56321 F1500 ; Fill
G0 X75.74 Y125.5535 F7200 ; Move
G1 X83.4615 Y117.8319 E0.56321 F1500 ; Fill
G0 X84.1776 Y117.8319 F7200 ; Move
G1 X76.456 Y125.5535 E0.56321 F1500 ; Fill
G0 X77.1721 Y125.5535 F7200 ; Move
G1 X84.8937 Y117.8319 E0.56321 F1500 ; Fill
G0 X85.6098 Y117.8319 F7200 ; Move
G1 X77.8882 Y125.5535 E0.56321 F1500 ; Fill
G0 X78.6043 Y125.5535 F7200 ; Move
G1 X86.3259 Y117.8319 E0.56321 F1500 ; Fill
G0 X87.042 Y117.8319 F7200 ; Move
G1 X79.3204 Y125.5535 E0.56321 F1500 ; Fill
G0 X80.0365 Y125.5535 F7200 ; Move
G1 X87.7581 Y117.8319 E0.56321 F1500 ; Fill
G0 X88.4741 Y117.8319 F7200 ; Move
G1 X80.7526 Y125.5535 E0.56321 F1500 ; Fill
G0 X81.4687 Y125.5535 F7200 ; Move
G1 X89.1902 Y117.8319 E0.56321 F1500 ; Fill
G0 X89.9063 Y117.8319 F7200 ; Move
G1 X82.1847 Y125.5535 E0.56321 F1500 ; Fill
G0 X82.9008 Y125.5535 F7200 ; Move
G1 X90.6224 Y117.8319 E0.56321 F1500 ; Fill
G0 X91.3385 Y117.8319 F7200 ; Move
G1 X83.6169 Y125.5535 E0.56321 F1500 ; Fill
G0 X84.333 Y125.5535 F7200 ; Move
G1 X92.0546 Y117.8319 E0.56321 F1500 ; Fill
G0 X92.7707 Y117.8319 F7200 ; Move
G1 X85.0491 Y125.5535 E0.56321 F1500 ; Fill
G0 X85.7652 Y125.5535 F7200 ; Move
G1 X93.4868 Y117.8319 E0.56321 F1500 ; Fill
G0 X94.2028 Y117.8319 F7200 ; Move
G1 X86.4813 Y125.5535 E0.56321 F1500 ; Fill
G0 X87.1973 Y125.5535 F7200 ; Move
G1 X94.9189 Y117.8319 E0.56321 F1500 ; Fill
G0 X95.635 Y117.8319 F7200 ; Move
G1 X87.9134 Y125.5535 E0.56321 F1500 ; Fill
G0 X88.6295 Y125.5535 F7200 ; Move
G1 X96.3511 Y117.8319 E0.56321 F1500 ; Fill
G0 X97.0672 Y117.8319 F7200 ; Move
G1 X89.3456 Y125.5535 E0.56321 F1500 ; Fill
G0 X90.0617 Y125.5535 F7200 ; Move
G1 X97.7833 Y117.8319 E0.56321 F1500 ; Fill
G0 X98.4994 Y117.8319 F7200 ; Move
G1 X90.7778 Y125.5535 E0.56321 F1500 ; Fill
G0 X91.4939 Y125.5535 F7200 ; Move
G1 X99.2154 Y117.8319 E0.56321 F1500 ; Fill
G0 X99.9315 Y117.8319 F7200 ; Move
G1 X92.2099 Y125.5535 E0.56321 F1500 ; Fill
G0 X92.926 Y125.5535 F7200 ; Move
G1 X100.6476 Y117.8319 E0.56321 F1500 ; Fill
G0 X101.3637 Y117.8319 F7200 ; Move
G1 X93.6421 Y125.5535 E0.56321 F1500 ; Fill
G0 X94.3582 Y125.5535 F7200 ; Move
G1 X102.0798 Y117.8319 E0.56321 F1500 ; Fill
G0 X102.7959 Y117.8319 F7200 ; Move
G1 X95.0743 Y125.5535 E0.56321 F1500 ; Fill
G0 X95.7904 Y125.5535 F7200 ; Move
G1 X103.512 Y117.8319 E0.56321 F1500 ; Fill
G0 X104.2281 Y117.8319 F7200 ; Move
G1 X96.5065 Y125.5535 E0.56321 F1500 ; Fill
G0 X97.2226 Y125.5535 F7200 ; Move
G1 X104.9441 Y117.8319 E0.56321 F1500 ; Fill
G0 X105.6602 Y117.8319 F7200 ; Move
G1 X97.9386 Y125.5535 E0.56321 F1500 ; Fill
G0 X98.6547 Y125.5535 F7200 ; Move
G1 X106.3763 Y117.8319 E0.56321 F1500 ; Fill
G0 X107.0924 Y117.8319 F7200 ; Move
G1 X99.3708 Y125.5535 E0.56321 F1500 ; Fill
G0 X100.0869 Y125.5535 F7200 ; Move
G1 X107.8085 Y117.8319 E0.56321 F1500 ; Fill
G0 X108.5246 Y117.8319 F7200 ; Move
G1 X100.803 Y125.5535 E0.56321 F1500 ; Fill
G0 X101.5191 Y125.5535 F7200 ; Move
G1 X109.2407 Y117.8319 E0.56321 F1500 ; Fill
G0 X109.9567 Y117.8319 F7200 ; Move
G1 X102.2352 Y125.5535 E0.56321 F1500 ; Fill
G0 X102.9512 Y125.5535 F7200 ; Move
G1 X110.6728 Y117.8319 E0.56321 F1500 ; Fill
G0 X111.3889 Y117.8319 F7200 ; Move
G1 X103.6673 Y125.5535 E0.56321 F1500 ; Fill
G0 X104.3834 Y125.5535 F7200 ; Move
G1 X112.105 Y117.8319 E0.56321 F1500 ; Fill
G0 X112.8211 Y117.8319 F7200 ; Move
G1 X105.0995 Y125.5535 E0.56321 F1500 ; Fill
G0 X105.8156 Y125.5535 F7200 ; Move
G1 X113.5372 Y117.8319 E0.56321 F1500 ; Fill
G0 X114.2533 Y117.8319 F7200 ; Move
G1 X106.5317 Y125.5535 E0.56321 F1500 ; Fill
G0 X107.2478 Y125.5535 F7200 ; Move
G1 X114.9693 Y117.8319 E0.56321 F1500 ; Fill
G0 X115.6854 Y117.8319 F7200 ; Move
G1 X107.9638 Y125.5535 E0.56321 F1500 ; Fill
G0 X108.6799 Y125.5535 F7200 ; Move
G1 X116.4015 Y117.8319 E0.56321 F1500 ; Fill
G0 X117.1176 Y117.8319 F7200 ; Move
G1 X109.396 Y125.5535 E0.56321 F1500 ; Fill
G0 X110.1121 Y125.5535 F7200 ; Move
G1 X117.8337 Y117.8319 E0.56321 F1500 ; Fill
G0 X118.5498 Y117.8319 F7200 ; Move
G1 X110.8282 Y125.5535 E0.56321 F1500 ; Fill
G0 X111.5443 Y125.5535 F7200 ; Move
G1 X119.2659 Y117.8319 E0.56321 F1500 ; Fill
G0 X119.982 Y117.8319 F7200 ; Move
G1 X112.2604 Y125.5535 E0.56321 F1500 ; Fill
G0 X112.9765 Y125.5535 F7200 ; Move
G1 X120.698 Y117.8319 E0.56321 F1500 ; Fill
G0 X121.0165 Y118.2296 F7200 ; Move
G1 X113.6925 Y125.5535 E0.53421 F1500 ; Fill
G0 X114.4086 Y125.5535 F7200 ; Move
G1 X121.0165 Y118.9457 E0.48198 F1500 ; Fill
G0 X121.0165 Y119.6617 F7200 ; Move
G1 X115.1247 Y125.5535 E0.42975 F1500 ; Fill
G0 X115.8408 Y125.5535 F7200 ; Move
G1 X121.0165 Y120.3778 E0.37751 F1500 ; Fill
G0 X121.0165 Y121.0939 F7200 ; Move
G1 X116.5569 Y125.5535 E0.32528 F1500 ; Fill
G0 X117.273 Y125.5535 F7200 ; Move
G1 X121.0165 Y121.81 E0.27305 F1500 ; Fill
G0 X121.0165 Y122.5261 F7200 ; Move
G1 X117.9891 Y125.5535 E0.22082 F1500 ; Fill
G0 X118.7051 Y125.5535 F7200 ; Move
G1 X121.0165 Y123.2422 E0.16859 F1500 ; Fill
G0 X121.0165 Y123.9583 F7200 ; Move
G1 X119.4212 Y125.5535 E0.11636 F1500 ; Fill
G0 X120.1373 Y125.5535 F7200 ; Move
G1 X121.0165 Y124.6744 E0.06413 F1500 ; Fill
G0 X121.0165 Y125.3904 F7200 ; Move
G1 X120.8534 Y125.5535 E0.0119 F1500 ; Fill
M106 S255 ; Set fan speed
G0 Z0.45 F7200 ; Move to layer height
SET_PRESSURE_ADVANCE ADVANCE=0 ; Set pressure advance to start value for numbering
M117 PA 0
G1 E-0.5 F2100 ; Retract
G1 Z0.55 F7200 ; Z hop
G0 X59.9344 Y116.8832 F7200 ; Move
G1 Z0.45 F7200 ; Z hop return
G1 E0.5 F2100 ; Un-retract
G1 X61.9344 Y116.8832 E0.06634 F1500 ; Glyph: 0
G1 X63.9344 Y116.8832 E0.06634 F1500 ; Glyph: 0
G1 X63.9344 Y118.8832 E0.06634 F1500 ; Glyph: 0
G1 X61.9344 Y118.8832 E0.06634 F1500 ; Glyph: 0
G1 X59.9344 Y118.8832 E0.06634 F1500 ; Glyph: 0
G1 X59.9344 Y116.8832 E0.06634 F1500 ; Glyph: 0
G1 E-0.5 F2100 ; Retract
G1 Z0.55 F7200 ; Z hop
G0 X67.1372 Y116.8832 F7200 ; Move
G1 Z0.45 F7200 ; Z hop return
G1 E0.5 F2100 ; Un-retract
G1 X69.1372 Y116.8832 E0.06634 F1500 ; Glyph: 0
G1 X71.1372 Y116.8832 E0.06634 F1500 ; Glyph: 0
G1 X71.1372 Y118.8832 E0.06634 F1500 ; Glyph: 0
G1 X69.1372 Y118.8832 E0.06634 F1500 ; Glyph: 0
G1 X67.1372 Y118.8832 E0.06634 F1500 ; Glyph: 0
G1 X67.1372 Y116.8832 E0.06634 F1500 ; Glyph: 0
G1 E-0.5 F2100 ; Retract
G1 Z0.55 F7200 ; Z hop
G0 X71.1372 Y119.8832 F7200 ; Move
G1 Z0.45 F7200 ; Z hop return
G1 E0.5 F2100 ; Un-retract
G1 X70.3872 Y119.8832 E0.02488 F1500 ; Glyph: .
G1 E-0.5 F2100 ; Retract
G1 Z0.55 F7200 ; Z hop
G0 X67.1372 Y120.8832 F7200 ; Move
G1 Z0.45 F7200 ; Z hop return
G1 E0.5 F2100 ; Un-retract
G1 X69.1372 Y120.8832 E0.06634 F1500 ; Glyph: 0
G1 X71.1372 Y120.8832 E0.06634 F1500 ; Glyph: 0
G1 X71.1372 Y122.8832 E0.06634 F1500 ; Glyph: 0
G1 X69.1372 Y122.8832 E0.06634 F1500 ; Glyph: 0
G1 X67.1372 Y122.8832 E0.06634 F1500 ; Glyph: 0
G1 X67.1372 Y120.8832 E0.06634 F1500 ; Glyph: 0
G1 E-0.5 F2100 ; Retract
G1 Z0.55 F7200 ; Z hop
G0 X67.1372 Y123.8832 F7200 ; Move
G1 Z0.45 F7200 ; Z hop return
G1 E0.5 F2100 ; Un-retract
G1 X69.1372 Y123.8832 E0.06634 F1500 ; Glyph: 1
G1 X71.1372 Y123.8832 E0.06634 F1500 ; Glyph: 1
G1 E-0.5 F2100 ; Retract
G1 Z0.55 F7200 ; Z hop
G0 X74.34 Y116.8832 F7200 ; Move
G1 Z0.45 F7200 ; Z hop return
G1 E0.5 F2100 ; Un-retract
G1 X76.34 Y116.8832 E0.06634 F1500 ; Glyph: 0
G1 X78.34 Y116.8832 E0.06634 F1500 ; Glyph: 0
G1 X78.34 Y118.8832 E0.06634 F1500 ; Glyph: 0
G1 X76.34 Y118.8832 E0.06634 F1500 ; Glyph: 0
G1 X74.34 Y118.8832 E0.06634 F1500 ; Glyph: 0
G1 X74.34 Y116.8832 E0.06634 F1500 ; Glyph: 0
G1 E-0.5 F2100 ; Retract
G1 Z0.55 F7200 ; Z hop
G0 X78.34 Y119.8832 F7200 ; Move
G1 Z0.45 F7200 ; Z hop return
G1 E0.5 F2100 ; Un-retract
G1 X77.59 Y119.8832 E0.02488 F1500 ; Glyph: .
G1 E-0.5 F2100 ; Retract
G1 Z0.55 F7200 ; Z hop
G0 X74.34 Y120.8832 F7200 ; Move
G1 Z0.45 F7200 ; Z hop return
G1 E0.5 F2100 ; Un-retract
G1 X76.34 Y120.8832 E0.06634 F1500 ; Glyph: 0
G1 X78.34 Y120.8832 E0.06634 F1500 ; Glyph: 0
G1 X78.34 Y122.8832 E0.06634 F1500 ; Glyph: 0
G1 X76.34 Y122.8832 E0.06634 F1500 ; Glyph: 0
G1 X74.34 Y122.8832 E0.06634 F1500 ; Glyph: 0
G1 X74.34 Y120.8832 E0.06634 F1500 ; Glyph: 0
G1 E-0.5 F2100 ; Retract
G1 Z0.55 F7200 ; Z hop
G0 X74.34 Y123.8832 F7200 ; Move
G1 Z0.45 F7200 ; Z hop return
G1 E0.5 F2100 ; Un-retract
G1 X74.34 Y125.8832 E0.06634 F1500 ; Glyph: 2
G1 X76.34 Y125.8832 E0.06634 F1500 ; Glyph: 2
G1 X76.34 Y123.8832 E0.06634 F1500 ; Glyph: 2
G1 X78.34 Y123.8832 E0.06634 F1500 ; Glyph: 2
G1 X78.34 Y125.8832 E0.06634 F1500 ; Glyph: 2
G1 E-0.5 F2100 ; Retract
G1 Z0.55 F7200 ; Z hop
G0 X81.5428 Y116.8832 F7200 ; Move
G1 Z0.45 F7200 ; Z hop return
G1 E0.5 F2100 ; Un-retract
G1 X83.5428 Y116.8832 E0.06634 F1500 ; Glyph: 0
G1 X85.5428 Y116.8832 E0.06634 F1500 ; Glyph: 0
G1 X85.5428 Y118.8832 E0.06634 F1500 ; Glyph: 0
G1 X83.5428 Y118.8832 E0.06634 F1500 ; Glyph: 0
G1 X81.5428 Y118.8832 E0.06634 F1500 ; Glyph: 0
G1 X81.5428 Y116.8832 E0.06634 F1500 ; Glyph: 0
G1 E-0.5 F2100 ; Retract
G1 Z0.55 F7200 ; Z hop
G0 X85.5428 Y119.8832 F7200 ; Move
G1 Z0.45 F7200 ; Z hop return
G1 E0.5 F2100 ; Un-retract
G1 X84.7928 Y119.8832 E0.02488 F1500 ; Glyph: .
G1 E-0.5 F2100 ; Retract
G1 Z0.55 F7200 ; Z hop
G0 X81.5428 Y120.8832 F7200 ; Move
G1 Z0.45 F7200 ; Z hop return
G1 E0.5 F2100 ; Un-retract
G1 X83.5428 Y120.8832 E0.06634 F1500 ; Glyph: 0
G1 X85.5428 Y120.8832 E0.06634 F1500 ; Glyph: 0
G1 X85.5428 Y122.8832 E0.06634 F1500 ; Glyph: 0
G1 X83.5428 Y122.8832 E0.06634 F1500 ; Glyph: 0
G1 X81.5428 Y122.8832 E0.06634 F1500 ; Glyph: 0
G1 X81.5428 Y120.8832 E0.06634 F1500 ; Glyph: 0
G1 E-0.5 F2100 ; Retract
G1 Z0.55 F7200 ; Z hop
G0 X81.5428 Y123.8832 F7200 ; Move
G1 Z0.45 F7200 ; Z hop return
G1 E0.5 F2100 ; Un-retract
G1 X81.5428 Y125.8832 E0.06634 F1500 ; Glyph: 3
G1 X83.5428 Y125.8832 E0.06634 F1500 ; Glyph: 3
G1 X83.5428 Y123.8832 E0.06634 F1500 ; Glyph: 3
G0 X83.5428 Y125.8832 F7200 ; Move
G1 X85.5428 Y125.8832 E0.06634 F1500 ; Glyph: 3
G1 X85.5428 Y123.8832 E0.06634 F1500 ; Glyph: 3
G1 E-0.5 F2100 ; Retract
G1 Z0.55 F7200 ; Z hop
G0 X88.7456 Y116.8832 F7200 ; Move
G1 Z0.45 F7200 ; Z hop return
G1 E0.5 F2100 ; Un-retract
G1 X90.7456 Y116.8832 E0.06634 F1500 ; Glyph: 0
G1 X92.7456 Y116.8832 E0.06634 F1500 ; Glyph: 0
G1 X92.7456 Y118.8832 E0.06634 F1500 ; Glyph: 0
G1 X90.7456 Y118.8832 E0.06634 F1500 ; Glyph: 0
G1 X88.7456 Y118.8832 E0.06634 F1500 ; Glyph: 0
G1 X88.7456 Y116.8832 E0.06634 F1500 ; Glyph: 0
G1 E-0.5 F2100 ; Retract
G1 Z0.55 F7200 ; Z hop
G0 X92.7456 Y119.8832 F7200 ; Move
G1 Z0.45 F7200 ; Z hop return
G1 E0.5 F2100 ; Un-retract
G1 X91.9956 Y119.8832 E0.02488 F1500 ; Glyph: .
G1 E-0.5 F2100 ; Retract
G1 Z0.55 F7200 ; Z hop
G0 X88.7456 Y120.8832 F7200 ; Move
G1 Z0.45 F7200 ; Z hop return
G1 E0.5 F2100 ; Un-retract
G1 X90.7456 Y120.8832 E0.06634 F1500 ; Glyph: 0
G1 X92.7456 Y120.8832 E0.06634 F1500 ; Glyph: 0
G1 X92.7456 Y122.8832 E0.06634 F1500 ; Glyph: 0
G1 X90.7456 Y122.8832 E0.06634 F1500 ; Glyph: 0
G1 X88.7456 Y122.8832 E0.06634 F1500 ; Glyph: 0
G1 X88.7456 Y120.8832 E0.06634 F1500 ; Glyph: 0
G1 E-0.5 F2100 ; Retract
G1 Z0.55 F7200 ; Z hop
G0 X88.7456 Y125.8832 F7200 ; Move
G1 Z0.45 F7200 ; Z hop return
G1 E0.5 F2100 ; Un-retract
G1 X90.7456 Y125.8832 E0.06634 F1500 ; Glyph: 4
G1 X92.7456 Y125.8832 E0.06634 F1500 ; Glyph: 4
G0 X90.7456 Y125.8832 F7200 ; Move
G1 X90.7456 Y123.8832 E0.06634 F1500 ; Glyph: 4
G1 X88.7456 Y123.8832 E0.06634 F1500 ; Glyph: 4
G1 E-0.5 F2100 ; Retract
G1 Z0.55 F7200 ; Z hop
G0 X95.9483 Y116.8832 F7200 ; Move
G1 Z0.45 F7200 ; Z hop return
G1 E0.5 F2100 ; Un-retract
G1 X97.9483 Y116.8832 E0.06634 F1500 ; Glyph: 0
G1 X99.9483 Y116.8832 E0.06634 F1500 ; Glyph: 0
G1 X99.9483 Y118.8832 E0.06634 F1500 ; Glyph: 0
G1 X97.9483 Y118.8832 E0.06634 F1500 ; Glyph: 0
G1 X95.9483 Y118.8832 E0.06634 F1500 ; Glyph: 0
G1 X95.9483 Y116.8832 E0.06634 F1500 ; Glyph: 0
G1 E-0.5 F2100 ; Retract
G1 Z0.55 F7200 ; Z hop
G0 X99.9483 Y119.8832 F7200 ; Move
G1 Z0.45 F7200 ; Z hop return
G1 E0.5 F2100 ; Un-retract
G1 X99.1983 Y119.8832 E0.02488 F1500 ; Glyph: .
G1 E-0.5 F2100 ; Retract
G1 Z0.55 F7200 ; Z hop
G0 X95.9483 Y120.8832 F7200 ; Move
G1 Z0.45 F7200 ; Z hop return
G1 E0.5 F2100 ; Un-retract
G1 X97.9483 Y120.8832 E0.06634 F1500 ; Glyph: 0
G1 X99.9483 Y120.8832 E0.06634 F1500 ; Glyph: 0
G1 X99.9483 Y122.8832 E0.06634 F1500 ; Glyph: 0
G1 X97.9483 Y122.8832 E0.06634 F1500 ; Glyph: 0
G1 X95.9483 Y122.8832 E0.06634 F1500 ; Glyph: 0
G1 X95.9483 Y120.8832 E0.06634 F1500 ; Glyph: 0
G1 E-0.5 F2100 ; Retract
G1 Z0.55 F7200 ; Z hop
G0 X95.9483 Y125.8832 F7200 ; Move
G1 Z0.45 F7200 ; Z hop return
G1 E0.5 F2100 ; Un-retract
G1 X95.9483 Y123.8832 E0.06634 F1500 ; Glyph: 5
G1 X97.9483 Y123.8832 E0.06634 F1500 ; Glyph: 5
G1 X97.9483 Y125.8832 E0.06634 F1500 ; Glyph: 5
G1 X99.9483 Y125.8832 E0.06634 F1500 ; Glyph: 5
G1 X99.9483 Y123.8832 E0.06634 F1500 ; Glyph: 5
G1 E-0.5 F2100 ; Retract
G1 Z0.55 F7200 ; Z hop
G0 X103.1511 Y116.8832 F7200 ; Move
G1 Z0.45 F7200 ; Z hop return
G1 E0.5 F2100 ; Un-retract
G1 X105.1511 Y116.8832 E0.06634 F1500 ; Glyph: 0
G1 X107.1511 Y116.8832 E0.06634 F1500 ; Glyph: 0
G1 X107.1511 Y118.8832 E0.06634 F1500 ; Glyph: 0
G1 X105.1511 Y118.8832 E0.06634 F1500 ; Glyph: 0
G1 X103.1511 Y118.8832 E0.06634 F1500 ; Glyph: 0
G1 X103.1511 Y116.8832 E0.06634 F1500 ; Glyph: 0
G1 E-0.5 F2100 ; Retract
G1 Z0.55 F7200 ; Z hop
G0 X107.1511 Y119.8832 F7200 ; Move
G1 Z0.45 F7200 ; Z hop return
G1 E0.5 F2100 ; Un-retract
G1 X106.4011 Y119.8832 E0.02488 F1500 ; Glyph: .
G1 E-0.5 F2100 ; Retract
G1 Z0.55 F7200 ; Z hop
G0 X103.1511 Y120.8832 F7200 ; Move
G1 Z0.45 F7200 ; Z hop return
G1 E0.5 F2100 ; Un-retract
G1 X105.1511 Y120.8832 E0.06634 F1500 ; Glyph: 0
G1 X107.1511 Y120.8832 E0.06634 F1500 ; Glyph: 0
G1 X107.1511 Y122.8832 E0.06634 F1500 ; Glyph: 0
G1 X105.1511 Y122.8832 E0.06634 F1500 ; Glyph: 0
G1 X103.1511 Y122.8832 E0.06634 F1500 ; Glyph: 0
G1 X103.1511 Y120.8832 E0.06634 F1500 ; Glyph: 0
G1 E-0.5 F2100 ; Retract
G1 Z0.55 F7200 ; Z hop
G0 X103.1511 Y125.8832 F7200 ; Move
G1 Z0.45 F7200 ; Z hop return
G1 E0.5 F2100 ; Un-retract
G1 X103.1511 Y123.8832 E0.06634 F1500 ; Glyph: 6
G1 X105.1511 Y123.8832 E0.06634 F1500 ; Glyph: 6
G1 X107.1511 Y123.8832 E0.06634 F1500 ; Glyph: 6
G1 X107.1511 Y125.8832 E0.06634 F1500 ; Glyph: 6
G1 X105.1511 Y125.8832 E0.06634 F1500 ; Glyph: 6
G1 X105.1511 Y123.8832 E0.06634 F1500 ; Glyph: 6
G1 E-0.5 F2100 ; Retract
G1 Z0.55 F7200 ; Z hop
G0 X110.3539 Y116.8832 F7200 ; Move
G1 Z0.45 F7200 ; Z hop return
G1 E0.5 F2100 ; Un-retract
G1 X112.3539 Y116.8832 E0.06634 F1500 ; Glyph: 0
G1 X114.3539 Y116.8832 E0.06634 F1500 ; Glyph: 0
G1 X114.3539 Y118.8832 E0.06634 F1500 ; Glyph: 0
G1 X112.3539 Y118.8832 E0.06634 F1500 ; Glyph: 0
G1 X110.3539 Y118.8832 E0.06634 F1500 ; Glyph: 0
G1 X110.3539 Y116.8832 E0.06634 F1500 ; Glyph: 0
G1 E-0.5 F2100 ; Retract
G1 Z0.55 F7200 ; Z hop
G0 X114.3539 Y119.8832 F7200 ; Move
G1 Z0.45 F7200 ; Z hop return
G1 E0.5 F2100 ; Un-retract
G1 X113.6039 Y119.8832 E0.02488 F1500 ; Glyph: .
G1 E-0.5 F2100 ; Retract
G1 Z0.55 F7200 ; Z hop
G0 X110.3539 Y120.8832 F7200 ; Move
G1 Z0.45 F7200 ; Z hop return
G1 E0.5 F2100 ; Un-retract
G1 X112.3539 Y120.8832 E0.06634 F1500 ; Glyph: 0
G1 X114.3539 Y120.8832 E0.06634 F1500 ; Glyph: 0
G1 X114.3539 Y122.8832 E0.06634 F1500 ; Glyph: 0
G1 X112.3539 Y122.8832 E0.06634 F1500 ; Glyph: 0
G1 X110.3539 Y122.8832 E0.06634 F1500 ; Glyph: 0
G1 X110.3539 Y120.8832 E0.06634 F1500 ; Glyph: 0
G1 E-0.5 F2100 ; Retract
G1 Z0.55 F7200 ; Z hop
G0 X110.3539 Y123.8832 F7200 ; Move
G1 Z0.45 F7200 ; Z hop return
G1 E0.5 F2100 ; Un-retract
G1 X110.3539 Y125.8832 E0.06634 F1500 ; Glyph: 7
G1 X112.3539 Y125.8832 E0.06634 F1500 ; Glyph: 7
G1 X114.3539 Y125.8832 E0.06634 F1500 ; Glyph: 7
G1 E-0.5 F2100 ; Retract
G1 Z0.55 F7200 ; Z hop
G0 X117.5567 Y116.8832 F7200 ; Move
G1 Z0.45 F7200 ; Z hop return
G1 E0.5 F2100 ; Un-retract
G1 X119.5567 Y116.8832 E0.06634 F1500 ; Glyph: 0
G1 X121.5567 Y116.8832 E0.06634 F1500 ; Glyph: 0
G1 X121.5567 Y118.8832 E0.06634 F1500 ; Glyph: 0
G1 X119.5567 Y118.8832 E0.06634 F1500 ; Glyph: 0
G1 X117.5567 Y118.8832 E0.06634 F1500 ; Glyph: 0
G1 X117.5567 Y116.8832 E0.06634 F1500 ; Glyph: 0
G1 E-0.5 F2100 ; Retract
G1 Z0.55 F7200 ; Z hop
G0 X121.5567 Y119.8832 F7200 ; Move
G1 Z0.45 F7200 ; Z hop return
G1 E0.5 F2100 ; Un-retract
G1 X120.8067 Y119.8832 E0.02488 F1500 ; Glyph: .
G1 E-0.5 F2100 ; Retract
G1 Z0.55 F7200 ; Z hop
G0 X117.5567 Y120.8832 F7200 ; Move
G1 Z0.45 F7200 ; Z hop return
G1 E0.5 F2100 ; Un-retract
G1 X119.5567 Y120.8832 E0.06634 F1500 ; Glyph: 0
G1 X121.5567 Y120.8832 E0.06634 F1500 ; Glyph: 0
G1 X121.5567 Y122.8832 E0.06634 F1500 ; Glyph: 0
G1 X119.5567 Y122.8832 E0.06634 F1500 ; Glyph: 0
G1 X117.5567 Y122.8832 E0.06634 F1500 ; Glyph: 0
G1 X117.5567 Y120.8832 E0.06634 F1500 ; Glyph: 0
G1 E-0.5 F2100 ; Retract
G1 Z0.55 F7200 ; Z hop
G0 X117.5567 Y123.8832 F7200 ; Move
G1 Z0.45 F7200 ; Z hop return
G1 E0.5 F2100 ; Un-retract
G1 X119.5567 Y123.8832 E0.06634 F1500 ; Glyph: 8
G1 X121.5567 Y123.8832 E0.06634 F1500 ; Glyph: 8
G1 X121.5567 Y125.8832 E0.06634 F1500 ; Glyph: 8
G1 X119.5567 Y125.8832 E0.06634 F1500 ; Glyph: 8
G1 X117.5567 Y125.8832 E0.06634 F1500 ; Glyph: 8
G1 X117.5567 Y123.8832 E0.06634 F1500 ; Glyph: 8
G0 X119.5567 Y123.8832 F7200 ; Move
G1 X119.5567 Y125.8832 E0.06634 F1500 ; Glyph: 8
G1 E-0.5 F2100 ; Retract
G1 Z0.55 F7200 ; Z hop
G0 X61.3587 Y73.0068 F7200 ; Move to pattern start

G1 Z0.45 F7200 ; Z hop return
G1 E0.5 F2100 ; Un-retract
SET_PRESSURE_ADVANCE ADVANCE=0 ; Set pressure advance
M117 PA 0
G1 X82.5719 Y94.22 E0.99515 F3600 ; Print pattern wall
G1 X61.3587 Y115.4332 E0.99515 F3600 ; Print pattern wall
G1 E-0.5 F2100 ; Retract
G1 Z0.55 F7200 ; Z hop
G0 X61.9344 Y73.0068 F7200 ; Move to start next pattern wall
G1 Z0.45 F7200 ; Z hop return
G1 E0.5 F2100 ; Un-retract
G1 X83.1476 Y94.22 E0.99515 F3600 ; Print pattern wall
G1 X61.9344 Y115.4332 E0.99515 F3600 ; Print pattern wall
G1 E-0.5 F2100 ; Retract
G1 Z0.55 F7200 ; Z hop
G0 X62.5101 Y73.0068 F7200 ; Move to start next pattern wall
G1 Z0.45 F7200 ; Z hop return
G1 E0.5 F2100 ; Un-retract
G1 X83.7233 Y94.22 E0.99515 F3600 ; Print pattern wall
G1 X62.5101 Y115.4332 E0.99515 F3600 ; Print pattern wall
G1 E-0.5 F2100 ; Retract
G1 Z0.55 F7200 ; Z hop
G0 X64.9601 Y73.0068 F7200 ; Move to next pattern
G1 Z0.45 F7200 ; Z hop return
G1 E0.5 F2100 ; Un-retract
SET_PRESSURE_ADVANCE ADVANCE=0.005 ; Set pressure advance
M117 PA 0.005
G1 X86.1733 Y94.22 E0.99515 F3600 ; Print pattern wall
G1 X64.9601 Y115.4332 E0.99515 F3600 ; Print pattern wall
G1 E-0.5 F2100 ; Retract
G1 Z0.55 F7200 ; Z hop
G0 X65.5358 Y73.0068 F7200 ; Move to start next pattern wall
G1 Z0.45 F7200 ; Z hop return
G1 E0.5 F2100 ; Un-retract
G1 X86.749 Y94.22 E0.99515 F3600 ; Print pattern wall
G1 X65.5358 Y115.4332 E0.99515 F3600 ; Print pattern wall
G1 E-0.5 F2100 ; Retract
G1 Z0.55 F7200 ; Z hop
G0 X66.1115 Y73.0068 F7200 ; Move to start next pattern wall
G1 Z0.45 F7200 ; Z hop return
G1 E0.5 F2100 ; Un-retract
G1 X87.3247 Y94.22 E0.99515 F3600 ; Print pattern wall
G1 X66.1115 Y115.4332 E0.99515 F3600 ; Print pattern wall
G1 E-0.5 F2100 ; Retract
G1 Z0.55 F7200 ; Z hop
G0 X68.5615 Y73.0068 F7200 ; Move to next pattern
G1 Z0.45 F7200 ; Z hop return
G1 E0.5 F2100 ; Un-retract
SET_PRESSURE_ADVANCE ADVANCE=0.01 ; Set pressure advance
M117 PA 0.01
G1 X89.7747 Y94.22 E0.99515 F3600 ; Print pattern wall
G1 X68.5615 Y115.4332 E0.99515 F3600 ; Print pattern wall
G1 E-0.5 F2100 ; Retract
G1 Z0.55 F7200 ; Z hop
G0 X69.1372 Y73.0068 F7200 ; Move to start next pattern wall
G1 Z0.45 F7200 ; Z hop return
G1 E0.5 F2100 ; Un-retract
G1 X90.3504 Y94.22 E0.99515 F3600 ; Print pattern wall
G1 X69.1372 Y115.4332 E0.99515 F3600 ; Print pattern wall
G1 E-0.5 F2100 ; Retract
G1 Z0.55 F7200 ; Z hop
G0 X69.7129 Y73.0068 F7200 ; Move to start next pattern wall
G1 Z0.45 F7200 ; Z hop return
G1 E0.5 F2100 ; Un-retract
G1 X90.9261 Y94.22 E0.99515 F3600 ; Print pattern wall
G1 X69.7129 Y115.4332 E0.99515 F3600 ; Print pattern wall
G1 E-0.5 F2100 ; Retract
G1 Z0.55 F7200 ; Z hop
G0 X72.1629 Y73.0068 F7200 ; Move to next pattern
G1 Z0.45 F7200 ; Z hop return
G1 E0.5 F2100 ; Un-retract
SET_PRESSURE_ADVANCE ADVANCE=0.015 ; Set pressure advance
M117 PA 0.015
G1 X93.3761 Y94.22 E0.99515 F3600 ; Print pattern wall
G1 X72.1629 Y115.4332 E0.99515 F3600 ; Print pattern wall
G1 E-0.5 F2100 ; Retract
G1 Z0.55 F7200 ; Z hop
G0 X72.7386 Y73.0068 F7200 ; Move to start next pattern wall
G1 Z0.45 F7200 ; Z hop return
G1 E0.5 F2100 ; Un-retract
G1 X93.9518 Y94.22 E0.99515 F3600 ; Print pattern wall
G1 X72.7386 Y115.4332 E0.99515 F3600 ; Print pattern wall
G1 E-0.5 F2100 ; Retract
G1 Z0.55 F7200 ; Z hop
G0 X73.3143 Y73.0068 F7200 ; Move to start next pattern wall
G1 Z0.45 F7200 ; Z hop return
G1 E0.5 F2100 ; Un-retract
G1 X94.5275 Y94.22 E0.99515 F3600 ; Print pattern wall
G1 X73.3143 Y115.4332 E0.99515 F3600 ; Print pattern wall
G1 E-0.5 F2100 ; Retract
G1 Z0.55 F7200 ; Z hop
G0 X75.7643 Y73.0068 F7200 ; Move to next pattern
G1 Z0.45 F7200 ; Z hop return
G1 E0.5 F2100 ; Un-retract
SET_PRESSURE_ADVANCE ADVANCE=0.02 ; Set pressure advance
M117 PA 0.02
G1 X96.9775 Y94.22 E0.99515 F3600 ; Print pattern wall
G1 X75.7643 Y115.4332 E0.99515 F3600 ; Print pattern wall
G1 E-0.5 F2100 ; Retract
G1 Z0.55 F7200 ; Z hop
G0 X76.34 Y73.0068 F7200 ; Move to start next pattern wall
G1 Z0.45 F7200 ; Z hop return
G1 E0.5 F2100 ; Un-retract
G1 X97.5532 Y94.22 E0.99515 F3600 ; Print pattern wall
G1 X76.34 Y115.4332 E0.99515 F3600 ; Print pattern wall
G1 E-0.5 F2100 ; Retract
G1 Z0.55 F7200 ; Z hop
G0 X76.9157 Y73.0068 F7200 ; Move to start next pattern wall
G1 Z0.45 F7200 ; Z hop return
G1 E0.5 F2100 ; Un-retract
G1 X98.1289 Y94.22 E0.99515 F3600 ; Print pattern wall
G1 X76.9157 Y115.4332 E0.99515 F3600 ; Print pattern wall
G1 E-0.5 F2100 ; Retract
G1 Z0.55 F7200 ; Z hop
G0 X79.3657 Y73.0068 F7200 ; Move to next pattern
G1 Z0.45 F7200 ; Z hop return
G1 E0.5 F2100 ; Un-retract
SET_PRESSURE_ADVANCE ADVANCE=0.025 ; Set pressure advance
M117 PA 0.025
G1 X100.5789 Y94.22 E0.99515 F3600 ; Print pattern wall
G1 X79.3657 Y115.4332 E0.99515 F3600 ; Print pattern wall
G1 E-0.5 F2100 ; Retract
G1 Z0.55 F7200 ; Z hop
G0 X79.9414 Y73.0068 F7200 ; Move to start next pattern wall
G1 Z0.45 F7200 ; Z hop return
G1 E0.5 F2100 ; Un-retract
G1 X101.1546 Y94.22 E0.99515 F3600 ; Print pattern wall
G1 X79.9414 Y115.4332 E0.99515 F3600 ; Print pattern wall
G1 E-0.5 F2100 ; Retract
G1 Z0.55 F7200 ; Z hop
G0 X80.5171 Y73.0068 F7200 ; Move to start next pattern wall
G1 Z0.45 F7200 ; Z hop return
G1 E0.5 F2100 ; Un-retract
G1 X101.7303 Y94.22 E0.99515 F3600 ; Print pattern wall
G1 X80.5171 Y115.4332 E0.99515 F3600 ; Print pattern wall
G1 E-0.5 F2100 ; Retract
G1 Z0.55 F7200 ; Z hop
G0 X82.9671 Y73.0068 F7200 ; Move to next pattern
G1 Z0.45 F7200 ; Z hop return
G1 E0.5 F2100 ; Un-retract
SET_PRESSURE_ADVANCE ADVANCE=0.03 ; Set pressure advance
M117 PA 0.03
G1 X104.1803 Y94.22 E0.99515 F3600 ; Print pattern wall
G1 X82.9671 Y115.4332 E0.99515 F3600 ; Print pattern wall
G1 E-0.5 F2100 ; Retract
G1 Z0.55 F7200 ; Z hop
G0 X83.5428 Y73.0068 F7200 ; Move to start next pattern wall
G1 Z0.45 F7200 ; Z hop return
G1 E0.5 F2100 ; Un-retract
G1 X104.756 Y94.22 E0.99515 F3600 ; Print pattern wall
G1 X83.5428 Y115.4332 E0.99515 F3600 ; Print pattern wall
G1 E-0.5 F2100 ; Retract
G1 Z0.55 F7200 ; Z hop
G0 X84.1185 Y73.0068 F7200 ; Move to start next pattern wall
G1 Z0.45 F7200 ; Z hop return
G1 E0.5 F2100 ; Un-retract
G1 X105.3317 Y94.22 E0.99515 F3600 ; Print pattern wall
G1 X84.1185 Y115.4332 E0.99515 F3600 ; Print pattern wall
G1 E-0.5 F2100 ; Retract
G1 Z0.55 F7200 ; Z hop
G0 X86.5685 Y73.0068 F7200 ; Move to next pattern
G1 Z0.45 F7200 ; Z hop return
G1 E0.5 F2100 ; Un-retract
SET_PRESSURE_ADVANCE ADVANCE=0.035 ; Set pressure advance
M117 PA 0.035
G1 X107.7817 Y94.22 E0.99515 F3600 ; Print pattern wall
G1 X86.5685 Y115.4332 E0.99515 F3600 ; Print pattern wall
G1 E-0.5 F2100 ; Retract
G1 Z0.55 F7200 ; Z hop
G0 X87.1442 Y73.0068 F7200 ; Move to start next pattern wall
G1 Z0.45 F7200 ; Z hop return
G1 E0.5 F2100 ; Un-retract
G1 X108.3574 Y94.22 E0.99515 F3600 ; Print pattern wall
G1 X87.1442 Y115.4332 E0.99515 F3600 ; Print pattern wall
G1 E-0.5 F2100 ; Retract
G1 Z0.55 F7200 ; Z hop
G0 X87.7199 Y73.0068 F7200 ; Move to start next pattern wall
G1 Z0.45 F7200 ; Z hop return
G1 E0.5 F2100 ; Un-retract
G1 X108.9331 Y94.22 E0.99515 F3600 ; Print pattern wall
G1 X87.7199 Y115.4332 E0.99515 F3600 ; Print pattern wall
G1 E-0.5 F2100 ; Retract
G1 Z0.55 F7200 ; Z hop
G0 X90.1699 Y73.0068 F7200 ; Move to next pattern
G1 Z0.45 F7200 ; Z hop return
G1 E0.5 F2100 ; Un-retract
SET_PRESSURE_ADVANCE ADVANCE=0.04 ; Set pressure advance
M117 PA 0.04
G1 X111.3831 Y94.22 E0.99515 F3600 ; Print pattern wall
G1 X90.1699 Y115.4332 E0.99515 F3600 ; Print pattern wall
G1 E-0.5 F2100 ; Retract
G1 Z0.55 F7200 ; Z hop
G0 X90.7456 Y73.0068 F7200 ; Move to start next pattern wall
G1 Z0.45 F7200 ; Z hop return
G1 E0.5 F2100 ; Un-retract
G1 X111.9588 Y94.22 E0.99515 F3600 ; Print pattern wall
G1 X90.7456 Y115.4332 E0.99515 F3600 ; Print pattern wall
G1 E-0.5 F2100 ; Retract
G1 Z0.55 F7200 ; Z hop
G0 X91.3213 Y73.0068 F7200 ; Move to start next pattern wall
G1 Z0.45 F7200 ; Z hop return
G1 E0.5 F2100 ; Un-retract
G1 X112.5345 Y94.22 E0.99515 F3600 ; Print pattern wall
G1 X91.3213 Y115.4332 E0.99515 F3600 ; Print pattern wall
G1 E-0.5 F2100 ; Retract
G1 Z0.55 F7200 ; Z hop
G0 X93.7713 Y73.0068 F7200 ; Move to next pattern
G1 Z0.45 F7200 ; Z hop return
G1 E0.5 F2100 ; Un-retract
SET_PRESSURE_ADVANCE ADVANCE=0.045 ; Set pressure advance
M117 PA 0.045
G1 X114.9845 Y94.22 E0.99515 F3600 ; Print pattern wall
G1 X93.7713 Y115.4332 E0.99515 F3600 ; Print pattern wall
G1 E-0.5 F2100 ; Retract
G1 Z0.55 F7200 ; Z hop
G0 X94.347 Y73.0068 F7200 ; Move to start next pattern wall
G1 Z0.45 F7200 ; Z hop return
G1 E0.5 F2100 ; Un-retract
G1 X115.5602 Y94.22 E0.99515 F3600 ; Print pattern wall
G1 X94.347 Y115.4332 E0.99515 F3600 ; Print pattern wall
G1 E-0.5 F2100 ; Retract
G1 Z0.55 F7200 ; Z hop
G0 X94.9227 Y73.0068 F7200 ; Move to start next pattern wall
G1 Z0.45 F7200 ; Z hop return
G1 E0.5 F2100 ; Un-retract
G1 X116.1359 Y94.22 E0.99515 F3600 ; Print pattern wall
G1 X94.9227 Y115.4332 E0.99515 F3600 ; Print pattern wall
G1 E-0.5 F2100 ; Retract
G1 Z0.55 F7200 ; Z hop
G0 X97.3727 Y73.0068 F7200 ; Move to next pattern
G1 Z0.45 F7200 ; Z hop return
G1 E0.5 F2100 ; Un-retract
SET_PRESSURE_ADVANCE ADVANCE=0.05 ; Set pressure advance
M117 PA 0.05
G1 X118.5859 Y94.22 E0.99515 F3600 ; Print pattern wall
G1 X97.3727 Y115.4332 E0.99515 F3600 ; Print pattern wall
G1 E-0.5 F2100 ; Retract
G1 Z0.55 F7200 ; Z hop
G0 X97.9483 Y73.0068 F7200 ; Move to start next pattern wall
G1 Z0.45 F7200 ; Z hop return
G1 E0.5 F2100 ; Un-retract
G1 X119.1616 Y94.22 E0.99515 F3600 ; Print pattern wall
G1 X97.9483 Y115.4332 E0.99515 F3600 ; Print pattern wall
G1 E-0.5 F2100 ; Retract
G1 Z0.55 F7200 ; Z hop
G0 X98.524 Y73.0068 F7200 ; Move to start next pattern wall
G1 Z0.45 F7200 ; Z hop return
G1 E0.5 F2100 ; Un-retract
G1 X119.7373 Y94.22 E0.99515 F3600 ; Print pattern wall
G1 X98.524 Y115.4332 E0.99515 F3600 ; Print pattern wall
G1 E-0.5 F2100 ; Retract
G1 Z0.55 F7200 ; Z hop
G0 X100.974 Y73.0068 F7200 ; Move to next pattern
G1 Z0.45 F7200 ; Z hop return
G1 E0.5 F2100 ; Un-retract
SET_PRESSURE_ADVANCE ADVANCE=0.055 ; Set pressure advance
M117 PA 0.055
G1 X122.1873 Y94.22 E0.99515 F3600 ; Print pattern wall
G1 X100.974 Y115.4332 E0.99515 F3600 ; Print pattern wall
G1 E-0.5 F2100 ; Retract
G1 Z0.55 F7200 ; Z hop
G0 X101.5497 Y73.0068 F7200 ; Move to start next pattern wall
G1 Z0.45 F7200 ; Z hop return
G1 E0.5 F2100 ; Un-retract
G1 X122.7629 Y94.22 E0.99515 F3600 ; Print pattern wall
G1 X101.5497 Y115.4332 E0.99515 F3600 ; Print pattern wall
G1 E-0.5 F2100 ; Retract
G1 Z0.55 F7200 ; Z hop
G0 X102.1254 Y73.0068 F7200 ; Move to start next pattern wall
G1 Z0.45 F7200 ; Z hop return
G1 E0.5 F2100 ; Un-retract
G1 X123.3386 Y94.22 E0.99515 F3600 ; Print pattern wall
G1 X102.1254 Y115.4332 E0.99515 F3600 ; Print pattern wall
G1 E-0.5 F2100 ; Retract
G1 Z0.55 F7200 ; Z hop
G0 X104.5754 Y73.0068 F7200 ; Move to next pattern
G1 Z0.45 F7200 ; Z hop return
G1 E0.5 F2100 ; Un-retract
SET_PRESSURE_ADVANCE ADVANCE=0.06 ; Set pressure advance
M117 PA 0.06
G1 X125.7886 Y94.22 E0.99515 F3600 ; Print pattern wall
G1 X104.5754 Y115.4332 E0.99515 F3600 ; Print pattern wall
G1 E-0.5 F2100 ; Retract
G1 Z0.55 F7200 ; Z hop
G0 X105.1511 Y73.0068 F7200 ; Move to start next pattern wall
G1 Z0.45 F7200 ; Z hop return
G1 E0.5 F2100 ; Un-retract
G1 X126.3643 Y94.22 E0.99515 F3600 ; Print pattern wall
G1 X105.1511 Y115.4332 E0.99515 F3600 ; Print pattern wall
G1 E-0.5 F2100 ; Retract
G1 Z0.55 F7200 ; Z hop
G0 X105.7268 Y73.0068 F7200 ; Move to start next pattern wall
G1 Z0.45 F7200 ; Z hop return
G1 E0.5 F2100 ; Un-retract
G1 X126.94 Y94.22 E0.99515 F3600 ; Print pattern wall
G1 X105.7268 Y115.4332 E0.99515 F3600 ; Print pattern wall
G1 E-0.5 F2100 ; Retract
G1 Z0.55 F7200 ; Z hop
G0 X108.1768 Y73.0068 F7200 ; Move to next pattern
G1 Z0.45 F7200 ; Z hop return
G1 E0.5 F2100 ; Un-retract
SET_PRESSURE_ADVANCE ADVANCE=0.065 ; Set pressure advance
M117 PA 0.065
G1 X129.39 Y94.22 E0.99515 F3600 ; Print pattern wall
G1 X108.1768 Y115.4332 E0.99515 F3600 ; Print pattern wall
G1 E-0.5 F2100 ; Retract
G1 Z0.55 F7200 ; Z hop
G0 X108.7525 Y73.0068 F7200 ; Move to start next pattern wall
G1 Z0.45 F7200 ; Z hop return
G1 E0.5 F2100 ; Un-retract
G1 X129.9657 Y94.22 E0.99515 F3600 ; Print pattern wall
G1 X108.7525 Y115.4332 E0.99515 F3600 ; Print pattern wall
G1 E-0.5 F2100 ; Retract
G1 Z0.55 F7200 ; Z hop
G0 X109.3282 Y73.0068 F7200 ; Move to start next pattern wall
G1 Z0.45 F7200 ; Z hop return
G1 E0.5 F2100 ; Un-retract
G1 X130.5414 Y94.22 E0.99515 F3600 ; Print pattern wall
G1 X109.3282 Y115.4332 E0.99515 F3600 ; Print pattern wall
G1 E-0.5 F2100 ; Retract
G1 Z0.55 F7200 ; Z hop
G0 X111.7782 Y73.0068 F7200 ; Move to next pattern
G1 Z0.45 F7200 ; Z hop return
G1 E0.5 F2100 ; Un-retract
SET_PRESSURE_ADVANCE ADVANCE=0.07 ; Set pressure advance
M117 PA 0.07
G1 X132.9914 Y94.22 E0.99515 F3600 ; Print pattern wall
G1 X111.7782 Y115.4332 E0.99515 F3600 ; Print pattern wall
G1 E-0.5 F2100 ; Retract
G1 Z0.55 F7200 ; Z hop
G0 X112.3539 Y73.0068 F7200 ; Move to start next pattern wall
G1 Z0.45 F7200 ; Z hop return
G1 E0.5 F2100 ; Un-retract
G1 X133.5671 Y94.22 E0.99515 F3600 ; Print pattern wall
G1 X112.3539 Y115.4332 E0.99515 F3600 ; Print pattern wall
G1 E-0.5 F2100 ; Retract
G1 Z0.55 F7200 ; Z hop
G0 X112.9296 Y73.0068 F7200 ; Move to start next pattern wall
G1 Z0.45 F7200 ; Z hop return
G1 E0.5 F2100 ; Un-retract
G1 X134.1428 Y94.22 E0.99515 F3600 ; Print pattern wall
G1 X112.9296 Y115.4332 E0.99515 F3600 ; Print pattern wall
G1 E-0.5 F2100 ; Retract
G1 Z0.55 F7200 ; Z hop
G0 X115.3796 Y73.0068 F7200 ; Move to next pattern
G1 Z0.45 F7200 ; Z hop return
G1 E0.5 F2100 ; Un-retract
SET_PRESSURE_ADVANCE ADVANCE=0.075 ; Set pressure advance
M117 PA 0.075
G1 X136.5928 Y94.22 E0.99515 F3600 ; Print pattern wall
G1 X115.3796 Y115.4332 E0.99515 F3600 ; Print pattern wall
G1 E-0.5 F2100 ; Retract
G1 Z0.55 F7200 ; Z hop
G0 X115.9553 Y73.0068 F7200 ; Move to start next pattern wall
G1 Z0.45 F7200 ; Z hop return
G1 E0.5 F2100 ; Un-retract
G1 X137.1685 Y94.22 E0.99515 F3600 ; Print pattern wall
G1 X115.9553 Y115.4332 E0.99515 F3600 ; Print pattern wall
G1 E-0.5 F2100 ; Retract
G1 Z0.55 F7200 ; Z hop
G0 X116.531 Y73.0068 F7200 ; Move to start next pattern wall
G1 Z0.45 F7200 ; Z hop return
G1 E0.5 F2100 ; Un-retract
G1 X137.7442 Y94.22 E0.99515 F3600 ; Print pattern wall
G1 X116.531 Y115.4332 E0.99515 F3600 ; Print pattern wall
G1 E-0.5 F2100 ; Retract
G1 Z0.55 F7200 ; Z hop
G0 X118.981 Y73.0068 F7200 ; Move to next pattern
G1 Z0.45 F7200 ; Z hop return
G1 E0.5 F2100 ; Un-retract
SET_PRESSURE_ADVANCE ADVANCE=0.08 ; Set pressure advance
M117 PA 0.08
G1 X140.1942 Y94.22 E0.99515 F3600 ; Print pattern wall
G1 X118.981 Y115.4332 E0.99515 F3600 ; Print pattern wall
G1 E-0.5 F2100 ; Retract
G1 Z0.55 F7200 ; Z hop
G0 X119.5567 Y73.0068 F7200 ; Move to start next pattern wall
G1 Z0.45 F7200 ; Z hop return
G1 E0.5 F2100 ; Un-retract
G1 X140.7699 Y94.22 E0.99515 F3600 ; Print pattern wall
G1 X119.5567 Y115.4332 E0.99515 F3600 ; Print pattern wall
G1 E-0.5 F2100 ; Retract
G1 Z0.55 F7200 ; Z hop
G0 X120.1324 Y73.0068 F7200 ; Move to start next pattern wall
G1 Z0.45 F7200 ; Z hop return
G1 E0.5 F2100 ; Un-retract
G1 X141.3456 Y94.22 E0.99515 F3600 ; Print pattern wall
G1 X120.1324 Y115.4332 E0.99515 F3600 ; Print pattern wall
G1 E-0.5 F2100 ; Retract
G1 Z0.55 F7200 ; Z hop
G0 X61.3587 Y73.0068 F7200 ; Move back to start position
G1 Z0.45 F7200 ; Z hop return
G1 E0.5 F2100 ; Un-retract
G0 Z0.65 F7200 ; Move to layer height
SET_PRESSURE_ADVANCE ADVANCE=0 ; Set pressure advance
M117 PA 0
G1 X82.5719 Y94.22 E0.99515 F3600 ; Print pattern wall
G1 X61.3587 Y115.4332 E0.99515 F3600 ; Print pattern wall
G1 E-0.5 F2100 ; Retract
G1 Z0.75 F7200 ; Z hop
G0 X61.9344 Y73.0068 F7200 ; Move to start next pattern wall
G1 Z0.65 F7200 ; Z hop return
G1 E0.5 F2100 ; Un-retract
G1 X83.1476 Y94.22 E0.99515 F3600 ; Print pattern wall
G1 X61.9344 Y115.4332 E0.99515 F3600 ; Print pattern wall
G1 E-0.5 F2100 ; Retract
G1 Z0.75 F7200 ; Z hop
G0 X62.5101 Y73.0068 F7200 ; Move to start next pattern wall
G1 Z0.65 F7200 ; Z hop return
G1 E0.5 F2100 ; Un-retract
G1 X83.7233 Y94.22 E0.99515 F3600 ; Print pattern wall
G1 X62.5101 Y115.4332 E0.99515 F3600 ; Print pattern wall
G1 E-0.5 F2100 ; Retract
G1 Z0.75 F7200 ; Z hop
G0 X64.9601 Y73.0068 F7200 ; Move to next pattern
G1 Z0.65 F7200 ; Z hop return
G1 E0.5 F2100 ; Un-retract
SET_PRESSURE_ADVANCE ADVANCE=0.005 ; Set pressure advance
M117 PA 0.005
G1 X86.1733 Y94.22 E0.99515 F3600 ; Print pattern wall
G1 X64.9601 Y115.4332 E0.99515 F3600 ; Print pattern wall
G1 E-0.5 F2100 ; Retract
G1 Z0.75 F7200 ; Z hop
G0 X65.5358 Y73.0068 F7200 ; Move to start next pattern wall
G1 Z0.65 F7200 ; Z hop return
G1 E0.5 F2100 ; Un-retract
G1 X86.749 Y94.22 E0.99515 F3600 ; Print pattern wall
G1 X65.5358 Y115.4332 E0.99515 F3600 ; Print pattern wall
G1 E-0.5 F2100 ; Retract
G1 Z0.75 F7200 ; Z hop
G0 X66.1115 Y73.0068 F7200 ; Move to start next pattern wall
G1 Z0.65 F7200 ; Z hop return
G1 E0.5 F2100 ; Un-retract
G1 X87.3247 Y94.22 E0.99515 F3600 ; Print pattern wall
G1 X66.1115 Y115.4332 E0.99515 F3600 ; Print pattern wall
G1 E-0.5 F2100 ; Retract
G1 Z0.75 F7200 ; Z hop
G0 X68.5615 Y73.0068 F7200 ; Move to next pattern
G1 Z0.65 F7200 ; Z hop return
G1 E0.5 F2100 ; Un-retract
SET_PRESSURE_ADVANCE ADVANCE=0.01 ; Set pressure advance
M117 PA 0.01
G1 X89.7747 Y94.22 E0.99515 F3600 ; Print pattern wall
G1 X68.5615 Y115.4332 E0.99515 F3600 ; Print pattern wall
G1 E-0.5 F2100 ; Retract
G1 Z0.75 F7200 ; Z hop
G0 X69.1372 Y73.0068 F7200 ; Move to start next pattern wall
G1 Z0.65 F7200 ; Z hop return
G1 E0.5 F2100 ; Un-retract
G1 X90.3504 Y94.22 E0.99515 F3600 ; Print pattern wall
G1 X69.1372 Y115.4332 E0.99515 F3600 ; Print pattern wall
G1 E-0.5 F2100 ; Retract
G1 Z0.75 F7200 ; Z hop
G0 X69.7129 Y73.0068 F7200 ; Move to start next pattern wall
G1 Z0.65 F7200 ; Z hop return
G1 E0.5 F2100 ; Un-retract
G1 X90.9261 Y94.22 E0.99515 F3600 ; Print pattern wall
G1 X69.7129 Y115.4332 E0.99515 F3600 ; Print pattern wall
G1 E-0.5 F2100 ; Retract
G1 Z0.75 F7200 ; Z hop
G0 X72.1629 Y73.0068 F7200 ; Move to next pattern
G1 Z0.65 F7200 ; Z hop return
G1 E0.5 F2100 ; Un-retract
SET_PRESSURE_ADVANCE ADVANCE=0.015 ; Set pressure advance
M117 PA 0.015
G1 X93.3761 Y94.22 E0.99515 F3600 ; Print pattern wall
G1 X72.1629 Y115.4332 E0.99515 F3600 ; Print pattern wall
G1 E-0.5 F2100 ; Retract
G1 Z0.75 F7200 ; Z hop
G0 X72.7386 Y73.0068 F7200 ; Move to start next pattern wall
G1 Z0.65 F7200 ; Z hop return
G1 E0.5 F2100 ; Un-retract
G1 X93.9518 Y94.22 E0.99515 F3600 ; Print pattern wall
G1 X72.7386 Y115.4332 E0.99515 F3600 ; Print pattern wall
G1 E-0.5 F2100 ; Retract
G1 Z0.75 F7200 ; Z hop
G0 X73.3143 Y73.0068 F7200 ; Move to start next pattern wall
G1 Z0.65 F7200 ; Z hop return
G1 E0.5 F2100 ; Un-retract
G1 X94.5275 Y94.22 E0.99515 F3600 ; Print pattern wall
G1 X73.3143 Y115.4332 E0.99515 F3600 ; Print pattern wall
G1 E-0.5 F2100 ; Retract
G1 Z0.75 F7200 ; Z hop
G0 X75.7643 Y73.0068 F7200 ; Move to next pattern
G1 Z0.65 F7200 ; Z hop return
G1 E0.5 F2100 ; Un-retract
SET_PRESSURE_ADVANCE ADVANCE=0.02 ; Set pressure advance
M117 PA 0.02
G1 X96.9775 Y94.22 E0.99515 F3600 ; Print pattern wall
G1 X75.7643 Y115.4332 E0.99515 F3600 ; Print pattern wall
G1 E-0.5 F2100 ; Retract
G1 Z0.75 F7200 ; Z hop
G0 X76.34 Y73.0068 F7200 ; Move to start next pattern wall
G1 Z0.65 F7200 ; Z hop return
G1 E0.5 F2100 ; Un-retract
G1 X97.5532 Y94.22 E0.99515 F3600 ; Print pattern wall
G1 X76.34 Y115.4332 E0.99515 F3600 ; Print pattern wall
G1 E-0.5 F2100 ; Retract
G1 Z0.75 F7200 ; Z hop
G0 X76.9157 Y73.0068 F7200 ; Move to start next pattern wall
G1 Z0.65 F7200 ; Z hop return
G1 E0.5 F2100 ; Un-retract
G1 X98.1289 Y94.22 E0.99515 F3600 ; Print pattern wall
G1 X76.9157 Y115.4332 E0.99515 F3600 ; Print pattern wall
G1 E-0.5 F2100 ; Retract
G1 Z0.75 F7200 ; Z hop
G0 X79.3657 Y73.0068 F7200 ; Move to next pattern
G1 Z0.65 F7200 ; Z hop return
G1 E0.5 F2100 ; Un-retract
SET_PRESSURE_ADVANCE ADVANCE=0.025 ; Set pressure advance
M117 PA 0.025
G1 X100.5789 Y94.22 E0.99515 F3600 ; Print pattern wall
G1 X79.3657 Y115.4332 E0.99515 F3600 ; Print pattern wall
G1 E-0.5 F2100 ; Retract
G1 Z0.75 F7200 ; Z hop
G0 X79.9414 Y73.0068 F7200 ; Move to start next pattern wall
G1 Z0.65 F7200 ; Z hop return
G1 E0.5 F2100 ; Un-retract
G1 X101.1546 Y94.22 E0.99515 F3600 ; Print pattern wall
G1 X79.9414 Y115.4332 E0.99515 F3600 ; Print pattern wall
G1 E-0.5 F2100 ; Retract
G1 Z0.75 F7200 ; Z hop
G0 X80.5171 Y73.0068 F7200 ; Move to start next pattern wall
G1 Z0.65 F7200 ; Z hop return
G1 E0.5 F2100 ; Un-retract
G1 X101.7303 Y94.22 E0.99515 F3600 ; Print pattern wall
G1 X80.5171 Y115.4332 E0.99515 F3600 ; Print pattern wall
G1 E-0.5 F2100 ; Retract
G1 Z0.75 F7200 ; Z hop
G0 X82.9671 Y73.0068 F7200 ; Move to next pattern
G1 Z0.65 F7200 ; Z hop return
G1 E0.5 F2100 ; Un-retract
SET_PRESSURE_ADVANCE ADVANCE=0.03 ; Set pressure advance
M117 PA 0.03
G1 X104.1803 Y94.22 E0.99515 F3600 ; Print pattern wall
G1 X82.9671 Y115.4332 E0.99515 F3600 ; Print pattern wall
G1 E-0.5 F2100 ; Retract
G1 Z0.75 F7200 ; Z hop
G0 X83.5428 Y73.0068 F7200 ; Move to start next pattern wall
G1 Z0.65 F7200 ; Z hop return
G1 E0.5 F2100 ; Un-retract
G1 X104.756 Y94.22 E0.99515 F3600 ; Print pattern wall
G1 X83.5428 Y115.4332 E0.99515 F3600 ; Print pattern wall
G1 E-0.5 F2100 ; Retract
G1 Z0.75 F7200 ; Z hop
G0 X84.1185 Y73.0068 F7200 ; Move to start next pattern wall
G1 Z0.65 F7200 ; Z hop return
G1 E0.5 F2100 ; Un-retract
G1 X105.3317 Y94.22 E0.99515 F3600 ; Print pattern wall
G1 X84.1185 Y115.4332 E0.99515 F3600 ; Print pattern wall
G1 E-0.5 F2100 ; Retract
G1 Z0.75 F7200 ; Z hop
G0 X86.5685 Y73.0068 F7200 ; Move to next pattern
G1 Z0.65 F7200 ; Z hop return
G1 E0.5 F2100 ; Un-retract
SET_PRESSURE_ADVANCE ADVANCE=0.035 ; Set pressure advance
M117 PA 0.035
G1 X107.7817 Y94.22 E0.99515 F3600 ; Print pattern wall
G1 X86.5685 Y115.4332 E0.99515 F3600 ; Print pattern wall
G1 E-0.5 F2100 ; Retract
G1 Z0.75 F7200 ; Z hop
G0 X87.1442 Y73.0068 F7200 ; Move to start next pattern wall
G1 Z0.65 F7200 ; Z hop return
G1 E0.5 F2100 ; Un-retract
G1 X108.3574 Y94.22 E0.99515 F3600 ; Print pattern wall
G1 X87.1442 Y115.4332 E0.99515 F3600 ; Print pattern wall
G1 E-0.5 F2100 ; Retract
G1 Z0.75 F7200 ; Z hop
G0 X87.7199 Y73.0068 F7200 ; Move to start next pattern wall
G1 Z0.65 F7200 ; Z hop return
G1 E0.5 F2100 ; Un-retract
G1 X108.9331 Y94.22 E0.99515 F3600 ; Print pattern wall
G1 X87.7199 Y115.4332 E0.99515 F3600 ; Print pattern wall
G1 E-0.5 F2100 ; Retract
G1 Z0.75 F7200 ; Z hop
G0 X90.1699 Y73.0068 F7200 ; Move to next pattern
G1 Z0.65 F7200 ; Z hop return
G1 E0.5 F2100 ; Un-retract
SET_PRESSURE_ADVANCE ADVANCE=0.04 ; Set pressure advance
M117 PA 0.04
G1 X111.3831 Y94.22 E0.99515 F3600 ; Print pattern wall
G1 X90.1699 Y115.4332 E0.99515 F3600 ; Print pattern wall
G1 E-0.5 F2100 ; Retract
G1 Z0.75 F7200 ; Z hop
G0 X90.7456 Y73.0068 F7200 ; Move to start next pattern wall
G1 Z0.65 F7200 ; Z hop return
G1 E0.5 F2100 ; Un-retract
G1 X111.9588 Y94.22 E0.99515 F3600 ; Print pattern wall
G1 X90.7456 Y115.4332 E0.99515 F3600 ; Print pattern wall
G1 E-0.5 F2100 ; Retract
G1 Z0.75 F7200 ; Z hop
G0 X91.3213 Y73.0068 F7200 ; Move to start next pattern wall
G1 Z0.65 F7200 ; Z hop return
G1 E0.5 F2100 ; Un-retract
G1 X112.5345 Y94.22 E0.99515 F3600 ; Print pattern wall
G1 X91.3213 Y115.4332 E0.99515 F3600 ; Print pattern wall
G1 E-0.5 F2100 ; Retract
G1 Z0.75 F7200 ; Z hop
G0 X93.7713 Y73.0068 F7200 ; Move to next pattern
G1 Z0.65 F7200 ; Z hop return
G1 E0.5 F2100 ; Un-retract
SET_PRESSURE_ADVANCE ADVANCE=0.045 ; Set pressure advance
M117 PA 0.045
G1 X114.9845 Y94.22 E0.99515 F3600 ; Print pattern wall
G1 X93.7713 Y115.4332 E0.99515 F3600 ; Print pattern wall
G1 E-0.5 F2100 ; Retract
G1 Z0.75 F7200 ; Z hop
G0 X94.347 Y73.0068 F7200 ; Move to start next pattern wall
G1 Z0.65 F7200 ; Z hop return
G1 E0.5 F2100 ; Un-retract
G1 X115.5602 Y94.22 E0.99515 F3600 ; Print pattern wall
G1 X94.347 Y115.4332 E0.99515 F3600 ; Print pattern wall
G1 E-0.5 F2100 ; Retract
G1 Z0.75 F7200 ; Z hop
G0 X94.9227 Y73.0068 F7200 ; Move to start next pattern wall
G1 Z0.65 F7200 ; Z hop return
G1 E0.5 F2100 ; Un-retract
G1 X116.1359 Y94.22 E0.99515 F3600 ; Print pattern wall
G1 X94.9227 Y115.4332 E0.99515 F3600 ; Print pattern wall
G1 E-0.5 F2100 ; Retract
G1 Z0.75 F7200 ; Z hop
G0 X97.3727 Y73.0068 F7200 ; Move to next pattern
G1 Z0.65 F7200 ; Z hop return
G1 E0.5 F2100 ; Un-retract
SET_PRESSURE_ADVANCE ADVANCE=0.05 ; Set pressure advance
M117 PA 0.05
G1 X118.5859 Y94.22 E0.99515 F3600 ; Print pattern wall
G1 X97.3727 Y115.4332 E0.99515 F3600 ; Print pattern wall
G1 E-0.5 F2100 ; Retract
G1 Z0.75 F7200 ; Z hop
G0 X97.9483 Y73.0068 F7200 ; Move to start next pattern wall
G1 Z0.65 F7200 ; Z hop return
G1 E0.5 F2100 ; Un-retract
G1 X119.1616 Y94.22 E0.99515 F3600 ; Print pattern wall
G1 X97.9483 Y115.4332 E0.99515 F3600 ; Print pattern wall
G1 E-0.5 F2100 ; Retract
G1 Z0.75 F7200 ; Z hop
G0 X98.524 Y73.0068 F7200 ; Move to start next pattern wall
G1 Z0.65 F7200 ; Z hop return
G1 E0.5 F2100 ; Un-retract
G1 X119.7373 Y94.22 E0.99515 F3600 ; Print pattern wall
G1 X98.524 Y115.4332 E0.99515 F3600 ; Print pattern wall
G1 E-0.5 F2100 ; Retract
G1 Z0.75 F7200 ; Z hop
G0 X100.974 Y73.0068 F7200 ; Move to next pattern
G1 Z0.65 F7200 ; Z hop return
G1 E0.5 F2100 ; Un-retract
SET_PRESSURE_ADVANCE ADVANCE=0.055 ; Set pressure advance
M117 PA 0.055
G1 X122.1873 Y94.22 E0.99515 F3600 ; Print pattern wall
G1 X100.974 Y115.4332 E0.99515 F3600 ; Print pattern wall
G1 E-0.5 F2100 ; Retract
G1 Z0.75 F7200 ; Z hop
G0 X101.5497 Y73.0068 F7200 ; Move to start next pattern wall
G1 Z0.65 F7200 ; Z hop return
G1 E0.5 F2100 ; Un-retract
G1 X122.7629 Y94.22 E0.99515 F3600 ; Print pattern wall
G1 X101.5497 Y115.4332 E0.99515 F3600 ; Print pattern wall
G1 E-0.5 F2100 ; Retract
G1 Z0.75 F7200 ; Z hop
G0 X102.1254 Y73.0068 F7200 ; Move to start next pattern wall
G1 Z0.65 F7200 ; Z hop return
G1 E0.5 F2100 ; Un-retract
G1 X123.3386 Y94.22 E0.99515 F3600 ; Print pattern wall
G1 X102.1254 Y115.4332 E0.99515 F3600 ; Print pattern wall
G1 E-0.5 F2100 ; Retract
G1 Z0.75 F7200 ; Z hop
G0 X104.5754 Y73.0068 F7200 ; Move to next pattern
G1 Z0.65 F7200 ; Z hop return
G1 E0.5 F2100 ; Un-retract
SET_PRESSURE_ADVANCE ADVANCE=0.06 ; Set pressure advance
M117 PA 0.06
G1 X125.7886 Y94.22 E0.99515 F3600 ; Print pattern wall
G1 X104.5754 Y115.4332 E0.99515 F3600 ; Print pattern wall
G1 E-0.5 F2100 ; Retract
G1 Z0.75 F7200 ; Z hop
G0 X105.1511 Y73.0068 F7200 ; Move to start next pattern wall
G1 Z0.65 F7200 ; Z hop return
G1 E0.5 F2100 ; Un-retract
G1 X126.3643 Y94.22 E0.99515 F3600 ; Print pattern wall
G1 X105.1511 Y115.4332 E0.99515 F3600 ; Print pattern wall
G1 E-0.5 F2100 ; Retract
G1 Z0.75 F7200 ; Z hop
G0 X105.7268 Y73.0068 F7200 ; Move to start next pattern wall
G1 Z0.65 F7200 ; Z hop return
G1 E0.5 F2100 ; Un-retract
G1 X126.94 Y94.22 E0.99515 F3600 ; Print pattern wall
G1 X105.7268 Y115.4332 E0.99515 F3600 ; Print pattern wall
G1 E-0.5 F2100 ; Retract
G1 Z0.75 F7200 ; Z hop
G0 X108.1768 Y73.0068 F7200 ; Move to next pattern
G1 Z0.65 F7200 ; Z hop return
G1 E0.5 F2100 ; Un-retract
SET_PRESSURE_ADVANCE ADVANCE=0.065 ; Set pressure advance
M117 PA 0.065
G1 X129.39 Y94.22 E0.99515 F3600 ; Print pattern wall
G1 X108.1768 Y115.4332 E0.99515 F3600 ; Print pattern wall
G1 E-0.5 F2100 ; Retract
G1 Z0.75 F7200 ; Z hop
G0 X108.7525 Y73.0068 F7200 ; Move to start next pattern wall
G1 Z0.65 F7200 ; Z hop return
G1 E0.5 F2100 ; Un-retract
G1 X129.9657 Y94.22 E0.99515 F3600 ; Print pattern wall
G1 X108.7525 Y115.4332 E0.99515 F3600 ; Print pattern wall
G1 E-0.5 F2100 ; Retract
G1 Z0.75 F7200 ; Z hop
G0 X109.3282 Y73.0068 F7200 ; Move to start next pattern wall
G1 Z0.65 F7200 ; Z hop return
G1 E0.5 F2100 ; Un-retract
G1 X130.5414 Y94.22 E0.99515 F3600 ; Print pattern wall
G1 X109.3282 Y115.4332 E0.99515 F3600 ; Print pattern wall
G1 E-0.5 F2100 ; Retract
G1 Z0.75 F7200 ; Z hop
G0 X111.7782 Y73.0068 F7200 ; Move to next pattern
G1 Z0.65 F7200 ; Z hop return
G1 E0.5 F2100 ; Un-retract
SET_PRESSURE_ADVANCE ADVANCE=0.07 ; Set pressure advance
M117 PA 0.07
G1 X132.9914 Y94.22 E0.99515 F3600 ; Print pattern wall
G1 X111.7782 Y115.4332 E0.99515 F3600 ; Print pattern wall
G1 E-0.5 F2100 ; Retract
G1 Z0.75 F7200 ; Z hop
G0 X112.3539 Y73.0068 F7200 ; Move to start next pattern wall
G1 Z0.65 F7200 ; Z hop return
G1 E0.5 F2100 ; Un-retract
G1 X133.5671 Y94.22 E0.99515 F3600 ; Print pattern wall
G1 X112.3539 Y115.4332 E0.99515 F3600 ; Print pattern wall
G1 E-0.5 F2100 ; Retract
G1 Z0.75 F7200 ; Z hop
G0 X112.9296 Y73.0068 F7200 ; Move to start next pattern wall
G1 Z0.65 F7200 ; Z hop return
G1 E0.5 F2100 ; Un-retract
G1 X134.1428 Y94.22 E0.99515 F3600 ; Print pattern wall
G1 X112.9296 Y115.4332 E0.99515 F3600 ; Print pattern wall
G1 E-0.5 F2100 ; Retract
G1 Z0.75 F7200 ; Z hop
G0 X115.3796 Y73.0068 F7200 ; Move to next pattern
G1 Z0.65 F7200 ; Z hop return
G1 E0.5 F2100 ; Un-retract
SET_PRESSURE_ADVANCE ADVANCE=0.075 ; Set pressure advance
M117 PA 0.075
G1 X136.5928 Y94.22 E0.99515 F3600 ; Print pattern wall
G1 X115.3796 Y115.4332 E0.99515 F3600 ; Print pattern wall
G1 E-0.5 F2100 ; Retract
G1 Z0.75 F7200 ; Z hop
G0 X115.9553 Y73.0068 F7200 ; Move to start next pattern wall
G1 Z0.65 F7200 ; Z hop return
G1 E0.5 F2100 ; Un-retract
G1 X137.1685 Y94.22 E0.99515 F3600 ; Print pattern wall
G1 X115.9553 Y115.4332 E0.99515 F3600 ; Print pattern wall
G1 E-0.5 F2100 ; Retract
G1 Z0.75 F7200 ; Z hop
G0 X116.531 Y73.0068 F7200 ; Move to start next pattern wall
G1 Z0.65 F7200 ; Z hop return
G1 E0.5 F2100 ; Un-retract
G1 X137.7442 Y94.22 E0.99515 F3600 ; Print pattern wall
G1 X116.531 Y115.4332 E0.99515 F3600 ; Print pattern wall
G1 E-0.5 F2100 ; Retract
G1 Z0.75 F7200 ; Z hop
G0 X118.981 Y73.0068 F7200 ; Move to next pattern
G1 Z0.65 F7200 ; Z hop return
G1 E0.5 F2100 ; Un-retract
SET_PRESSURE_ADVANCE ADVANCE=0.08 ; Set pressure advance
M117 PA 0.08
G1 X140.1942 Y94.22 E0.99515 F3600 ; Print pattern wall
G1 X118.981 Y115.4332 E0.99515 F3600 ; Print pattern wall
G1 E-0.5 F2100 ; Retract
G1 Z0.75 F7200 ; Z hop
G0 X119.5567 Y73.0068 F7200 ; Move to start next pattern wall
G1 Z0.65 F7200 ; Z hop return
G1 E0.5 F2100 ; Un-retract
G1 X140.7699 Y94.22 E0.99515 F3600 ; Print pattern wall
G1 X119.5567 Y115.4332 E0.99515 F3600 ; Print pattern wall
G1 E-0.5 F2100 ; Retract
G1 Z0.75 F7200 ; Z hop
G0 X120.1324 Y73.0068 F7200 ; Move to start next pattern wall
G1 Z0.65 F7200 ; Z hop return
G1 E0.5 F2100 ; Un-retract
G1 X141.3456 Y94.22 E0.99515 F3600 ; Print pattern wall
G1 X120.1324 Y115.4332 E0.99515 F3600 ; Print pattern wall
G1 E-0.5 F2100 ; Retract
G1 Z0.75 F7200 ; Z hop
G0 X61.3587 Y73.0068 F7200 ; Move back to start position
G1 Z0.65 F7200 ; Z hop return
G1 E0.5 F2100 ; Un-retract
G0 Z0.85 F7200 ; Move to layer height
SET_PRESSURE_ADVANCE ADVANCE=0 ; Set pressure advance
M117 PA 0
G1 X82.5719 Y94.22 E0.99515 F3600 ; Print pattern wall
G1 X61.3587 Y115.4332 E0.99515 F3600 ; Print pattern wall
G1 E-0.5 F2100 ; Retract
G1 Z0.95 F7200 ; Z hop
G0 X61.9344 Y73.0068 F7200 ; Move to start next pattern wall
G1 Z0.85 F7200 ; Z hop return
G1 E0.5 F2100 ; Un-retract
G1 X83.1476 Y94.22 E0.99515 F3600 ; Print pattern wall
G1 X61.9344 Y115.4332 E0.99515 F3600 ; Print pattern wall
G1 E-0.5 F2100 ; Retract
G1 Z0.95 F7200 ; Z hop
G0 X62.5101 Y73.0068 F7200 ; Move to start next pattern wall
G1 Z0.85 F7200 ; Z hop return
G1 E0.5 F2100 ; Un-retract
G1 X83.7233 Y94.22 E0.99515 F3600 ; Print pattern wall
G1 X62.5101 Y115.4332 E0.99515 F3600 ; Print pattern wall
G1 E-0.5 F2100 ; Retract
G1 Z0.95 F7200 ; Z hop
G0 X64.9601 Y73.0068 F7200 ; Move to next pattern
G1 Z0.85 F7200 ; Z hop return
G1 E0.5 F2100 ; Un-retract
SET_PRESSURE_ADVANCE ADVANCE=0.005 ; Set pressure advance
M117 PA 0.005
G1 X86.1733 Y94.22 E0.99515 F3600 ; Print pattern wall
G1 X64.9601 Y115.4332 E0.99515 F3600 ; Print pattern wall
G1 E-0.5 F2100 ; Retract
G1 Z0.95 F7200 ; Z hop
G0 X65.5358 Y73.0068 F7200 ; Move to start next pattern wall
G1 Z0.85 F7200 ; Z hop return
G1 E0.5 F2100 ; Un-retract
G1 X86.749 Y94.22 E0.99515 F3600 ; Print pattern wall
G1 X65.5358 Y115.4332 E0.99515 F3600 ; Print pattern wall
G1 E-0.5 F2100 ; Retract
G1 Z0.95 F7200 ; Z hop
G0 X66.1115 Y73.0068 F7200 ; Move to start next pattern wall
G1 Z0.85 F7200 ; Z hop return
G1 E0.5 F2100 ; Un-retract
G1 X87.3247 Y94.22 E0.99515 F3600 ; Print pattern wall
G1 X66.1115 Y115.4332 E0.99515 F3600 ; Print pattern wall
G1 E-0.5 F2100 ; Retract
G1 Z0.95 F7200 ; Z hop
G0 X68.5615 Y73.0068 F7200 ; Move to next pattern
G1 Z0.85 F7200 ; Z hop return
G1 E0.5 F2100 ; Un-retract
SET_PRESSURE_ADVANCE ADVANCE=0.01 ; Set pressure advance
M117 PA 0.01
G1 X89.7747 Y94.22 E0.99515 F3600 ; Print pattern wall
G1 X68.5615 Y115.4332 E0.99515 F3600 ; Print pattern wall
G1 E-0.5 F2100 ; Retract
G1 Z0.95 F7200 ; Z hop
G0 X69.1372 Y73.0068 F7200 ; Move to start next pattern wall
G1 Z0.85 F7200 ; Z hop return
G1 E0.5 F2100 ; Un-retract
G1 X90.3504 Y94.22 E0.99515 F3600 ; Print pattern wall
G1 X69.1372 Y115.4332 E0.99515 F3600 ; Print pattern wall
G1 E-0.5 F2100 ; Retract
G1 Z0.95 F7200 ; Z hop
G0 X69.7129 Y73.0068 F7200 ; Move to start next pattern wall
G1 Z0.85 F7200 ; Z hop return
G1 E0.5 F2100 ; Un-retract
G1 X90.9261 Y94.22 E0.99515 F3600 ; Print pattern wall
G1 X69.7129 Y115.4332 E0.99515 F3600 ; Print pattern wall
G1 E-0.5 F2100 ; Retract
G1 Z0.95 F7200 ; Z hop
G0 X72.1629 Y73.0068 F7200 ; Move to next pattern
G1 Z0.85 F7200 ; Z hop return
G1 E0.5 F2100 ; Un-retract
SET_PRESSURE_ADVANCE ADVANCE=0.015 ; Set pressure advance
M117 PA 0.015
G1 X93.3761 Y94.22 E0.99515 F3600 ; Print pattern wall
G1 X72.1629 Y115.4332 E0.99515 F3600 ; Print pattern wall
G1 E-0.5 F2100 ; Retract
G1 Z0.95 F7200 ; Z hop
G0 X72.7386 Y73.0068 F7200 ; Move to start next pattern wall
G1 Z0.85 F7200 ; Z hop return
G1 E0.5 F2100 ; Un-retract
G1 X93.9518 Y94.22 E0.99515 F3600 ; Print pattern wall
G1 X72.7386 Y115.4332 E0.99515 F3600 ; Print pattern wall
G1 E-0.5 F2100 ; Retract
G1 Z0.95 F7200 ; Z hop
G0 X73.3143 Y73.0068 F7200 ; Move to start next pattern wall
G1 Z0.85 F7200 ; Z hop return
G1 E0.5 F2100 ; Un-retract
G1 X94.5275 Y94.22 E0.99515 F3600 ; Print pattern wall
G1 X73.3143 Y115.4332 E0.99515 F3600 ; Print pattern wall
G1 E-0.5 F2100 ; Retract
G1 Z0.95 F7200 ; Z hop
G0 X75.7643 Y73.0068 F7200 ; Move to next pattern
G1 Z0.85 F7200 ; Z hop return
G1 E0.5 F2100 ; Un-retract
SET_PRESSURE_ADVANCE ADVANCE=0.02 ; Set pressure advance
M117 PA 0.02
G1 X96.9775 Y94.22 E0.99515 F3600 ; Print pattern wall
G1 X75.7643 Y115.4332 E0.99515 F3600 ; Print pattern wall
G1 E-0.5 F2100 ; Retract
G1 Z0.95 F7200 ; Z hop
G0 X76.34 Y73.0068 F7200 ; Move to start next pattern wall
G1 Z0.85 F7200 ; Z hop return
G1 E0.5 F2100 ; Un-retract
G1 X97.5532 Y94.22 E0.99515 F3600 ; Print pattern wall
G1 X76.34 Y115.4332 E0.99515 F3600 ; Print pattern wall
G1 E-0.5 F2100 ; Retract
G1 Z0.95 F7200 ; Z hop
G0 X76.9157 Y73.0068 F7200 ; Move to start next pattern wall
G1 Z0.85 F7200 ; Z hop return
G1 E0.5 F2100 ; Un-retract
G1 X98.1289 Y94.22 E0.99515 F3600 ; Print pattern wall
G1 X76.9157 Y115.4332 E0.99515 F3600 ; Print pattern wall
G1 E-0.5 F2100 ; Retract
G1 Z0.95 F7200 ; Z hop
G0 X79.3657 Y73.0068 F7200 ; Move to next pattern
G1 Z0.85 F7200 ; Z hop return
G1 E0.5 F2100 ; Un-retract
SET_PRESSURE_ADVANCE ADVANCE=0.025 ; Set pressure advance
M117 PA 0.025
G1 X100.5789 Y94.22 E0.99515 F3600 ; Print pattern wall
G1 X79.3657 Y115.4332 E0.99515 F3600 ; Print pattern wall
G1 E-0.5 F2100 ; Retract
G1 Z0.95 F7200 ; Z hop
G0 X79.9414 Y73.0068 F7200 ; Move to start next pattern wall
G1 Z0.85 F7200 ; Z hop return
G1 E0.5 F2100 ; Un-retract
G1 X101.1546 Y94.22 E0.99515 F3600 ; Print pattern wall
G1 X79.9414 Y115.4332 E0.99515 F3600 ; Print pattern wall
G1 E-0.5 F2100 ; Retract
G1 Z0.95 F7200 ; Z hop
G0 X80.5171 Y73.0068 F7200 ; Move to start next pattern wall
G1 Z0.85 F7200 ; Z hop return
G1 E0.5 F2100 ; Un-retract
G1 X101.7303 Y94.22 E0.99515 F3600 ; Print pattern wall
G1 X80.5171 Y115.4332 E0.99515 F3600 ; Print pattern wall
G1 E-0.5 F2100 ; Retract
G1 Z0.95 F7200 ; Z hop
G0 X82.9671 Y73.0068 F7200 ; Move to next pattern
G1 Z0.85 F7200 ; Z hop return
G1 E0.5 F2100 ; Un-retract
SET_PRESSURE_ADVANCE ADVANCE=0.03 ; Set pressure advance
M117 PA 0.03
G1 X104.1803 Y94.22 E0.99515 F3600 ; Print pattern wall
G1 X82.9671 Y115.4332 E0.99515 F3600 ; Print pattern wall
G1 E-0.5 F2100 ; Retract
G1 Z0.95 F7200 ; Z hop
G0 X83.5428 Y73.0068 F7200 ; Move to start next pattern wall
G1 Z0.85 F7200 ; Z hop return
G1 E0.5 F2100 ; Un-retract
G1 X104.756 Y94.22 E0.99515 F3600 ; Print pattern wall
G1 X83.5428 Y115.4332 E0.99515 F3600 ; Print pattern wall
G1 E-0.5 F2100 ; Retract
G1 Z0.95 F7200 ; Z hop
G0 X84.1185 Y73.0068 F7200 ; Move to start next pattern wall
G1 Z0.85 F7200 ; Z hop return
G1 E0.5 F2100 ; Un-retract
G1 X105.3317 Y94.22 E0.99515 F3600 ; Print pattern wall
G1 X84.1185 Y115.4332 E0.99515 F3600 ; Print pattern wall
G1 E-0.5 F2100 ; Retract
G1 Z0.95 F7200 ; Z hop
G0 X86.5685 Y73.0068 F7200 ; Move to next pattern
G1 Z0.85 F7200 ; Z hop return
G1 E0.5 F2100 ; Un-retract
SET_PRESSURE_ADVANCE ADVANCE=0.035 ; Set pressure advance
M117 PA 0.035
G1 X107.7817 Y94.22 E0.99515 F3600 ; Print pattern wall
G1 X86.5685 Y115.4332 E0.99515 F3600 ; Print pattern wall
G1 E-0.5 F2100 ; Retract
G1 Z0.95 F7200 ; Z hop
G0 X87.1442 Y73.0068 F7200 ; Move to start next pattern wall
G1 Z0.85 F7200 ; Z hop return
G1 E0.5 F2100 ; Un-retract
G1 X108.3574 Y94.22 E0.99515 F3600 ; Print pattern wall
G1 X87.1442 Y115.4332 E0.99515 F3600 ; Print pattern wall
G1 E-0.5 F2100 ; Retract
G1 Z0.95 F7200 ; Z hop
G0 X87.7199 Y73.0068 F7200 ; Move to start next pattern wall
G1 Z0.85 F7200 ; Z hop return
G1 E0.5 F2100 ; Un-retract
G1 X108.9331 Y94.22 E0.99515 F3600 ; Print pattern wall
G1 X87.7199 Y115.4332 E0.99515 F3600 ; Print pattern wall
G1 E-0.5 F2100 ; Retract
G1 Z0.95 F7200 ; Z hop
G0 X90.1699 Y73.0068 F7200 ; Move to next pattern
G1 Z0.85 F7200 ; Z hop return
G1 E0.5 F2100 ; Un-retract
SET_PRESSURE_ADVANCE ADVANCE=0.04 ; Set pressure advance
M117 PA 0.04
G1 X111.3831 Y94.22 E0.99515 F3600 ; Print pattern wall
G1 X90.1699 Y115.4332 E0.99515 F3600 ; Print pattern wall
G1 E-0.5 F2100 ; Retract
G1 Z0.95 F7200 ; Z hop
G0 X90.7456 Y73.0068 F7200 ; Move to start next pattern wall
G1 Z0.85 F7200 ; Z hop return
G1 E0.5 F2100 ; Un-retract
G1 X111.9588 Y94.22 E0.99515 F3600 ; Print pattern wall
G1 X90.7456 Y115.4332 E0.99515 F3600 ; Print pattern wall
G1 E-0.5 F2100 ; Retract
G1 Z0.95 F7200 ; Z hop
G0 X91.3213 Y73.0068 F7200 ; Move to start next pattern wall
G1 Z0.85 F7200 ; Z hop return
G1 E0.5 F2100 ; Un-retract
G1 X112.5345 Y94.22 E0.99515 F3600 ; Print pattern wall
G1 X91.3213 Y115.4332 E0.99515 F3600 ; Print pattern wall
G1 E-0.5 F2100 ; Retract
G1 Z0.95 F7200 ; Z hop
G0 X93.7713 Y73.0068 F7200 ; Move to next pattern
G1 Z0.85 F7200 ; Z hop return
G1 E0.5 F2100 ; Un-retract
SET_PRESSURE_ADVANCE ADVANCE=0.045 ; Set pressure advance
M117 PA 0.045
G1 X114.9845 Y94.22 E0.99515 F3600 ; Print pattern wall
G1 X93.7713 Y115.4332 E0.99515 F3600 ; Print pattern wall
G1 E-0.5 F2100 ; Retract
G1 Z0.95 F7200 ; Z hop
G0 X94.347 Y73.0068 F7200 ; Move to start next pattern wall
G1 Z0.85 F7200 ; Z hop return
G1 E0.5 F2100 ; Un-retract
G1 X115.5602 Y94.22 E0.99515 F3600 ; Print pattern wall
G1 X94.347 Y115.4332 E0.99515 F3600 ; Print pattern wall
G1 E-0.5 F2100 ; Retract
G1 Z0.95 F7200 ; Z hop
G0 X94.9227 Y73.0068 F7200 ; Move to start next pattern wall
G1 Z0.85 F7200 ; Z hop return
G1 E0.5 F2100 ; Un-retract
G1 X116.1359 Y94.22 E0.99515 F3600 ; Print pattern wall
G1 X94.9227 Y115.4332 E0.99515 F3600 ; Print pattern wall
G1 E-0.5 F2100 ; Retract
G1 Z0.95 F7200 ; Z hop
G0 X97.3727 Y73.0068 F7200 ; Move to next pattern
G1 Z0.85 F7200 ; Z hop return
G1 E0.5 F2100 ; Un-retract
SET_PRESSURE_ADVANCE ADVANCE=0.05 ; Set pressure advance
M117 PA 0.05
G1 X118.5859 Y94.22 E0.99515 F3600 ; Print pattern wall
G1 X97.3727 Y115.4332 E0.99515 F3600 ; Print pattern wall
G1 E-0.5 F2100 ; Retract
G1 Z0.95 F7200 ; Z hop
G0 X97.9483 Y73.0068 F7200 ; Move to start next pattern wall
G1 Z0.85 F7200 ; Z hop return
G1 E0.5 F2100 ; Un-retract
G1 X119.1616 Y94.22 E0.99515 F3600 ; Print pattern wall
G1 X97.9483 Y115.4332 E0.99515 F3600 ; Print pattern wall
G1 E-0.5 F2100 ; Retract
G1 Z0.95 F7200 ; Z hop
G0 X98.524 Y73.0068 F7200 ; Move to start next pattern wall
G1 Z0.85 F7200 ; Z hop return
G1 E0.5 F2100 ; Un-retract
G1 X119.7373 Y94.22 E0.99515 F3600 ; Print pattern wall
G1 X98.524 Y115.4332 E0.99515 F3600 ; Print pattern wall
G1 E-0.5 F2100 ; Retract
G1 Z0.95 F7200 ; Z hop
G0 X100.974 Y73.0068 F7200 ; Move to next pattern
G1 Z0.85 F7200 ; Z hop return
G1 E0.5 F2100 ; Un-retract
SET_PRESSURE_ADVANCE ADVANCE=0.055 ; Set pressure advance
M117 PA 0.055
G1 X122.1873 Y94.22 E0.99515 F3600 ; Print pattern wall
G1 X100.974 Y115.4332 E0.99515 F3600 ; Print pattern wall
G1 E-0.5 F2100 ; Retract
G1 Z0.95 F7200 ; Z hop
G0 X101.5497 Y73.0068 F7200 ; Move to start next pattern wall
G1 Z0.85 F7200 ; Z hop return
G1 E0.5 F2100 ; Un-retract
G1 X122.7629 Y94.22 E0.99515 F3600 ; Print pattern wall
G1 X101.5497 Y115.4332 E0.99515 F3600 ; Print pattern wall
G1 E-0.5 F2100 ; Retract
G1 Z0.95 F7200 ; Z hop
G0 X102.1254 Y73.0068 F7200 ; Move to start next pattern wall
G1 Z0.85 F7200 ; Z hop return
G1 E0.5 F2100 ; Un-retract
G1 X123.3386 Y94.22 E0.99515 F3600 ; Print pattern wall
G1 X102.1254 Y115.4332 E0.99515 F3600 ; Print pattern wall
G1 E-0.5 F2100 ; Retract
G1 Z0.95 F7200 ; Z hop
G0 X104.5754 Y73.0068 F7200 ; Move to next pattern
G1 Z0.85 F7200 ; Z hop return
G1 E0.5 F2100 ; Un-retract
SET_PRESSURE_ADVANCE ADVANCE=0.06 ; Set pressure advance
M117 PA 0.06
G1 X125.7886 Y94.22 E0.99515 F3600 ; Print pattern wall
G1 X104.5754 Y115.4332 E0.99515 F3600 ; Print pattern wall
G1 E-0.5 F2100 ; Retract
G1 Z0.95 F7200 ; Z hop
G0 X105.1511 Y73.0068 F7200 ; Move to start next pattern wall
G1 Z0.85 F7200 ; Z hop return
G1 E0.5 F2100 ; Un-retract
G1 X126.3643 Y94.22 E0.99515 F3600 ; Print pattern wall
G1 X105.1511 Y115.4332 E0.99515 F3600 ; Print pattern wall
G1 E-0.5 F2100 ; Retract
G1 Z0.95 F7200 ; Z hop
G0 X105.7268 Y73.0068 F7200 ; Move to start next pattern wall
G1 Z0.85 F7200 ; Z hop return
G1 E0.5 F2100 ; Un-retract
G1 X126.94 Y94.22 E0.99515 F3600 ; Print pattern wall
G1 X105.7268 Y115.4332 E0.99515 F3600 ; Print pattern wall
G1 E-0.5 F2100 ; Retract
G1 Z0.95 F7200 ; Z hop
G0 X108.1768 Y73.0068 F7200 ; Move to next pattern
G1 Z0.85 F7200 ; Z hop return
G1 E0.5 F2100 ; Un-retract
SET_PRESSURE_ADVANCE ADVANCE=0.065 ; Set pressure advance
M117 PA 0.065
G1 X129.39 Y94.22 E0.99515 F3600 ; Print pattern wall
G1 X108.1768 Y115.4332 E0.99515 F3600 ; Print pattern wall
G1 E-0.5 F2100 ; Retract
G1 Z0.95 F7200 ; Z hop
G0 X108.7525 Y73.0068 F7200 ; Move to start next pattern wall
G1 Z0.85 F7200 ; Z hop return
G1 E0.5 F2100 ; Un-retract
G1 X129.9657 Y94.22 E0.99515 F3600 ; Print pattern wall
G1 X108.7525 Y115.4332 E0.99515 F3600 ; Print pattern wall
G1 E-0.5 F2100 ; Retract
G1 Z0.95 F7200 ; Z hop
G0 X109.3282 Y73.0068 F7200 ; Move to start next pattern wall
G1 Z0.85 F7200 ; Z hop return
G1 E0.5 F2100 ; Un-retract
G1 X130.5414 Y94.22 E0.99515 F3600 ; Print pattern wall
G1 X109.3282 Y115.4332 E0.99515 F3600 ; Print pattern wall
G1 E-0.5 F2100 ; Retract
G1 Z0.95 F7200 ; Z hop
G0 X111.7782 Y73.0068 F7200 ; Move to next pattern
G1 Z0.85 F7200 ; Z hop return
G1 E0.5 F2100 ; Un-retract
SET_PRESSURE_ADVANCE ADVANCE=0.07 ; Set pressure advance
M117 PA 0.07
G1 X132.9914 Y94.22 E0.99515 F3600 ; Print pattern wall
G1 X111.7782 Y115.4332 E0.99515 F3600 ; Print pattern wall
G1 E-0.5 F2100 ; Retract
G1 Z0.95 F7200 ; Z hop
G0 X112.3539 Y73.0068 F7200 ; Move to start next pattern wall
G1 Z0.85 F7200 ; Z hop return
G1 E0.5 F2100 ; Un-retract
G1 X133.5671 Y94.22 E0.99515 F3600 ; Print pattern wall
G1 X112.3539 Y115.4332 E0.99515 F3600 ; Print pattern wall
G1 E-0.5 F2100 ; Retract
G1 Z0.95 F7200 ; Z hop
G0 X112.9296 Y73.0068 F7200 ; Move to start next pattern wall
G1 Z0.85 F7200 ; Z hop return
G1 E0.5 F2100 ; Un-retract
G1 X134.1428 Y94.22 E0.99515 F3600 ; Print pattern wall
G1 X112.9296 Y115.4332 E0.99515 F3600 ; Print pattern wall
G1 E-0.5 F2100 ; Retract
G1 Z0.95 F7200 ; Z hop
G0 X115.3796 Y73.0068 F7200 ; Move to next pattern
G1 Z0.85 F7200 ; Z hop return
G1 E0.5 F2100 ; Un-retract
SET_PRESSURE_ADVANCE ADVANCE=0.075 ; Set pressure advance
M117 PA 0.075
G1 X136.5928 Y94.22 E0.99515 F3600 ; Print pattern wall
G1 X115.3796 Y115.4332 E0.99515 F3600 ; Print pattern wall
G1 E-0.5 F2100 ; Retract
G1 Z0.95 F7200 ; Z hop
G0 X115.9553 Y73.0068 F7200 ; Move to start next pattern wall
G1 Z0.85 F7200 ; Z hop return
G1 E0.5 F2100 ; Un-retract
G1 X137.1685 Y94.22 E0.99515 F3600 ; Print pattern wall
G1 X115.9553 Y115.4332 E0.99515 F3600 ; Print pattern wall
G1 E-0.5 F2100 ; Retract
G1 Z0.95 F7200 ; Z hop
G0 X116.531 Y73.0068 F7200 ; Move to start next pattern wall
G1 Z0.85 F7200 ; Z hop return
G1 E0.5 F2100 ; Un-retract
G1 X137.7442 Y94.22 E0.99515 F3600 ; Print pattern wall
G1 X116.531 Y115.4332 E0.99515 F3600 ; Print pattern wall
G1 E-0.5 F2100 ; Retract
G1 Z0.95 F7200 ; Z hop
G0 X118.981 Y73.0068 F7200 ; Move to next pattern
G1 Z0.85 F7200 ; Z hop return
G1 E0.5 F2100 ; Un-retract
SET_PRESSURE_ADVANCE ADVANCE=0.08 ; Set pressure advance
M117 PA 0.08
G1 X140.1942 Y94.22 E0.99515 F3600 ; Print pattern wall
G1 X118.981 Y115.4332 E0.99515 F3600 ; Print pattern wall
G1 E-0.5 F2100 ; Retract
G1 Z0.95 F7200 ; Z hop
G0 X119.5567 Y73.0068 F7200 ; Move to start next pattern wall
G1 Z0.85 F7200 ; Z hop return
G1 E0.5 F2100 ; Un-retract
G1 X140.7699 Y94.22 E0.99515 F3600 ; Print pattern wall
G1 X119.5567 Y115.4332 E0.99515 F3600 ; Print pattern wall
G1 E-0.5 F2100 ; Retract
G1 Z0.95 F7200 ; Z hop
G0 X120.1324 Y73.0068 F7200 ; Move to start next pattern wall
G1 Z0.85 F7200 ; Z hop return
G1 E0.5 F2100 ; Un-retract
G1 X141.3456 Y94.22 E0.99515 F3600 ; Print pattern wall
G1 X120.1324 Y115.4332 E0.99515 F3600 ; Print pattern wall
SET_PRESSURE_ADVANCE ADVANCE=0 ; Set pressure advance back to start value
M117 PA 0
G1 E-0.5 F2100 ; Retract
G1 Z0.95 F7200 ; Z hop
G0 Z5.85 F7200 ; Z raise
M104 S0 ; Turn off hotend
M140 S0 ; Turn off bed
M107    ; Turn off fan
;
; End G-code
;
PRINT_END ; End macro. Change name to match yours
;
; FINISH
;
