; HEADER_BLOCK_START
; generated by OrcaSlicer 1.9.0 on 2024-03-04 at 18:46:25
; total layer number: 50
; filament_density: 1.24
; filament_diameter: 1.75
; max_z_height: 10.00
; HEADER_BLOCK_END

; THUMBNAIL_BLOCK_START

;
; THUMBNAIL_BLOCK_END

; external perimeters extrusion width = 0.40mm
; perimeters extrusion width = 0.44mm
; infill extrusion width = 0.44mm
; solid infill extrusion width = 0.48mm
; top infill extrusion width = 0.38mm
; first layer extrusion width = 0.48mm

; EXECUTABLE_BLOCK_START
EXCLUDE_OBJECT_DEFINE NAME=rs25_psu_bracket.stl_id_0_copy_0 CENTER=150,105 POLYGON=[[116.5,105.8],[119.143,103.157],[119.5,102.8],[128.5,97.2],[167,95.2],[170.1,95.2],[180.5,102.8],[183.5,105.8],[183.5,107.8],[181.5,114.4],[181.1,114.8],[116.9,114.8],[116.5,114.4],[116.5,105.8]]
M73 P0 R36
;TYPE:Custom
PRINT_START EXTRUDER=220 BED=0
G90
G21
M83 ; use relative distances for extrusion
M106 S0
;LAYER_CHANGE
;Z:0.2
;HEIGHT:0.2
;BEFORE_LAYER_CHANGE
;0.2
G92 E0
G1 E-.8 F1800
;AFTER_LAYER_CHANGE
;0.2
;_SET_FAN_SPEED_CHANGING_LAYER
SET_VELOCITY_LIMIT ACCEL=500 ACCEL_TO_DECEL=250
G1 Z.4 F10800
G1 X116.059 Y101.983
G1 Z.4
G1 Z.2
G1 E.8 F1800
;TYPE:Skirt
;WIDTH:0.48
G1 X117.283 Y100.759 E.06292
G1 X117.875 Y100.289 E.02747
G1 X126.875 Y94.689 E.38524
G1 X128.452 Y94.193 E.06009
G1 X166.952 Y92.193 E1.4011
G1 X169.976 Y92.189 E.10988
G1 X171.929 Y92.827 E.07469
G1 X182.329 Y100.427 E.46814
G1 X185.541 Y103.583 E.16366
G1 X186.37 Y104.969 E.0587
G1 X186.511 Y105.924 E.03509
G1 X186.511 Y107.676 E.06365
G1 X186.119 Y109.239 E.05856
G1 X182.519 Y115.963 E.2772
G1 X181.37 Y117.204 E.06145
G1 X179.459 Y117.811 E.0729
G1 X118.541 Y117.811 E2.21393
G1 X116.63 Y117.204 E.0729
G1 X115.437 Y115.878 E.06483
G1 X115.089 Y114.4 E.05517
G1 X115.089 Y104.324 E.36619
G1 X115.483 Y102.758 E.0587
G1 X116.035 Y102.015 E.03364
G1 X116.368 Y102.292 F10800
G1 F1800
G1 X117.592 Y101.068 E.06292
G1 X118.106 Y100.66 E.02385
G1 X127.106 Y95.06 E.38524
G1 X128.475 Y94.63 E.05216
G1 X166.975 Y92.63 E1.4011
M73 P0 R35
G1 X169.976 Y92.626 E.10905
G1 X171.672 Y93.179 E.06483
G1 X182.408 Y101.068 E.4842
G1 X185.232 Y103.892 E.14516
G1 X186.074 Y105.924 E.07995
G1 X186.074 Y107.676 E.06365
G1 X185.734 Y109.032 E.05083
G1 X182.134 Y115.757 E.2772
G1 X181.118 Y116.847 E.05416
G1 X179.459 Y117.374 E.06328
G1 X118.541 Y117.374 E2.21393
G1 X116.882 Y116.847 E.06328
G1 X115.783 Y115.588 E.06073
G1 X115.526 Y114.4 E.04418
G1 X115.526 Y104.324 E.36619
G1 X116.352 Y102.329 E.07849
G1 X116.677 Y102.601 F10800
G1 F1800
G1 X118.337 Y101.031 E.08304
G1 X127.337 Y95.431 E.38524
G1 X128.498 Y95.066 E.04423
G1 X166.998 Y93.066 E1.4011
G1 X169.976 Y93.063 E.10823
G1 X171.414 Y93.532 E.05497
G1 X182.099 Y101.377 E.48175
G1 X184.923 Y104.201 E.14516
G1 X185.637 Y105.924 E.06779
G1 X185.637 Y107.676 E.06365
G1 X185.349 Y108.826 E.0431
G1 X181.749 Y115.55 E.2772
G1 X180.866 Y116.49 E.04686
G1 X179.459 Y116.937 E.05366
G1 X118.541 Y116.937 E2.21393
G1 X117.134 Y116.49 E.05366
G1 X116.137 Y115.305 E.05629
G1 X115.963 Y114.4 E.03349
G1 X115.963 Y104.324 E.36619
G1 X116.661 Y102.638 E.06634
; printing object rs25_psu_bracket.stl id:0 copy 0
G1 E-.56
;WIPE_START
G1 X117.383 Y101.946 E-.24
;WIPE_END
EXCLUDE_OBJECT_START NAME=rs25_psu_bracket.stl_id_0_copy_0
G1 Z.6 F10800
G1 X158.363 Y111.477 Z.6
G1 Z.2
G1 E.8 F1800
;TYPE:Inner wall
;WIDTH:0.479999
G1 F1200
G1 X158.226 Y111.677 E.00883
G1 X158.138 Y111.998 E.01206
G1 X158.176 Y112.431 E.01582
G1 X158.508 Y112.947 E.02227
;WIDTH:0.522921
G1 X158.687 Y113.035 E.00797
;WIDTH:0.565843
G1 X158.866 Y113.123 E.00868
;WIDTH:0.608765
G1 X159.045 Y113.212 E.0094
;WIDTH:0.651686
G1 X159.224 Y113.3 E.01011
G1 X159.004 Y113.321 E.0112
;WIDTH:0.608765
G1 X158.784 Y113.343 E.01041
;WIDTH:0.565843
G1 X158.564 Y113.364 E.00962
;WIDTH:0.522921
G1 X158.343 Y113.386 E.00883
;WIDTH:0.479999
G1 X153.602 Y113.386 E.17231
;WIDTH:0.527386
G1 X153.409 Y113.362 E.00782
;WIDTH:0.574773
G1 X153.217 Y113.338 E.00859
;WIDTH:0.62216
G1 X153.024 Y113.315 E.00936
;WIDTH:0.669546
G1 X152.831 Y113.291 E.01012
G1 X152.973 Y113.192 E.00902
;WIDTH:0.62216
G1 X153.115 Y113.093 E.00834
;WIDTH:0.574773
G1 X153.257 Y112.993 E.00766
;WIDTH:0.527386
G1 X153.398 Y112.894 E.00697
;WIDTH:0.479999
G1 X155.087 Y111.206 E.08677
G1 X155.313 Y110.877 E.01449
G1 X155.407 Y110.433 E.0165
G1 X155.407 Y107.75 E.09753
G1 X155.368 Y107.392 E.01308
G1 X155.268 Y107.147 E.00961
G1 X155.087 Y106.908 E.0109
G1 X153.398 Y105.22 E.08677
;WIDTH:0.521395
G1 X153.141 Y105.092 E.01143
;WIDTH:0.56279
G1 X152.883 Y104.965 E.01242
;WIDTH:0.604185
G1 X152.626 Y104.838 E.01341
G1 X139.367 Y104.838 E.61879
;WIDTH:0.632582
G1 X139.017 Y104.823 E.01715
;WIDTH:0.660979
G1 X138.668 Y104.809 E.01798
G1 X138.365 Y104.527 E.02126
;WIDTH:0.632582
G1 X138.153 Y104.335 E.01402
;WIDTH:0.604185
G1 X135.994 Y102.176 E.1425
;WIDTH:0.632582
G1 X135.812 Y102.037 E.0112
;WIDTH:0.660979
G1 X135.63 Y101.899 E.01174
G1 X135.404 Y101.868 E.01174
;WIDTH:0.632582
G1 X135.178 Y101.838 E.0112
;WIDTH:0.604185
G1 X131.381 Y101.838 E.17721
;WIDTH:0.611296
G1 X131.218 Y101.845 E.00768
G1 X131.095 Y101.91 E.00658
;WIDTH:0.567531
G1 X130.971 Y101.974 E.00607
;WIDTH:0.523765
G1 X130.848 Y102.038 E.00557
;WIDTH:0.479999
G1 X130.608 Y102.22 E.01093
G1 X129.961 Y102.867 E.03326
G1 X129.69 Y103.245 E.01691
G1 X129.6 Y103.681 E.01616
G1 X129.6 Y104.728 E.03807
M73 P1 R35
G1 X129.428 Y104.9 E.00882
G1 X128.322 Y104.9 E.04019
;WIDTH:0.520386
G1 X128.141 Y104.882 E.00722
;WIDTH:0.560773
G1 X127.96 Y104.864 E.00783
;WIDTH:0.60116
G1 X127.779 Y104.845 E.00844
;WIDTH:0.641546
G1 X127.599 Y104.827 E.00905
G1 X127.398 Y104.87 E.01018
G1 X127.291 Y104.957 E.00691
;WIDTH:0.60116
G1 X127.183 Y105.045 E.00644
;WIDTH:0.560773
G1 X127.075 Y105.132 E.00597
;WIDTH:0.520386
G1 X126.968 Y105.22 E.00551
;WIDTH:0.479999
G1 X125.279 Y106.908 E.08677
G1 X125.072 Y107.197 E.01294
G1 X124.978 Y107.479 E.01078
G1 X124.959 Y107.681 E.00737
G1 X124.959 Y110.433 E.10004
G1 X124.997 Y110.717 E.01042
G1 X125.095 Y110.961 E.00956
G1 X125.279 Y111.206 E.01112
G1 X126.968 Y112.894 E.08677
;WIDTH:0.522921
G1 X127.161 Y112.996 E.00871
;WIDTH:0.565843
G1 X127.354 Y113.097 E.00949
;WIDTH:0.608765
G1 X127.547 Y113.199 E.01027
;WIDTH:0.651686
G1 X127.74 Y113.3 E.01104
G1 X127.496 Y113.321 E.0124
;WIDTH:0.608765
G1 X127.252 Y113.343 E.01153
;WIDTH:0.565843
G1 X127.008 Y113.364 E.01065
;WIDTH:0.522921
G1 X126.764 Y113.386 E.00978
;WIDTH:0.479999
G1 X119.514 Y113.386 E.26348
G1 X119.514 Y104.786 E.31256
G1 X120.086 Y104.214 E.02938
G1 X126.551 Y104.214 E.23498
;WIDTH:0.520386
G1 X126.732 Y104.232 E.00722
;WIDTH:0.560773
G1 X126.913 Y104.25 E.00783
;WIDTH:0.60116
G1 X127.094 Y104.268 E.00844
;WIDTH:0.641546
G1 X127.275 Y104.286 E.00905
G1 X127.475 Y104.244 E.01018
G1 X127.583 Y104.157 E.00691
;WIDTH:0.60116
G1 X127.69 Y104.069 E.00644
;WIDTH:0.560773
G1 X127.798 Y103.982 E.00597
;WIDTH:0.520386
G1 X127.906 Y103.894 E.00551
;WIDTH:0.479999
G1 X128.553 Y103.247 E.03326
G1 X128.824 Y102.869 E.01691
G1 X128.914 Y102.433 E.01616
G1 X128.914 Y98.786 E.13256
G1 X129.086 Y98.614 E.00882
G1 X130.086 Y98.614 E.03635
G1 X130.102 Y100.31 E.06164
G1 X130.194 Y100.596 E.0109
G1 X130.463 Y100.947 E.01608
G1 X130.785 Y101.141 E.01365
;WIDTH:0.52441
G1 X130.909 Y101.187 E.00533
;WIDTH:0.568821
G1 X131.034 Y101.234 E.00582
;WIDTH:0.613232
G1 X131.159 Y101.281 E.00631
G1 X131.381 Y101.276 E.01052
;WIDTH:0.604185
G1 X135.178 Y101.276 E.17721
;WIDTH:0.632582
G1 X135.527 Y101.29 E.01715
;WIDTH:0.660979
G1 X135.877 Y101.305 E.01798
G1 X136.179 Y101.587 E.02126
;WIDTH:0.632582
G1 X136.391 Y101.779 E.01402
;WIDTH:0.604185
G1 X138.55 Y103.938 E.1425
;WIDTH:0.632582
G1 X138.732 Y104.076 E.0112
;WIDTH:0.660979
G1 X138.914 Y104.215 E.01174
G1 X139.14 Y104.245 E.01174
;WIDTH:0.632582
G1 X139.367 Y104.276 E.0112
;WIDTH:0.604185
G1 X152.626 Y104.276 E.61879
G1 X153.022 Y104.256 E.01852
;WIDTH:0.56279
G1 X153.419 Y104.235 E.01716
;WIDTH:0.521395
G1 X153.815 Y104.214 E.01579
;WIDTH:0.479999
G1 X158.633 Y104.214 E.17511
G1 X159.035 Y104.137 E.01488
G1 X159.406 Y103.894 E.01611
G1 X162.086 Y101.214 E.13774
G1 X164.414 Y101.214 E.08462
G1 X164.586 Y101.386 E.00882
G1 X164.586 Y101.989 E.02193
G1 X164.414 Y102.161 E.00882
G1 X163.867 Y102.161 E.01989
G1 X163.433 Y102.251 E.01611
G1 X163.094 Y102.481 E.01488
G1 X159.08 Y106.495 E.20631
G1 X158.831 Y106.881 E.01672
G1 X158.768 Y107.138 E.00961
G1 X158.772 Y107.43 E.01059
G1 X158.843 Y107.686 E.00966
G1 X159.286 Y108.754 E.04201
G1 X159.446 Y109.04 E.01193
G1 X159.755 Y109.312 E.01497
G1 X160.336 Y109.464 E.02183
G1 X158.451 Y111.349 E.09688
G1 X158.386 Y111.444 E.0042
G1 X158.749 Y111.676 F10800
G1 F1200
G1 X158.707 Y111.718 E.00216
G1 X158.588 Y111.963 E.0099
G1 X158.595 Y112.307 E.01251
G1 X158.794 Y112.617 E.01336
G1 X159.224 Y112.777 E.01668
G1 X178.923 Y112.777 E.71593
G1 X178.923 Y113.823 E.03801
G1 X119.077 Y113.823 E2.17499
G1 X119.077 Y104.605 E.33502
G1 X119.905 Y103.777 E.04254
G1 X126.551 Y103.777 E.24156
G1 X127.324 Y103.749 E.02811
G1 X127.597 Y103.585 E.01155
G1 X128.398 Y102.746 E.04216
G1 X128.477 Y102.433 E.01172
G1 X128.477 Y98.605 E.13914
G1 X128.905 Y98.177 E.02198
G1 X130.692 Y98.177 E.06496
G1 X130.523 Y98.379 E.00956
G1 X130.523 Y100.121 E.06334
G1 X130.588 Y100.406 E.01061
G1 X130.749 Y100.617 E.00965
G1 X130.942 Y100.733 E.00819
G1 X131.179 Y100.777 E.00873
G1 X136.095 Y100.777 E.17869
G1 X138.903 Y103.585 E.14432
G1 X139.116 Y103.727 E.0093
G1 X139.367 Y103.777 E.0093
G1 X158.633 Y103.777 E.7002
G1 X158.874 Y103.731 E.00893
G1 X159.097 Y103.585 E.00966
G1 X161.905 Y100.777 E.14432
G1 X164.595 Y100.777 E.09778
G1 X165.023 Y101.205 E.02198
G1 X165.023 Y102.17 E.03509
G1 X164.595 Y102.598 E.02198
G1 X163.867 Y102.598 E.02647
G1 X163.606 Y102.652 E.00966
G1 X163.403 Y102.79 E.00893
G1 X159.389 Y106.804 E.20631
G1 X159.24 Y107.036 E.01003
G1 X159.202 Y107.19 E.00577
G1 X159.247 Y107.518 E.01205
G1 X159.69 Y108.586 E.04201
G1 X159.792 Y108.772 E.00772
G1 X159.977 Y108.936 E.00898
G1 X160.31 Y109.027 E.01256
G1 X161.392 Y109.027 E.03929
G1 X158.777 Y111.648 E.13455
G1 E-.56 F1800
;WIPE_START
G1 F1200
G1 X158.707 Y111.718 E-.02388
G1 X158.588 Y111.963 E-.06537
G1 X158.595 Y112.307 E-.08264
G1 X158.749 Y112.546 E-.06812
;WIPE_END
G1 Z.6 F10800
G1 X152.977 Y112.643 Z.6
G1 Z.2
G1 E.8 F1800
G1 F1200
G1 X152.739 Y112.767 E.00976
G1 X127.74 Y112.777 E.90853
G1 X127.277 Y112.585 E.01824
G1 X125.588 Y110.897 E.08677
G1 X125.419 Y110.604 E.0123
G1 X125.396 Y110.433 E.00625
G1 X125.396 Y107.681 E.10004
G1 X125.464 Y107.391 E.01082
G1 X125.588 Y107.217 E.00776
G1 X127.277 Y105.529 E.08677
G1 X127.549 Y105.365 E.01155
G1 X128.322 Y105.337 E.02811
G1 X129.609 Y105.337 E.04676
G1 X130.037 Y104.909 E.02198
G1 X130.037 Y103.681 E.04465
G1 X130.116 Y103.368 E.01172
G1 X130.821 Y102.625 E.03721
G1 X131.061 Y102.42 E.01148
G1 X131.381 Y102.337 E.012
G1 X135.178 Y102.337 E.138
G1 X135.429 Y102.387 E.0093
G1 X135.641 Y102.529 E.0093
G1 X138.449 Y105.337 E.14432
G1 X152.626 Y105.337 E.51522
G1 X153.089 Y105.529 E.01824
G1 X154.778 Y107.217 E.08677
G1 X154.946 Y107.507 E.0122
G1 X154.97 Y107.75 E.00885
G1 X154.97 Y110.433 E.09753
G1 X154.913 Y110.7 E.0099
G1 X154.778 Y110.897 E.00869
G1 X153.089 Y112.585 E.08677
G1 X153.013 Y112.625 E.00314
G1 X152.812 Y112.244 F10800
;TYPE:Outer wall
G1 F1200
G1 X152.78 Y112.276 E.00163
G1 X152.626 Y112.34 E.00608
G1 X127.74 Y112.34 E.90442
G1 X127.586 Y112.276 E.00608
G1 X125.898 Y110.588 E.08677
G1 X125.834 Y110.433 E.00608
G1 X125.834 Y107.681 E.10004
G1 X125.898 Y107.526 E.00608
G1 X127.586 Y105.838 E.08677
G1 X127.74 Y105.774 E.00608
G1 X129.79 Y105.774 E.07449
G1 X130.474 Y105.09 E.03514
G1 X130.474 Y103.681 E.05123
G1 X130.538 Y103.526 E.00608
G1 X131.226 Y102.838 E.03538
G1 X131.381 Y102.774 E.00608
G1 X135.178 Y102.774 E.138
G1 X135.332 Y102.838 E.00608
G1 X138.268 Y105.774 E.1509
G1 X152.626 Y105.774 E.5218
G1 X152.78 Y105.838 E.00608
G1 X154.469 Y107.526 E.08677
G1 X154.533 Y107.681 E.00608
G1 X154.533 Y107.75 E.00251
G1 X154.533 Y110.433 E.09753
G1 X154.469 Y110.588 E.00608
G1 X152.84 Y112.216 E.08369
G1 E-.56 F1800
;WIPE_START
G1 F1200
G1 X152.78 Y112.276 E-.02035
G1 X152.626 Y112.34 E-.04014
G1 X151.878 Y112.34 E-.17951
;WIPE_END
G1 Z.6 F10800
G1 X152.831 Y113.291 Z.6
G1 Z.2
G1 E.8 F1800
;TYPE:Inner wall
;WIDTH:0.669546
G1 F1200
G1 X152.626 Y113.3 E.0107
;WIDTH:0.651686
G1 X127.74 Y113.3 E1.25968
M73 P2 R35
G1 E-.56 F1800
;WIPE_START
G1 F1200
G1 X128.74 Y113.3 E-.24
;WIPE_END
G1 Z.6 F10800
G1 X168.862 Y103.989 Z.6
G1 Z.2
G1 E.8 F1800
;WIDTH:0.479999
G1 F1200
G1 X168.641 Y104.049 E.0083
G1 X168.266 Y104.413 E.019
G1 X168.231 Y104.606 E.00713
;WIDTH:0.43806
G1 X168.197 Y104.799 E.00645
;WIDTH:0.396121
G1 X168.163 Y104.992 E.00576
;WIDTH:0.354181
G1 X168.163 Y107.608 E.06769
;WIDTH:0.392555
G1 X168.18 Y107.767 E.00465
;WIDTH:0.430928
G1 X168.198 Y107.926 E.00516
;WIDTH:0.469301
G1 X168.215 Y108.085 E.00567
G1 X168.706 Y108.391 E.02052
G1 X167.63 Y108.391 E.03815
G1 X167.826 Y108.097 E.01256
G1 X167.835 Y107.934 E.00579
;WIDTH:0.430928
G1 X167.843 Y107.771 E.00526
;WIDTH:0.392555
G1 X167.851 Y107.608 E.00474
;WIDTH:0.354181
G1 X167.851 Y104.992 E.06769
;WIDTH:0.396121
G1 X167.872 Y104.765 E.00669
;WIDTH:0.43806
G1 X167.893 Y104.539 E.00749
;WIDTH:0.479999
G1 X167.914 Y104.312 E.00828
G1 X167.91 Y102.433 E.06827
;WIDTH:0.472299
G1 X167.91 Y98.379 E.14476
;WIDTH:0.479999
G1 X167.795 Y97.882 E.01852
G1 X167.488 Y97.512 E.01747
G1 X166.892 Y97.308 E.02289
G1 X167.586 Y96.614 E.03564
G1 X168.453 Y96.614 E.03151
G1 X168.336 Y96.897 E.01112
G1 X168.34 Y98.379 E.05385
;WIDTH:0.472299
G1 X168.34 Y102.433 E.14476
;WIDTH:0.482177
G1 X168.351 Y102.622 E.00692
G1 X168.656 Y103.206 E.02405
;WIDTH:0.479999
G1 X169.342 Y103.896 E.03538
G1 X169.192 Y103.9 E.00544
G1 X168.9 Y103.979 E.01099
G1 E-.56 F1800
;WIPE_START
G1 F1200
G1 X168.641 Y104.049 E-.06439
G1 X168.266 Y104.413 E-.1255
G1 X168.231 Y104.606 E-.0471
G1 X168.229 Y104.618 E-.00301
;WIPE_END
G1 Z.6 F10800
G1 X170.699 Y96.649 Z.6
G1 Z.2
G1 E.8 F1800
;TYPE:Outer wall
;WIDTH:0.602088
G1 F1200
G1 X170.188 Y96.138 E.03362
;WIDTH:0.606326
G1 X170.152 Y96.105 E.00228
G1 E-.56 F1800
;WIPE_START
G1 F1200
G1 X170.188 Y96.138 E-.01515
G1 X170.699 Y96.649 E-.22485
;WIPE_END
G1 Z.6 F10800
G1 X179.095 Y104.276 Z.6
G1 Z.2
G1 E.8 F1800
;TYPE:Inner wall
;WIDTH:0.604185
G1 F1200
G1 X179.889 Y104.276 E.03704
G1 X179.971 Y104.358 E.00542
;WIDTH:0.615062
G1 X180.694 Y105.089 E.04892
G1 X180.931 Y105.295 E.01493
;WIDTH:0.570041
G1 X181.169 Y105.5 E.01376
;WIDTH:0.52502
G1 X181.406 Y105.706 E.01258
;WIDTH:0.479999
G1 X182.086 Y106.386 E.03495
G1 X182.086 Y106.735 E.01269
G1 X182.086 Y107.214 E.01742
G1 X180.914 Y108.386 E.06022
G1 X180.06 Y108.386 E.03103
G1 X180.364 Y107.886 E.02125
G1 X180.4 Y107.608 E.01021
G1 X180.4 Y106.122 E.05398
;WIDTH:0.52502
G1 X180.353 Y105.9 E.00911
;WIDTH:0.570041
G1 X180.305 Y105.678 E.00996
;WIDTH:0.615062
G1 X180.258 Y105.456 E.01081
G1 X180.124 Y105.306 E.00955
;WIDTH:0.604185
G1 X179.123 Y104.305 E.06608
G1 E-.56 F1800
;WIPE_START
G1 F1200
G1 X179.889 Y104.276 E-.18384
G1 X179.971 Y104.358 E-.0279
G1 X180.054 Y104.442 E-.02826
;WIPE_END
G1 Z.6 F10800
G1 X166.607 Y108.823 Z.6
G1 Z.2
G1 E.8 F1800
;WIDTH:0.479999
G1 F1200
G1 X167.285 Y108.145 E.03484
G1 X167.427 Y107.932 E.00932
G1 X167.477 Y107.681 E.00927
G1 X167.477 Y98.379 E.3381
G1 X167.406 Y98.081 E.01113
G1 X167.231 Y97.867 E.01003
G1 X166.826 Y97.723 E.01562
G1 X166.427 Y97.723 E.0145
G1 X166.427 Y97.155 E.02065
G1 X167.405 Y96.177 E.05025
G1 X169.221 Y96.177 E.06601
G1 X168.965 Y96.433 E.01316
G1 X168.773 Y96.897 E.01824
G1 X168.773 Y102.433 E.20121
G1 X168.783 Y102.546 E.00413
G1 X168.965 Y102.897 E.01435
G1 X169.653 Y103.585 E.03538
;WIDTH:0.510632
G1 X169.885 Y103.696 E.01
;WIDTH:0.541263
G1 X170.117 Y103.808 E.01066
G1 X178.178 Y103.808 E.33402
G1 X178.565 Y103.792 E.01607
;WIDTH:0.510631
G1 X178.953 Y103.777 E.01508
;WIDTH:0.479999
G1 X180.095 Y103.777 E.04153
G1 X182.523 Y106.205 E.12477
G1 X182.523 Y106.735 E.01927
G1 X182.523 Y107.395 E.024
G1 X181.095 Y108.823 E.07338
