; HEADER_BLOCK_START
; generated by OrcaSlicer 1.9.0 on 2024-01-29 at 18:45:25
; total layer number: 150
; filament_density: 1.24
; filament_diameter: 1.75
; max_z_height: 30.00
; HEADER_BLOCK_END

; THUMBNAIL_BLOCK_START

;
; THUMBNAIL_BLOCK_END

; external perimeters extrusion width = 0.40mm
; perimeters extrusion width = 0.40mm
; infill extrusion width = 0.45mm
; solid infill extrusion width = 0.40mm
; top infill extrusion width = 0.40mm
; first layer extrusion width = 0.50mm

; EXECUTABLE_BLOCK_START
EXCLUDE_OBJECT_DEFINE NAME=Voron_Design_Cube_v7.stl_id_0_copy_0 CENTER=152.5,110 POLYGON=[[137.5,95],[167.5,95],[167.5,125],[137.5,125],[137.5,95]]
M73 P0 R37
;TYPE:Custom
M190 S60
M109 S220
PRINT_START EXTRUDER=220 BED=60
; You can use following code instead if your PRINT_START macro support Chamber and print area bedmesh
; PRINT_START EXTRUDER=220 BED=60 Chamber=0 PRINT_MIN=126,83.5002 PRINT_MAX=179,136.5
G90
G21
M83 ; use relative distances for extrusion
; filament start gcode
M106 S0
;LAYER_CHANGE
;Z:0.2
;HEIGHT:0.2
;BEFORE_LAYER_CHANGE
;0.2
G92 E0

G1 E-.5 F1800
;AFTER_LAYER_CHANGE
;0.2
;_SET_FAN_SPEED_CHANGING_LAYER
SET_VELOCITY_LIMIT ACCEL=500 ACCEL_TO_DECEL=250
SET_VELOCITY_LIMIT SQUARE_CORNER_VELOCITY=9
G1 Z.4 F21000
G1 X127.794 Y95.153
G1 Z.4
G1 Z.2
G1 E.5 F1800
;TYPE:Skirt
;WIDTH:0.5
G1 F3000
G1 X129.559 Y92.869 E.10751
G1 X135.369 Y87.059 E.30602
G1 X137.76 Y85.232 E.11209
G1 X140.547 Y84.095 E.11209
G1 X143.41 Y83.729 E.10751
G1 X161.59 Y83.729 E.67716
G1 X164.573 Y84.127 E.11209
G1 X167.347 Y85.294 E.11209
G1 X169.631 Y87.059 E.10751
M73 P0 R36
G1 X175.441 Y92.869 E.30602
G1 X177.268 Y95.26 E.11209
G1 X178.405 Y98.047 E.11209
G1 X178.771 Y100.91 E.10751
G1 X178.771 Y119.09 E.67716
G1 X178.373 Y122.073 E.11209
G1 X177.206 Y124.847 E.11209
G1 X175.441 Y127.131 E.10751
G1 X169.631 Y132.941 E.30602
G1 X167.24 Y134.768 E.11209
G1 X164.453 Y135.905 E.11209
G1 X161.59 Y136.271 E.10751
G1 X143.41 Y136.271 E.67716
G1 X140.427 Y135.873 E.11209
G1 X137.653 Y134.706 E.11209
G1 X135.369 Y132.941 E.10751
G1 X129.559 Y127.131 E.30602
G1 X127.732 Y124.74 E.11209
G1 X126.595 Y121.953 E.11209
G1 X126.229 Y119.09 E.10751
G1 X126.229 Y100.91 E.67716
G1 X126.627 Y97.927 E.11209
G1 X127.778 Y95.189 E.1106
G1 X128.209 Y95.375 F21000
G1 F3000
G1 X128.249 Y95.281 E.00382
G1 X129.883 Y93.192 E.09874
G1 X135.692 Y87.383 E.30602
G1 X138.039 Y85.599 E.10981
G1 X140.778 Y84.508 E.10981
G1 X143.41 Y84.186 E.09874
G1 X161.59 Y84.186 E.67716
G1 X164.511 Y84.584 E.10981
G1 X167.219 Y85.749 E.10981
G1 X169.308 Y87.383 E.09874
G1 X175.117 Y93.192 E.30602
G1 X176.901 Y95.539 E.10981
G1 X177.992 Y98.278 E.10981
G1 X178.314 Y100.91 E.09874
G1 X178.314 Y119.09 E.67716
G1 X177.916 Y122.011 E.10981
G1 X176.751 Y124.719 E.10981
G1 X175.117 Y126.808 E.09874
G1 X169.308 Y132.617 E.30602
G1 X166.961 Y134.401 E.10981
G1 X164.222 Y135.492 E.10981
G1 X161.59 Y135.814 E.09874
G1 X143.41 Y135.814 E.67716
G1 X140.489 Y135.416 E.10981
G1 X137.781 Y134.251 E.10981
G1 X135.692 Y132.617 E.09874
G1 X129.883 Y126.808 E.30602
G1 X128.099 Y124.461 E.10981
G1 X127.008 Y121.722 E.10981
G1 X126.686 Y119.09 E.09874
G1 X126.686 Y100.91 E.67716
G1 X127.084 Y97.989 E.10981
G1 X128.193 Y95.411 E.1045
G1 X128.622 Y95.6 F21000
G1 F3000
G1 X128.705 Y95.412 E.00769
G1 X130.206 Y93.515 E.09007
G1 X136.015 Y87.706 E.30602
G1 X138.318 Y85.966 E.10747
G1 X141.008 Y84.923 E.10747
G1 X143.41 Y84.643 E.09007
G1 X161.59 Y84.643 E.67716
G1 X164.448 Y85.041 E.10747
G1 X167.088 Y86.205 E.10747
G1 X168.985 Y87.706 E.09007
G1 X174.794 Y93.515 E.30602
G1 X176.534 Y95.818 E.10747
G1 X177.577 Y98.508 E.10747
G1 X177.857 Y100.91 E.09007
G1 X177.857 Y119.09 E.67716
G1 X177.459 Y121.948 E.10747
G1 X176.295 Y124.588 E.10747
G1 X174.794 Y126.485 E.09007
G1 X168.985 Y132.294 E.30602
G1 X166.682 Y134.034 E.10747
G1 X163.992 Y135.077 E.10747
G1 X161.59 Y135.357 E.09007
G1 X143.41 Y135.357 E.67716
G1 X140.552 Y134.959 E.10747
G1 X137.912 Y133.795 E.10747
G1 X136.015 Y132.294 E.09007
G1 X130.206 Y126.485 E.30602
G1 X128.466 Y124.182 E.10747
G1 X127.423 Y121.492 E.10747
G1 X127.143 Y119.09 E.09007
G1 X127.143 Y100.91 E.67716
G1 X127.541 Y98.052 E.10747
G1 X128.606 Y95.637 E.09829
; printing object Voron_Design_Cube_v7.stl id:0 copy 0
G1 E-.35 F1800
;WIPE_START
G1 F3000
G1 X128.705 Y95.412 E-.03696
G1 X129.173 Y94.821 E-.11304
;WIPE_END
EXCLUDE_OBJECT_START NAME=Voron_Design_Cube_v7.stl_id_0_copy_0
G1 Z.6 F21000
G1 X166.236 Y118.608 Z.6
G1 Z.2
G1 E.5 F1800
;TYPE:Inner wall
;WIDTH:0.499999
G1 F2400
G1 X161.108 Y123.736 E.2701
G1 X143.892 Y123.736 E.64124
G1 X138.764 Y118.608 E.2701
G1 X138.764 Y101.392 E.64124
G1 X143.892 Y96.264 E.2701
G1 X161.108 Y96.264 E.64124
G1 X166.236 Y101.392 E.2701
G1 X166.236 Y102.857 E.05457
G1 X166.236 Y118.568 E.58518
G1 X166.693 Y118.797 F21000
G1 F2400
G1 X161.297 Y124.193 E.2842
G1 X143.703 Y124.193 E.65534
G1 X138.307 Y118.797 E.2842
G1 X138.307 Y101.203 E.65534
G1 X143.703 Y95.807 E.2842
G1 X161.297 Y95.807 E.65534
G1 X166.693 Y101.203 E.2842
G1 X166.693 Y102.857 E.06163
G1 X166.693 Y118.757 E.59223
G1 X167.15 Y118.987 F21000
;TYPE:Outer wall
G1 F2400
G1 X161.487 Y124.65 E.2983
G1 X143.513 Y124.65 E.66945
G1 X137.85 Y118.987 E.2983
G1 X137.85 Y101.013 E.66945
G1 X143.513 Y95.35 E.2983
G1 X161.487 Y95.35 E.66945
G1 X167.15 Y101.013 E.2983
G1 X167.15 Y102.857 E.06868
G1 X167.15 Y118.947 E.59928
G1 E-.35 F1800
;WIPE_START
G1 F2400
G1 X166.445 Y119.656 E-.15
;WIPE_END
G1 Z.6 F21000
G1 X154.655 Y101.357 Z.6
G1 Z.2
M73 P1 R36
G1 E.5 F1800
;TYPE:Inner wall
G1 F2400
G1 X155.438 Y101.586 E.03036
G1 X156.291 Y101.934 E.03432
G1 X157.103 Y102.368 E.03432
G1 X158.204 Y103.154 E.05036
G1 X159.002 Y103.907 E.04089
G1 X159.765 Y104.84 E.04487
G1 X160.274 Y105.642 E.0354
G1 X160.683 Y106.468 E.03432
G1 X161.003 Y107.332 E.03432
G1 X161.233 Y108.224 E.03432
G1 X161.37 Y109.135 E.03432
G1 X161.412 Y110.055 E.03431
G1 X161.38 Y110.762 E.02637
G1 X161.256 Y111.66 E.03377
G1 X161.038 Y112.555 E.03432
G1 X160.729 Y113.423 E.03432
G1 X160.331 Y114.255 E.03432
G1 X159.85 Y115.04 E.03432
G1 X159.291 Y115.772 E.03432
G1 X158.658 Y116.443 E.03432
G1 X157.96 Y117.044 E.03432
G1 X157.204 Y117.57 E.03432
G1 X156.397 Y118.015 E.03432
G1 X155.409 Y118.423 E.03981
G1 X154.247 Y118.738 E.04487
G1 X153.306 Y118.876 E.0354
G1 X152.386 Y118.912 E.03432
G1 X151.466 Y118.853 E.03432
G1 X150.558 Y118.699 E.03432
G1 X149.67 Y118.452 E.03432
G1 X148.813 Y118.114 E.03432
G1 X147.995 Y117.69 E.03432
G1 X147.323 Y117.25 E.02992
G1 X146.511 Y116.601 E.0387
G1 X145.862 Y115.948 E.03432
G1 X145.283 Y115.231 E.03432
G1 X144.711 Y114.328 E.03981
G1 X144.198 Y113.238 E.04487
G1 X143.899 Y112.336 E.0354
G1 X143.704 Y111.435 E.03432
G1 X143.602 Y110.52 E.03432
G1 X143.596 Y109.598 E.03432
G1 X143.685 Y108.681 E.03432
G1 X143.869 Y107.778 E.03432
G1 X144.144 Y106.899 E.03432
G1 X144.577 Y105.922 E.03981
G1 X145.199 Y104.89 E.04487
G1 X145.784 Y104.141 E.0354
G1 X146.424 Y103.479 E.03432
G1 X147.13 Y102.886 E.03432
G1 X148.021 Y102.296 E.03981
G1 X149.101 Y101.763 E.04487
G1 X149.997 Y101.446 E.0354
G1 X150.894 Y101.233 E.03432
G1 X151.807 Y101.114 E.03432
G1 X152.728 Y101.09 E.03432
G1 X153.647 Y101.161 E.03432
G1 X154.553 Y101.327 E.03432
G1 X154.617 Y101.346 E.00247
G1 X154.527 Y101.794 F21000
G1 F2400
G1 X155.307 Y102.023 E.03027
G1 X156.115 Y102.356 E.03256
G1 X156.885 Y102.77 E.03256
G1 X157.936 Y103.524 E.04816
G1 X158.648 Y104.196 E.0365
G1 X159.411 Y105.129 E.04487
G1 X159.886 Y105.883 E.0332
G1 X160.272 Y106.668 E.03256
G1 X160.574 Y107.488 E.03256
G1 X160.79 Y108.335 E.03256
G1 X160.918 Y109.2 E.03256
G1 X160.955 Y110.073 E.03255
G1 X160.924 Y110.739 E.02483
G1 X160.804 Y111.596 E.03223
G1 X160.595 Y112.444 E.03256
G1 X160.299 Y113.267 E.03256
G1 X159.92 Y114.055 E.03256
G1 X159.462 Y114.799 E.03256
G1 X158.929 Y115.492 E.03256
G1 X158.328 Y116.127 E.03256
G1 X157.664 Y116.696 E.03256
G1 X156.946 Y117.193 E.03256
G1 X156.179 Y117.614 E.03256
G1 X155.29 Y117.981 E.03585
G1 X154.127 Y118.297 E.04487
G1 X153.245 Y118.423 E.0332
G1 X152.371 Y118.455 E.03256
G1 X151.499 Y118.397 E.03256
G1 X150.637 Y118.248 E.03256
G1 X149.796 Y118.012 E.03256
G1 X148.983 Y117.69 E.03256
G1 X148.208 Y117.286 E.03256
G1 X147.577 Y116.869 E.02816
G1 X146.803 Y116.249 E.03694
G1 X146.188 Y115.628 E.03256
G1 X145.641 Y114.946 E.03256
G1 X145.124 Y114.134 E.03585
G1 X144.612 Y113.044 E.04487
G1 X144.334 Y112.196 E.0332
G1 X144.151 Y111.342 E.03256
G1 X144.057 Y110.472 E.03256
G1 X144.053 Y109.598 E.03256
G1 X144.14 Y108.728 E.03256
G1 X144.316 Y107.872 E.03256
G1 X144.579 Y107.039 E.03256
G1 X144.968 Y106.158 E.03585
G1 X145.591 Y105.127 E.04487
G1 X146.141 Y104.426 E.03321
G1 X146.751 Y103.799 E.03256
G1 X147.422 Y103.238 E.03256
G1 X148.224 Y102.706 E.03585
G1 X149.304 Y102.172 E.04487
G1 X150.145 Y101.878 E.03321
G1 X150.996 Y101.679 E.03256
G1 X151.863 Y101.568 E.03256
G1 X152.737 Y101.547 E.03256
G1 X153.609 Y101.617 E.03256
G1 X154.468 Y101.776 E.03256
G1 X154.489 Y101.782 E.0008
G1 X154.397 Y102.229 F21000
;TYPE:Outer wall
G1 F2400
G1 X155.176 Y102.461 E.03026
G1 X155.94 Y102.778 E.0308
G1 X156.667 Y103.172 E.0308
G1 X157.667 Y103.894 E.04597
G1 X158.294 Y104.486 E.03211
G1 X159.057 Y105.418 E.04487
G1 X159.498 Y106.124 E.03101
G1 X159.86 Y106.868 E.0308
G1 X160.144 Y107.644 E.0308
G1 X160.347 Y108.446 E.0308
G1 X160.465 Y109.264 E.0308
G1 X160.499 Y110.091 E.03079
G1 X160.467 Y110.715 E.02329
G1 X160.351 Y111.531 E.03069
G1 X160.151 Y112.333 E.0308
G1 X159.87 Y113.111 E.0308
G1 X159.509 Y113.855 E.0308
G1 X159.074 Y114.558 E.0308
G1 X158.568 Y115.212 E.0308
G1 X157.998 Y115.811 E.0308
G1 X157.368 Y116.347 E.0308
G1 X156.687 Y116.816 E.0308
G1 X155.961 Y117.212 E.0308
G1 X155.17 Y117.54 E.0319
G1 X154.007 Y117.856 E.04487
G1 X153.183 Y117.97 E.03101
G1 X152.356 Y117.998 E.0308
G1 X151.531 Y117.941 E.0308
G1 X150.717 Y117.798 E.0308
G1 X149.921 Y117.573 E.0308
G1 X149.153 Y117.266 E.0308
G1 X148.421 Y116.882 E.0308
G1 X147.83 Y116.489 E.0264
G1 X147.094 Y115.897 E.03518
G1 X146.515 Y115.308 E.0308
G1 X145.999 Y114.661 E.0308
G1 X145.538 Y113.939 E.0319
G1 X145.025 Y112.849 E.04487
G1 X144.769 Y112.057 E.03101
G1 X144.598 Y111.248 E.0308
G1 X144.512 Y110.425 E.0308
G1 X144.51 Y109.598 E.0308
G1 X144.595 Y108.776 E.0308
G1 X144.763 Y107.966 E.0308
G1 X145.015 Y107.178 E.0308
G1 X145.359 Y106.394 E.0319
G1 X145.982 Y105.363 E.04487
G1 X146.499 Y104.71 E.03101
G1 X147.077 Y104.119 E.0308
G1 X147.713 Y103.59 E.0308
G1 X148.426 Y103.116 E.0319
G1 X149.506 Y102.582 E.04487
G1 X150.293 Y102.311 E.03101
G1 X151.099 Y102.124 E.0308
G1 X151.919 Y102.022 E.0308
G1 X152.746 Y102.004 E.0308
G1 X153.57 Y102.072 E.0308
G1 X154.358 Y102.221 E.02985
G1 E-.35 F1800
;WIPE_START
G1 F2400
G1 X155.176 Y102.461 E-.12786
G1 X155.312 Y102.518 E-.02214
;WIPE_END
G1 Z.6 F21000
G1 X160.757 Y96.401 Z.6
G1 Z.2
G1 E.5 F1800
;TYPE:Bottom surface
;WIDTH:0.504252
G1 F3600
G1 X165.893 Y101.537 E.27303
G1 X165.893 Y102.189 E.02453
G1 X160.311 Y96.607 E.29678
G1 X159.658 Y96.607 E.02453
G1 X165.893 Y102.842 E.33147
G1 X165.893 Y103.494 E.02453
G1 X159.006 Y96.607 E.36615
G1 X158.353 Y96.607 E.02453
G1 X165.893 Y104.147 E.40084
G1 X165.893 Y104.799 E.02453
G1 X157.701 Y96.607 E.43552
G1 X157.049 Y96.607 E.02453
G1 X165.893 Y105.451 E.47021
G1 X165.893 Y106.104 E.02453
G1 X156.396 Y96.607 E.50489
G1 X155.744 Y96.607 E.02453
G1 X165.893 Y106.756 E.53958
G1 X165.893 Y107.409 E.02453
G1 X155.091 Y96.607 E.57427
G1 X154.439 Y96.607 E.02453
G1 X165.893 Y108.061 E.60895
G1 X165.893 Y108.714 E.02453
G1 X153.786 Y96.607 E.64364
G1 X153.134 Y96.607 E.02453
G1 X165.893 Y109.366 E.67832
G1 X165.893 Y110.018 E.02453
G1 X152.482 Y96.607 E.71301
G1 X151.829 Y96.607 E.02453
G1 X157.344 Y102.121 E.29317
G1 X158.41 Y102.88 E.04922
G1 X159.171 Y103.582 E.0389
G1 X160.138 Y104.773 E.05768
G1 X160.362 Y105.14 E.01614
G1 X165.893 Y110.671 E.29406
G1 X165.893 Y111.323 E.02453
G1 X161.063 Y106.493 E.2568
G1 X161.4 Y107.483 E.03931
G1 X165.893 Y111.976 E.23886
G1 X165.893 Y112.628 E.02453
G1 X161.602 Y108.337 E.22814
G1 X161.704 Y109.091 E.02862
G1 X165.893 Y113.281 E.22271
G1 X165.893 Y113.933 E.02453
G1 X161.744 Y109.784 E.22059
G1 X161.756 Y110.1 E.01191
G1 X161.737 Y110.43 E.01239
G1 X165.893 Y114.585 E.22094
G1 X165.893 Y115.238 E.02453
G1 X161.691 Y111.036 E.22339
G1 X161.605 Y111.603 E.02155
G1 X165.893 Y115.89 E.22795
G1 X165.893 Y116.543 E.02453
G1 X161.493 Y112.142 E.23394
G1 X161.359 Y112.661 E.02012
G1 X165.893 Y117.195 E.24107
G1 X165.893 Y117.847 E.02453
G1 X161.191 Y113.146 E.24996
G1 X161.014 Y113.621 E.01907
G1 X165.876 Y118.483 E.25848
G1 X165.55 Y118.809 E.01734
G1 X160.803 Y114.062 E.25239
G1 X160.586 Y114.498 E.0183
G1 X165.224 Y119.135 E.24655
G1 X164.898 Y119.462 E.01734
G1 X160.338 Y114.902 E.24239
G1 X160.086 Y115.303 E.01779
G1 X164.571 Y119.788 E.23843
G1 X164.245 Y120.114 E.01734
G1 X159.802 Y115.671 E.23621
G1 X159.513 Y116.035 E.01746
G1 X163.919 Y120.44 E.23423
G1 X163.593 Y120.767 E.01734
G1 X159.197 Y116.37 E.23371
G1 X158.88 Y116.706 E.01735
G1 X163.266 Y121.093 E.2332
G1 X162.94 Y121.419 E.01734
G1 X158.529 Y117.008 E.23452
G1 X158.178 Y117.309 E.01739
G1 X162.614 Y121.745 E.23585
G1 X162.288 Y122.071 E.01734
G1 X157.793 Y117.577 E.23894
G1 X157.409 Y117.845 E.01762
G1 X161.962 Y122.398 E.24203
G1 X161.635 Y122.724 E.01734
G1 X156.99 Y118.079 E.24694
G1 X156.57 Y118.311 E.01805
G1 X161.309 Y123.05 E.25193
G1 X160.983 Y123.376 E.01734
G1 X156.114 Y118.507 E.25886
G1 X155.654 Y118.7 E.01874
G1 X160.347 Y123.393 E.24952
G1 X159.695 Y123.393 E.02453
G1 X155.142 Y118.841 E.24203
G1 X154.631 Y118.981 E.01995
G1 X159.043 Y123.393 E.23454
G1 X158.39 Y123.393 E.02453
G1 X154.109 Y119.112 E.22762
G1 X153.535 Y119.191 E.02176
G1 X157.738 Y123.393 E.22342
G1 X157.085 Y123.393 E.02453
G1 X152.925 Y119.233 E.22117
G1 X152.292 Y119.252 E.02383
G1 X156.433 Y123.393 E.22017
G1 X155.78 Y123.393 E.02453
G1 X151.592 Y119.205 E.22267
G1 X151.437 Y119.194 E.00585
G1 X150.826 Y119.091 E.02326
G1 X155.128 Y123.393 E.22869
G1 X154.476 Y123.393 E.02453
G1 X149.974 Y118.891 E.23932
G1 X149.571 Y118.78 E.01571
G1 X148.977 Y118.547 E.02399
G1 X154.029 Y123.599 E.26857
G1 E-.35 F1800
;WIPE_START
G1 F3600
G1 X153.322 Y122.892 E-.15
;WIPE_END
G1 Z.6 F21000
G1 X150.971 Y96.401 Z.6
G1 Z.2
G1 E.5 F1800
G1 F3600
G1 X156.025 Y101.456 E.26871
G1 X155.541 Y101.258 E.01966
G1 X155.026 Y101.109 E.02016
G1 X150.524 Y96.607 E.23933
G1 X149.872 Y96.607 E.02453
G1 X154.175 Y100.91 E.22877
G1 X153.681 Y100.82 E.01888
G1 X153.412 Y100.8 E.01013
G1 X149.219 Y96.607 E.2229
G1 X148.567 Y96.607 E.02453
G1 X152.708 Y100.748 E.22015
G1 X152.073 Y100.765 E.02389
G1 X147.915 Y96.607 E.22107
G1 X147.262 Y96.607 E.02453
G1 X151.467 Y100.812 E.22353
G1 X150.888 Y100.885 E.02195
G1 X146.61 Y96.607 E.22743
G1 X145.957 Y96.607 E.02453
G1 X150.356 Y101.006 E.23387
G1 X150.029 Y101.081 E.01263
G1 X149.841 Y101.143 E.00744
G1 X145.305 Y96.607 E.24116
G1 X144.653 Y96.607 E.02453
G1 X149.352 Y101.306 E.24984
G1 X149.12 Y101.384 E.0092
G1 X148.89 Y101.497 E.00962
G1 X144.017 Y96.624 E.25909
G1 X143.691 Y96.95 E.01734
G1 X148.454 Y101.713 E.25321
M73 P2 R36
G1 X148.017 Y101.929 E.01831
G1 X143.365 Y97.276 E.24734
G1 X143.038 Y97.602 E.01734
G1 X147.594 Y102.159 E.24222
G1 X147.206 Y102.422 E.01766
G1 X142.712 Y97.929 E.2389
G1 X142.386 Y98.255 E.01734
G1 X146.826 Y102.695 E.23603
G1 X146.471 Y102.992 E.01741
G1 X142.06 Y98.581 E.23451
G1 X141.733 Y98.907 E.01734
G1 X146.123 Y103.297 E.23339
G1 X145.803 Y103.629 E.01735
G1 X141.407 Y99.234 E.23369
G1 X141.081 Y99.56 E.01734
G1 X145.486 Y103.965 E.23418
G1 X145.198 Y104.329 E.01746
G1 X140.755 Y99.886 E.2362
G1 X140.429 Y100.212 E.01734
G1 X144.917 Y104.701 E.23864
G1 X144.674 Y105.11 E.01789
G1 X140.102 Y100.538 E.24303
G1 X139.776 Y100.865 E.01734
G1 X144.43 Y105.519 E.24743
G1 X144.189 Y105.929 E.01792
G1 X139.45 Y101.191 E.25193
G1 X139.124 Y101.517 E.01734
G1 X143.993 Y106.386 E.25884
G1 X143.801 Y106.847 E.01877
G1 X139.107 Y102.153 E.24956
G1 X139.107 Y102.805 E.02453
G1 X143.646 Y107.344 E.24131
G1 X143.504 Y107.854 E.0199
